{
 "type": "map",
 "version": "1.10",
 "tiledversion": "1.10.2",
 "orientation": "orthogonal",
 "renderorder": "right-down",
 "infinite": false,
 "width": 20,
 "height": 11,
 "tilewidth": 16,
 "tileheight": 16,
 "nextlayerid": 3,
 "nextobjectid": 4,
 "tilesets": [
  {
   "firstgid": 1,
   "source": "tiles.tsj"
  }
 ],
 "layers": [
  {
   "type": "tilelayer",
   "name": "World",
   "id": 1,
   "x": 0,
   "y": 0,
   "width": 20,
   "height": 11,
   "opacity": 1,
   "visible": true,
   "parallaxx": 1.0,
   "parallaxy": 1.0,
   "properties": [
    {
     "name": "priority",
     "type": "int",
     "value": 2
    }
   ],
   "data": [
    31,
    32,
    32,
    32,
    32,
    32,
    32,
    32,
    32,
    32,
    32,
    32,
    32,
    32,
    32,
    32,
    32,
    32,
    32,
    33,
    34,
    35,
    38,
    38,
    38,
    38,
    38,
    38,
    38,
    38,
    38,
    38,
    38,
    38,
    38,
    38,
    38,
    38,
    35,
    36,
    34,
    36,
    40,
    41,
    56,
    40,
    40,
    40,
    41,
    40,
    56,
    40,
    40,
    41,
    40,
    56,
    40,
    40,
    34,
    36,
    34,
    36,
    41,
    40,
    40,
    40,
    40,
    41,
    40,
    40,
    40,
    40,
    41,
    40,
    40,
    40,
    40,
    41,
    34,
    36,
    34,
    36,
    40,
    40,
    40,
    40,
    41,
    40,
    40,
    40,
    40,
    41,
    40,
    40,
    40,
    40,
    41,
    40,
    34,
    36,
    34,
    36,
    40,
    40,
    40,
    41,
    40,
    40,
    40,
    40,
    41,
    40,
    40,
    40,
    40,
    41,
    40,
    40,
    34,
    36,
    34,
    36,
    40,
    40,
    41,
    40,
    40,
    40,
    40,
    41,
    40,
    40,
    40,
    42,
    43,
    40,
    42,
    43,
    34,
    36,
    34,
    36,
    62,
    41,
    40,
    40,
    40,
    40,
    41,
    40,
    40,
    40,
    40,
    44,
    45,
    40,
    44,
    45,
    34,
    36,
    34,
    36,
    63,
    40,
    40,
    40,
    63,
    62,
    40,
    40,
    40,
    40,
    41,
    40,
    40,
    40,
    40,
    63,
    34,
    36,
    34,
    35,
    32,
    32,
    32,
    32,
    32,
    32,
    32,
    32,
    32,
    32,
    32,
    32,
    32,
    32,
    32,
    32,
    35,
    36,
    37,
    38,
    38,
    38,
    38,
    38,
    38,
    38,
    38,
    38,
    38,
    38,
    38,
    38,
    38,
    38,
    38,
    38,
    38,
    39
   ]
  },
  {
   "type": "objectgroup",
   "name": "spawns",
   "id": 2,
   "x": 0,
   "y": 0,
   "opacity": 1,
   "visible": true,
   "draworder": "topdown",
   "objects": [
    {
     "id": 1,
     "name": "merchant",
     "x": 192,
     "y": 128,
     "width": 16,
     "height": 16,
     "rotation": 0,
     "visible": true,
     "properties": [
      {
       "name": "kind",
       "type": "int",
       "value": 1
      },
      {
       "name": "a",
       "type": "int",
       "value": 0
      }
     ]
    },
    {
     "id": 2,
     "name": "door",
     "x": 32,
     "y": 128,
     "width": 16,
     "height": 16,
     "rotation": 0,
     "visible": true,
     "properties": [
      {
       "name": "kind",
       "type": "int",
       "value": 9
      },
      {
       "name": "a",
       "type": "int",
       "value": 0
      }
     ]
    },
    {
     "id": 3,
     "name": "player",
     "x": 96,
     "y": 128,
     "width": 16,
     "height": 16,
     "rotation": 0,
     "visible": true,
     "properties": [
      {
       "name": "kind",
       "type": "int",
       "value": 10
      },
      {
       "name": "a",
       "type": "int",
       "value": 0
      }
     ]
    }
   ]
  }
 ]
}
