{
 "type": "map",
 "orientation": "orthogonal",
 "renderorder": "right-down",
 "infinite": false,
 "width": 20,
 "height": 12,
 "tilewidth": 16,
 "tileheight": 16,
 "nextlayerid": 4,
 "nextobjectid": 4,
 "version": "1.10",
 "tiledversion": "1.11.0",
 "tilesets": [
  {
   "firstgid": 1,
   "source": "../../../assets/ninja-adventure/tiled/TilesetField.tsj"
  }
 ],
 "layers": [
  {
   "type": "tilelayer",
   "name": "Ground",
   "id": 1,
   "width": 20,
   "height": 12,
   "x": 0,
   "y": 0,
   "opacity": 1,
   "visible": true,
   "data": [
    64,
    64,
    64,
    64,
    64,
    64,
    64,
    64,
    64,
    64,
    64,
    64,
    64,
    64,
    64,
    64,
    64,
    64,
    64,
    64,
    64,
    19,
    19,
    19,
    19,
    19,
    19,
    19,
    64,
    64,
    19,
    19,
    19,
    19,
    19,
    19,
    19,
    19,
    19,
    64,
    64,
    19,
    19,
    19,
    19,
    19,
    19,
    19,
    64,
    64,
    19,
    19,
    19,
    19,
    19,
    19,
    19,
    19,
    19,
    64,
    64,
    19,
    19,
    19,
    19,
    19,
    19,
    19,
    64,
    64,
    19,
    19,
    19,
    19,
    19,
    19,
    19,
    19,
    19,
    64,
    64,
    19,
    19,
    19,
    19,
    19,
    19,
    19,
    64,
    64,
    19,
    19,
    19,
    19,
    19,
    19,
    19,
    19,
    19,
    64,
    64,
    19,
    19,
    19,
    19,
    19,
    19,
    19,
    19,
    19,
    19,
    19,
    19,
    19,
    19,
    19,
    19,
    19,
    19,
    64,
    64,
    19,
    19,
    19,
    19,
    19,
    19,
    19,
    19,
    19,
    19,
    19,
    19,
    19,
    19,
    19,
    19,
    19,
    19,
    64,
    64,
    19,
    19,
    19,
    19,
    19,
    19,
    19,
    64,
    64,
    19,
    19,
    19,
    19,
    19,
    19,
    19,
    19,
    19,
    64,
    64,
    19,
    19,
    19,
    19,
    19,
    19,
    19,
    64,
    64,
    19,
    19,
    19,
    19,
    19,
    19,
    19,
    19,
    19,
    64,
    64,
    19,
    19,
    19,
    19,
    19,
    19,
    19,
    64,
    64,
    19,
    19,
    19,
    19,
    19,
    19,
    19,
    19,
    19,
    64,
    64,
    19,
    19,
    19,
    19,
    19,
    19,
    19,
    64,
    64,
    19,
    19,
    19,
    19,
    19,
    19,
    19,
    19,
    19,
    64,
    64,
    64,
    64,
    64,
    64,
    64,
    64,
    64,
    64,
    64,
    64,
    64,
    64,
    64,
    64,
    64,
    64,
    64,
    64,
    64
   ]
  },
  {
   "type": "tilelayer",
   "name": "Solid",
   "id": 2,
   "width": 20,
   "height": 12,
   "x": 0,
   "y": 0,
   "opacity": 1,
   "visible": true,
   "data": [
    64,
    64,
    64,
    64,
    64,
    64,
    64,
    64,
    64,
    64,
    64,
    64,
    64,
    64,
    64,
    64,
    64,
    64,
    64,
    64,
    64,
    0,
    0,
    0,
    0,
    0,
    0,
    0,
    64,
    64,
    0,
    0,
    0,
    0,
    0,
    0,
    0,
    0,
    0,
    64,
    64,
    0,
    0,
    0,
    0,
    0,
    0,
    0,
    64,
    64,
    0,
    0,
    0,
    0,
    0,
    0,
    0,
    0,
    0,
    64,
    64,
    0,
    0,
    0,
    0,
    0,
    0,
    0,
    64,
    64,
    0,
    0,
    0,
    0,
    0,
    0,
    0,
    0,
    0,
    64,
    64,
    0,
    0,
    0,
    0,
    0,
    0,
    0,
    64,
    64,
    0,
    0,
    0,
    0,
    0,
    0,
    0,
    0,
    0,
    64,
    64,
    0,
    0,
    0,
    0,
    0,
    0,
    0,
    0,
    0,
    0,
    0,
    0,
    0,
    0,
    0,
    0,
    0,
    0,
    64,
    64,
    0,
    0,
    0,
    0,
    0,
    0,
    0,
    0,
    0,
    0,
    0,
    0,
    0,
    0,
    0,
    0,
    0,
    0,
    64,
    64,
    0,
    0,
    0,
    0,
    0,
    0,
    0,
    64,
    64,
    0,
    0,
    0,
    0,
    0,
    0,
    0,
    0,
    0,
    64,
    64,
    0,
    0,
    0,
    0,
    0,
    0,
    0,
    64,
    64,
    0,
    0,
    0,
    0,
    0,
    0,
    0,
    0,
    0,
    64,
    64,
    0,
    0,
    0,
    0,
    0,
    0,
    0,
    64,
    64,
    0,
    0,
    0,
    0,
    0,
    0,
    0,
    0,
    0,
    64,
    64,
    0,
    0,
    0,
    0,
    0,
    0,
    0,
    64,
    64,
    0,
    0,
    0,
    0,
    0,
    0,
    0,
    0,
    0,
    64,
    64,
    64,
    64,
    64,
    64,
    64,
    64,
    64,
    64,
    64,
    64,
    64,
    64,
    64,
    64,
    64,
    64,
    64,
    64,
    64
   ]
  },
  {
   "type": "objectgroup",
   "name": "spawns",
   "id": 3,
   "opacity": 1,
   "visible": true,
   "x": 0,
   "y": 0,
   "objects": [
    {
     "id": 1,
     "name": "tee",
     "x": 32,
     "y": 96,
     "width": 16,
     "height": 16,
     "visible": true,
     "properties": [
      {
       "name": "kind",
       "type": "int",
       "value": 100
      }
     ]
    },
    {
     "id": 2,
     "name": "cup",
     "x": 272,
     "y": 96,
     "width": 16,
     "height": 16,
     "visible": true,
     "properties": [
      {
       "name": "kind",
       "type": "int",
       "value": 101
      }
     ]
    },
    {
     "id": 3,
     "name": "par",
     "x": 0,
     "y": 0,
     "width": 16,
     "height": 16,
     "visible": true,
     "properties": [
      {
       "name": "kind",
       "type": "int",
       "value": 203
      }
     ]
    }
   ]
  }
 ]
}