{
 "type": "map",
 "orientation": "orthogonal",
 "renderorder": "right-down",
 "infinite": false,
 "width": 20,
 "height": 12,
 "tilewidth": 16,
 "tileheight": 16,
 "nextlayerid": 4,
 "nextobjectid": 76,
 "version": "1.10",
 "tiledversion": "1.11.0",
 "tilesets": [
  {
   "firstgid": 1,
   "source": "../../../assets/ninja-adventure/tiled/TilesetField.tsj"
  }
 ],
 "layers": [
  {
   "type": "tilelayer",
   "name": "Ground",
   "id": 1,
   "width": 20,
   "height": 12,
   "x": 0,
   "y": 0,
   "opacity": 1,
   "visible": true,
   "data": [
    64,
    64,
    64,
    64,
    64,
    64,
    64,
    64,
    64,
    64,
    64,
    64,
    64,
    64,
    64,
    64,
    64,
    64,
    64,
    64,
    64,
    19,
    19,
    19,
    19,
    19,
    34,
    34,
    34,
    34,
    34,
    34,
    34,
    34,
    19,
    19,
    19,
    19,
    19,
    64,
    64,
    19,
    19,
    19,
    19,
    19,
    34,
    34,
    34,
    34,
    34,
    34,
    34,
    34,
    19,
    19,
    19,
    19,
    19,
    64,
    64,
    19,
    19,
    19,
    19,
    19,
    34,
    34,
    34,
    34,
    34,
    34,
    34,
    34,
    19,
    19,
    19,
    19,
    19,
    64,
    64,
    19,
    19,
    19,
    19,
    19,
    34,
    34,
    34,
    34,
    34,
    34,
    34,
    34,
    19,
    19,
    19,
    19,
    19,
    64,
    64,
    19,
    19,
    19,
    19,
    19,
    19,
    19,
    19,
    19,
    19,
    19,
    19,
    19,
    19,
    19,
    19,
    19,
    19,
    64,
    64,
    19,
    19,
    19,
    19,
    19,
    19,
    19,
    19,
    19,
    19,
    19,
    19,
    19,
    19,
    19,
    19,
    19,
    19,
    64,
    64,
    19,
    19,
    19,
    19,
    19,
    19,
    19,
    19,
    19,
    19,
    19,
    19,
    19,
    19,
    19,
    19,
    19,
    19,
    64,
    64,
    19,
    19,
    19,
    19,
    19,
    34,
    34,
    34,
    34,
    34,
    34,
    34,
    34,
    19,
    19,
    19,
    19,
    19,
    64,
    64,
    19,
    19,
    19,
    19,
    19,
    34,
    34,
    34,
    34,
    34,
    34,
    34,
    34,
    19,
    19,
    19,
    19,
    19,
    64,
    64,
    19,
    19,
    19,
    19,
    19,
    34,
    34,
    34,
    34,
    34,
    34,
    34,
    34,
    19,
    19,
    19,
    19,
    19,
    64,
    64,
    64,
    64,
    64,
    64,
    64,
    64,
    64,
    64,
    64,
    64,
    64,
    64,
    64,
    64,
    64,
    64,
    64,
    64,
    64
   ]
  },
  {
   "type": "tilelayer",
   "name": "Solid",
   "id": 2,
   "width": 20,
   "height": 12,
   "x": 0,
   "y": 0,
   "opacity": 1,
   "visible": true,
   "data": [
    64,
    64,
    64,
    64,
    64,
    64,
    64,
    64,
    64,
    64,
    64,
    64,
    64,
    64,
    64,
    64,
    64,
    64,
    64,
    64,
    64,
    0,
    0,
    0,
    0,
    0,
    0,
    0,
    0,
    0,
    0,
    0,
    0,
    0,
    0,
    0,
    0,
    0,
    0,
    64,
    64,
    0,
    0,
    0,
    0,
    0,
    0,
    0,
    0,
    0,
    0,
    0,
    0,
    0,
    0,
    0,
    0,
    0,
    0,
    64,
    64,
    0,
    0,
    0,
    0,
    0,
    0,
    0,
    0,
    0,
    0,
    0,
    0,
    0,
    0,
    0,
    0,
    0,
    0,
    64,
    64,
    0,
    0,
    0,
    0,
    0,
    0,
    0,
    0,
    0,
    0,
    0,
    0,
    0,
    0,
    0,
    0,
    0,
    0,
    64,
    64,
    0,
    0,
    0,
    0,
    0,
    0,
    0,
    0,
    0,
    0,
    0,
    0,
    0,
    0,
    0,
    0,
    0,
    0,
    64,
    64,
    0,
    0,
    0,
    0,
    0,
    0,
    0,
    0,
    0,
    0,
    0,
    0,
    0,
    0,
    0,
    0,
    0,
    0,
    64,
    64,
    0,
    0,
    0,
    0,
    0,
    0,
    0,
    0,
    0,
    0,
    0,
    0,
    0,
    0,
    0,
    0,
    0,
    0,
    64,
    64,
    0,
    0,
    0,
    0,
    0,
    0,
    0,
    0,
    0,
    0,
    0,
    0,
    0,
    0,
    0,
    0,
    0,
    0,
    64,
    64,
    0,
    0,
    0,
    0,
    0,
    0,
    0,
    0,
    0,
    0,
    0,
    0,
    0,
    0,
    0,
    0,
    0,
    0,
    64,
    64,
    0,
    0,
    0,
    0,
    0,
    0,
    0,
    0,
    0,
    0,
    0,
    0,
    0,
    0,
    0,
    0,
    0,
    0,
    64,
    64,
    64,
    64,
    64,
    64,
    64,
    64,
    64,
    64,
    64,
    64,
    64,
    64,
    64,
    64,
    64,
    64,
    64,
    64,
    64
   ]
  },
  {
   "type": "objectgroup",
   "name": "spawns",
   "id": 3,
   "opacity": 1,
   "visible": true,
   "x": 0,
   "y": 0,
   "objects": [
    {
     "id": 1,
     "name": "surface",
     "x": 96,
     "y": 0,
     "width": 16,
     "height": 16,
     "visible": true,
     "properties": [
      {
       "name": "kind",
       "type": "int",
       "value": 1
      }
     ]
    },
    {
     "id": 2,
     "name": "surface",
     "x": 112,
     "y": 0,
     "width": 16,
     "height": 16,
     "visible": true,
     "properties": [
      {
       "name": "kind",
       "type": "int",
       "value": 1
      }
     ]
    },
    {
     "id": 3,
     "name": "surface",
     "x": 128,
     "y": 0,
     "width": 16,
     "height": 16,
     "visible": true,
     "properties": [
      {
       "name": "kind",
       "type": "int",
       "value": 1
      }
     ]
    },
    {
     "id": 4,
     "name": "surface",
     "x": 144,
     "y": 0,
     "width": 16,
     "height": 16,
     "visible": true,
     "properties": [
      {
       "name": "kind",
       "type": "int",
       "value": 1
      }
     ]
    },
    {
     "id": 5,
     "name": "surface",
     "x": 160,
     "y": 0,
     "width": 16,
     "height": 16,
     "visible": true,
     "properties": [
      {
       "name": "kind",
       "type": "int",
       "value": 1
      }
     ]
    },
    {
     "id": 6,
     "name": "surface",
     "x": 176,
     "y": 0,
     "width": 16,
     "height": 16,
     "visible": true,
     "properties": [
      {
       "name": "kind",
       "type": "int",
       "value": 1
      }
     ]
    },
    {
     "id": 7,
     "name": "surface",
     "x": 192,
     "y": 0,
     "width": 16,
     "height": 16,
     "visible": true,
     "properties": [
      {
       "name": "kind",
       "type": "int",
       "value": 1
      }
     ]
    },
    {
     "id": 8,
     "name": "surface",
     "x": 208,
     "y": 0,
     "width": 16,
     "height": 16,
     "visible": true,
     "properties": [
      {
       "name": "kind",
       "type": "int",
       "value": 1
      }
     ]
    },
    {
     "id": 9,
     "name": "surface",
     "x": 96,
     "y": 16,
     "width": 16,
     "height": 16,
     "visible": true,
     "properties": [
      {
       "name": "kind",
       "type": "int",
       "value": 1
      }
     ]
    },
    {
     "id": 10,
     "name": "surface",
     "x": 112,
     "y": 16,
     "width": 16,
     "height": 16,
     "visible": true,
     "properties": [
      {
       "name": "kind",
       "type": "int",
       "value": 1
      }
     ]
    },
    {
     "id": 11,
     "name": "surface",
     "x": 128,
     "y": 16,
     "width": 16,
     "height": 16,
     "visible": true,
     "properties": [
      {
       "name": "kind",
       "type": "int",
       "value": 1
      }
     ]
    },
    {
     "id": 12,
     "name": "surface",
     "x": 144,
     "y": 16,
     "width": 16,
     "height": 16,
     "visible": true,
     "properties": [
      {
       "name": "kind",
       "type": "int",
       "value": 1
      }
     ]
    },
    {
     "id": 13,
     "name": "surface",
     "x": 160,
     "y": 16,
     "width": 16,
     "height": 16,
     "visible": true,
     "properties": [
      {
       "name": "kind",
       "type": "int",
       "value": 1
      }
     ]
    },
    {
     "id": 14,
     "name": "surface",
     "x": 176,
     "y": 16,
     "width": 16,
     "height": 16,
     "visible": true,
     "properties": [
      {
       "name": "kind",
       "type": "int",
       "value": 1
      }
     ]
    },
    {
     "id": 15,
     "name": "surface",
     "x": 192,
     "y": 16,
     "width": 16,
     "height": 16,
     "visible": true,
     "properties": [
      {
       "name": "kind",
       "type": "int",
       "value": 1
      }
     ]
    },
    {
     "id": 16,
     "name": "surface",
     "x": 208,
     "y": 16,
     "width": 16,
     "height": 16,
     "visible": true,
     "properties": [
      {
       "name": "kind",
       "type": "int",
       "value": 1
      }
     ]
    },
    {
     "id": 17,
     "name": "surface",
     "x": 96,
     "y": 32,
     "width": 16,
     "height": 16,
     "visible": true,
     "properties": [
      {
       "name": "kind",
       "type": "int",
       "value": 1
      }
     ]
    },
    {
     "id": 18,
     "name": "surface",
     "x": 112,
     "y": 32,
     "width": 16,
     "height": 16,
     "visible": true,
     "properties": [
      {
       "name": "kind",
       "type": "int",
       "value": 1
      }
     ]
    },
    {
     "id": 19,
     "name": "surface",
     "x": 128,
     "y": 32,
     "width": 16,
     "height": 16,
     "visible": true,
     "properties": [
      {
       "name": "kind",
       "type": "int",
       "value": 1
      }
     ]
    },
    {
     "id": 20,
     "name": "surface",
     "x": 144,
     "y": 32,
     "width": 16,
     "height": 16,
     "visible": true,
     "properties": [
      {
       "name": "kind",
       "type": "int",
       "value": 1
      }
     ]
    },
    {
     "id": 21,
     "name": "surface",
     "x": 160,
     "y": 32,
     "width": 16,
     "height": 16,
     "visible": true,
     "properties": [
      {
       "name": "kind",
       "type": "int",
       "value": 1
      }
     ]
    },
    {
     "id": 22,
     "name": "surface",
     "x": 176,
     "y": 32,
     "width": 16,
     "height": 16,
     "visible": true,
     "properties": [
      {
       "name": "kind",
       "type": "int",
       "value": 1
      }
     ]
    },
    {
     "id": 23,
     "name": "surface",
     "x": 192,
     "y": 32,
     "width": 16,
     "height": 16,
     "visible": true,
     "properties": [
      {
       "name": "kind",
       "type": "int",
       "value": 1
      }
     ]
    },
    {
     "id": 24,
     "name": "surface",
     "x": 208,
     "y": 32,
     "width": 16,
     "height": 16,
     "visible": true,
     "properties": [
      {
       "name": "kind",
       "type": "int",
       "value": 1
      }
     ]
    },
    {
     "id": 25,
     "name": "surface",
     "x": 96,
     "y": 48,
     "width": 16,
     "height": 16,
     "visible": true,
     "properties": [
      {
       "name": "kind",
       "type": "int",
       "value": 1
      }
     ]
    },
    {
     "id": 26,
     "name": "surface",
     "x": 112,
     "y": 48,
     "width": 16,
     "height": 16,
     "visible": true,
     "properties": [
      {
       "name": "kind",
       "type": "int",
       "value": 1
      }
     ]
    },
    {
     "id": 27,
     "name": "surface",
     "x": 128,
     "y": 48,
     "width": 16,
     "height": 16,
     "visible": true,
     "properties": [
      {
       "name": "kind",
       "type": "int",
       "value": 1
      }
     ]
    },
    {
     "id": 28,
     "name": "surface",
     "x": 144,
     "y": 48,
     "width": 16,
     "height": 16,
     "visible": true,
     "properties": [
      {
       "name": "kind",
       "type": "int",
       "value": 1
      }
     ]
    },
    {
     "id": 29,
     "name": "surface",
     "x": 160,
     "y": 48,
     "width": 16,
     "height": 16,
     "visible": true,
     "properties": [
      {
       "name": "kind",
       "type": "int",
       "value": 1
      }
     ]
    },
    {
     "id": 30,
     "name": "surface",
     "x": 176,
     "y": 48,
     "width": 16,
     "height": 16,
     "visible": true,
     "properties": [
      {
       "name": "kind",
       "type": "int",
       "value": 1
      }
     ]
    },
    {
     "id": 31,
     "name": "surface",
     "x": 192,
     "y": 48,
     "width": 16,
     "height": 16,
     "visible": true,
     "properties": [
      {
       "name": "kind",
       "type": "int",
       "value": 1
      }
     ]
    },
    {
     "id": 32,
     "name": "surface",
     "x": 208,
     "y": 48,
     "width": 16,
     "height": 16,
     "visible": true,
     "properties": [
      {
       "name": "kind",
       "type": "int",
       "value": 1
      }
     ]
    },
    {
     "id": 33,
     "name": "surface",
     "x": 96,
     "y": 64,
     "width": 16,
     "height": 16,
     "visible": true,
     "properties": [
      {
       "name": "kind",
       "type": "int",
       "value": 1
      }
     ]
    },
    {
     "id": 34,
     "name": "surface",
     "x": 112,
     "y": 64,
     "width": 16,
     "height": 16,
     "visible": true,
     "properties": [
      {
       "name": "kind",
       "type": "int",
       "value": 1
      }
     ]
    },
    {
     "id": 35,
     "name": "surface",
     "x": 128,
     "y": 64,
     "width": 16,
     "height": 16,
     "visible": true,
     "properties": [
      {
       "name": "kind",
       "type": "int",
       "value": 1
      }
     ]
    },
    {
     "id": 36,
     "name": "surface",
     "x": 144,
     "y": 64,
     "width": 16,
     "height": 16,
     "visible": true,
     "properties": [
      {
       "name": "kind",
       "type": "int",
       "value": 1
      }
     ]
    },
    {
     "id": 37,
     "name": "surface",
     "x": 160,
     "y": 64,
     "width": 16,
     "height": 16,
     "visible": true,
     "properties": [
      {
       "name": "kind",
       "type": "int",
       "value": 1
      }
     ]
    },
    {
     "id": 38,
     "name": "surface",
     "x": 176,
     "y": 64,
     "width": 16,
     "height": 16,
     "visible": true,
     "properties": [
      {
       "name": "kind",
       "type": "int",
       "value": 1
      }
     ]
    },
    {
     "id": 39,
     "name": "surface",
     "x": 192,
     "y": 64,
     "width": 16,
     "height": 16,
     "visible": true,
     "properties": [
      {
       "name": "kind",
       "type": "int",
       "value": 1
      }
     ]
    },
    {
     "id": 40,
     "name": "surface",
     "x": 208,
     "y": 64,
     "width": 16,
     "height": 16,
     "visible": true,
     "properties": [
      {
       "name": "kind",
       "type": "int",
       "value": 1
      }
     ]
    },
    {
     "id": 41,
     "name": "surface",
     "x": 96,
     "y": 128,
     "width": 16,
     "height": 16,
     "visible": true,
     "properties": [
      {
       "name": "kind",
       "type": "int",
       "value": 1
      }
     ]
    },
    {
     "id": 42,
     "name": "surface",
     "x": 112,
     "y": 128,
     "width": 16,
     "height": 16,
     "visible": true,
     "properties": [
      {
       "name": "kind",
       "type": "int",
       "value": 1
      }
     ]
    },
    {
     "id": 43,
     "name": "surface",
     "x": 128,
     "y": 128,
     "width": 16,
     "height": 16,
     "visible": true,
     "properties": [
      {
       "name": "kind",
       "type": "int",
       "value": 1
      }
     ]
    },
    {
     "id": 44,
     "name": "surface",
     "x": 144,
     "y": 128,
     "width": 16,
     "height": 16,
     "visible": true,
     "properties": [
      {
       "name": "kind",
       "type": "int",
       "value": 1
      }
     ]
    },
    {
     "id": 45,
     "name": "surface",
     "x": 160,
     "y": 128,
     "width": 16,
     "height": 16,
     "visible": true,
     "properties": [
      {
       "name": "kind",
       "type": "int",
       "value": 1
      }
     ]
    },
    {
     "id": 46,
     "name": "surface",
     "x": 176,
     "y": 128,
     "width": 16,
     "height": 16,
     "visible": true,
     "properties": [
      {
       "name": "kind",
       "type": "int",
       "value": 1
      }
     ]
    },
    {
     "id": 47,
     "name": "surface",
     "x": 192,
     "y": 128,
     "width": 16,
     "height": 16,
     "visible": true,
     "properties": [
      {
       "name": "kind",
       "type": "int",
       "value": 1
      }
     ]
    },
    {
     "id": 48,
     "name": "surface",
     "x": 208,
     "y": 128,
     "width": 16,
     "height": 16,
     "visible": true,
     "properties": [
      {
       "name": "kind",
       "type": "int",
       "value": 1
      }
     ]
    },
    {
     "id": 49,
     "name": "surface",
     "x": 96,
     "y": 144,
     "width": 16,
     "height": 16,
     "visible": true,
     "properties": [
      {
       "name": "kind",
       "type": "int",
       "value": 1
      }
     ]
    },
    {
     "id": 50,
     "name": "surface",
     "x": 112,
     "y": 144,
     "width": 16,
     "height": 16,
     "visible": true,
     "properties": [
      {
       "name": "kind",
       "type": "int",
       "value": 1
      }
     ]
    },
    {
     "id": 51,
     "name": "surface",
     "x": 128,
     "y": 144,
     "width": 16,
     "height": 16,
     "visible": true,
     "properties": [
      {
       "name": "kind",
       "type": "int",
       "value": 1
      }
     ]
    },
    {
     "id": 52,
     "name": "surface",
     "x": 144,
     "y": 144,
     "width": 16,
     "height": 16,
     "visible": true,
     "properties": [
      {
       "name": "kind",
       "type": "int",
       "value": 1
      }
     ]
    },
    {
     "id": 53,
     "name": "surface",
     "x": 160,
     "y": 144,
     "width": 16,
     "height": 16,
     "visible": true,
     "properties": [
      {
       "name": "kind",
       "type": "int",
       "value": 1
      }
     ]
    },
    {
     "id": 54,
     "name": "surface",
     "x": 176,
     "y": 144,
     "width": 16,
     "height": 16,
     "visible": true,
     "properties": [
      {
       "name": "kind",
       "type": "int",
       "value": 1
      }
     ]
    },
    {
     "id": 55,
     "name": "surface",
     "x": 192,
     "y": 144,
     "width": 16,
     "height": 16,
     "visible": true,
     "properties": [
      {
       "name": "kind",
       "type": "int",
       "value": 1
      }
     ]
    },
    {
     "id": 56,
     "name": "surface",
     "x": 208,
     "y": 144,
     "width": 16,
     "height": 16,
     "visible": true,
     "properties": [
      {
       "name": "kind",
       "type": "int",
       "value": 1
      }
     ]
    },
    {
     "id": 57,
     "name": "surface",
     "x": 96,
     "y": 160,
     "width": 16,
     "height": 16,
     "visible": true,
     "properties": [
      {
       "name": "kind",
       "type": "int",
       "value": 1
      }
     ]
    },
    {
     "id": 58,
     "name": "surface",
     "x": 112,
     "y": 160,
     "width": 16,
     "height": 16,
     "visible": true,
     "properties": [
      {
       "name": "kind",
       "type": "int",
       "value": 1
      }
     ]
    },
    {
     "id": 59,
     "name": "surface",
     "x": 128,
     "y": 160,
     "width": 16,
     "height": 16,
     "visible": true,
     "properties": [
      {
       "name": "kind",
       "type": "int",
       "value": 1
      }
     ]
    },
    {
     "id": 60,
     "name": "surface",
     "x": 144,
     "y": 160,
     "width": 16,
     "height": 16,
     "visible": true,
     "properties": [
      {
       "name": "kind",
       "type": "int",
       "value": 1
      }
     ]
    },
    {
     "id": 61,
     "name": "surface",
     "x": 160,
     "y": 160,
     "width": 16,
     "height": 16,
     "visible": true,
     "properties": [
      {
       "name": "kind",
       "type": "int",
       "value": 1
      }
     ]
    },
    {
     "id": 62,
     "name": "surface",
     "x": 176,
     "y": 160,
     "width": 16,
     "height": 16,
     "visible": true,
     "properties": [
      {
       "name": "kind",
       "type": "int",
       "value": 1
      }
     ]
    },
    {
     "id": 63,
     "name": "surface",
     "x": 192,
     "y": 160,
     "width": 16,
     "height": 16,
     "visible": true,
     "properties": [
      {
       "name": "kind",
       "type": "int",
       "value": 1
      }
     ]
    },
    {
     "id": 64,
     "name": "surface",
     "x": 208,
     "y": 160,
     "width": 16,
     "height": 16,
     "visible": true,
     "properties": [
      {
       "name": "kind",
       "type": "int",
       "value": 1
      }
     ]
    },
    {
     "id": 65,
     "name": "surface",
     "x": 96,
     "y": 176,
     "width": 16,
     "height": 16,
     "visible": true,
     "properties": [
      {
       "name": "kind",
       "type": "int",
       "value": 1
      }
     ]
    },
    {
     "id": 66,
     "name": "surface",
     "x": 112,
     "y": 176,
     "width": 16,
     "height": 16,
     "visible": true,
     "properties": [
      {
       "name": "kind",
       "type": "int",
       "value": 1
      }
     ]
    },
    {
     "id": 67,
     "name": "surface",
     "x": 128,
     "y": 176,
     "width": 16,
     "height": 16,
     "visible": true,
     "properties": [
      {
       "name": "kind",
       "type": "int",
       "value": 1
      }
     ]
    },
    {
     "id": 68,
     "name": "surface",
     "x": 144,
     "y": 176,
     "width": 16,
     "height": 16,
     "visible": true,
     "properties": [
      {
       "name": "kind",
       "type": "int",
       "value": 1
      }
     ]
    },
    {
     "id": 69,
     "name": "surface",
     "x": 160,
     "y": 176,
     "width": 16,
     "height": 16,
     "visible": true,
     "properties": [
      {
       "name": "kind",
       "type": "int",
       "value": 1
      }
     ]
    },
    {
     "id": 70,
     "name": "surface",
     "x": 176,
     "y": 176,
     "width": 16,
     "height": 16,
     "visible": true,
     "properties": [
      {
       "name": "kind",
       "type": "int",
       "value": 1
      }
     ]
    },
    {
     "id": 71,
     "name": "surface",
     "x": 192,
     "y": 176,
     "width": 16,
     "height": 16,
     "visible": true,
     "properties": [
      {
       "name": "kind",
       "type": "int",
       "value": 1
      }
     ]
    },
    {
     "id": 72,
     "name": "surface",
     "x": 208,
     "y": 176,
     "width": 16,
     "height": 16,
     "visible": true,
     "properties": [
      {
       "name": "kind",
       "type": "int",
       "value": 1
      }
     ]
    },
    {
     "id": 73,
     "name": "tee",
     "x": 32,
     "y": 96,
     "width": 16,
     "height": 16,
     "visible": true,
     "properties": [
      {
       "name": "kind",
       "type": "int",
       "value": 100
      }
     ]
    },
    {
     "id": 74,
     "name": "cup",
     "x": 272,
     "y": 96,
     "width": 16,
     "height": 16,
     "visible": true,
     "properties": [
      {
       "name": "kind",
       "type": "int",
       "value": 101
      }
     ]
    },
    {
     "id": 75,
     "name": "par",
     "x": 0,
     "y": 0,
     "width": 16,
     "height": 16,
     "visible": true,
     "properties": [
      {
       "name": "kind",
       "type": "int",
       "value": 203
      }
     ]
    }
   ]
  }
 ]
}