{
 "type": "map",
 "version": "1.10",
 "tiledversion": "1.11.0",
 "orientation": "orthogonal",
 "renderorder": "right-down",
 "width": 30,
 "height": 20,
 "tilewidth": 16,
 "tileheight": 16,
 "infinite": false,
 "nextlayerid": 6,
 "nextobjectid": 4,
 "tilesets": [
  {
   "firstgid": 1,
   "source": "../../../assets/ninja-adventure/tiled/TilesetFloor.tsj"
  },
  {
   "firstgid": 573,
   "source": "../../../assets/ninja-adventure/tiled/TilesetHouse.tsj"
  },
  {
   "firstgid": 1332,
   "source": "../../../assets/ninja-adventure/tiled/TilesetNature.tsj"
  },
  {
   "firstgid": 1836,
   "source": "../../../assets/ninja-adventure/tiled/TilesetElement.tsj"
  },
  {
   "firstgid": 2076,
   "source": "../../../assets/ninja-adventure/tiled/TilesetFloorDetail.tsj"
  },
  {
   "firstgid": 2156,
   "source": "../../../assets/ninja-adventure/tiled/Collision.tsj"
  }
 ],
 "layers": [
  {
   "id": 1,
   "name": "Ground",
   "type": "tilelayer",
   "data": [
    0,
    0,
    0,
    0,
    0,
    0,
    0,
    0,
    0,
    0,
    0,
    0,
    0,
    0,
    0,
    0,
    0,
    0,
    0,
    0,
    0,
    0,
    0,
    0,
    0,
    0,
    0,
    0,
    0,
    0,
    0,
    155,
    156,
    156,
    156,
    156,
    156,
    156,
    156,
    156,
    156,
    156,
    156,
    156,
    156,
    156,
    156,
    156,
    156,
    156,
    156,
    156,
    156,
    156,
    156,
    156,
    156,
    156,
    157,
    0,
    0,
    177,
    243,
    244,
    178,
    243,
    244,
    178,
    243,
    244,
    178,
    243,
    244,
    178,
    243,
    244,
    178,
    243,
    244,
    178,
    243,
    244,
    178,
    243,
    244,
    178,
    243,
    244,
    179,
    0,
    0,
    177,
    244,
    178,
    243,
    244,
    178,
    243,
    244,
    178,
    243,
    244,
    178,
    243,
    244,
    178,
    243,
    244,
    178,
    243,
    244,
    178,
    243,
    244,
    178,
    243,
    244,
    178,
    179,
    0,
    0,
    177,
    178,
    243,
    244,
    178,
    243,
    244,
    178,
    243,
    244,
    178,
    243,
    244,
    178,
    243,
    244,
    178,
    243,
    244,
    178,
    243,
    244,
    178,
    243,
    244,
    178,
    243,
    179,
    0,
    0,
    177,
    243,
    244,
    178,
    243,
    244,
    178,
    243,
    244,
    178,
    243,
    244,
    178,
    243,
    244,
    178,
    243,
    244,
    178,
    243,
    244,
    178,
    243,
    244,
    178,
    243,
    244,
    179,
    0,
    0,
    177,
    244,
    178,
    243,
    244,
    178,
    243,
    244,
    178,
    243,
    244,
    178,
    243,
    244,
    178,
    243,
    244,
    178,
    243,
    244,
    178,
    243,
    244,
    178,
    243,
    244,
    178,
    179,
    0,
    0,
    177,
    178,
    243,
    244,
    178,
    243,
    244,
    178,
    243,
    244,
    178,
    243,
    244,
    178,
    243,
    244,
    178,
    243,
    244,
    178,
    243,
    244,
    178,
    243,
    244,
    178,
    243,
    179,
    0,
    0,
    177,
    243,
    244,
    178,
    243,
    244,
    178,
    243,
    244,
    178,
    243,
    244,
    178,
    243,
    244,
    178,
    243,
    244,
    178,
    243,
    244,
    178,
    243,
    244,
    178,
    243,
    244,
    179,
    0,
    0,
    177,
    244,
    178,
    243,
    244,
    178,
    243,
    244,
    178,
    243,
    244,
    178,
    243,
    244,
    178,
    243,
    244,
    178,
    243,
    244,
    178,
    243,
    244,
    178,
    243,
    244,
    178,
    179,
    0,
    0,
    177,
    178,
    243,
    244,
    178,
    243,
    244,
    178,
    243,
    244,
    178,
    243,
    244,
    178,
    243,
    244,
    178,
    243,
    244,
    178,
    243,
    244,
    178,
    243,
    244,
    178,
    243,
    179,
    0,
    0,
    177,
    243,
    244,
    178,
    243,
    244,
    178,
    243,
    244,
    178,
    243,
    244,
    178,
    243,
    244,
    178,
    243,
    244,
    178,
    243,
    244,
    178,
    243,
    244,
    178,
    243,
    244,
    179,
    0,
    0,
    177,
    244,
    178,
    243,
    244,
    178,
    243,
    244,
    178,
    243,
    244,
    178,
    243,
    244,
    178,
    243,
    244,
    178,
    243,
    244,
    178,
    243,
    244,
    178,
    243,
    244,
    178,
    179,
    0,
    0,
    177,
    178,
    243,
    244,
    178,
    243,
    244,
    178,
    243,
    244,
    178,
    243,
    244,
    178,
    243,
    244,
    178,
    243,
    244,
    178,
    243,
    244,
    178,
    243,
    244,
    178,
    243,
    179,
    0,
    0,
    177,
    243,
    244,
    178,
    243,
    244,
    178,
    243,
    244,
    178,
    243,
    244,
    178,
    243,
    244,
    178,
    243,
    244,
    178,
    243,
    244,
    178,
    243,
    244,
    178,
    243,
    244,
    179,
    0,
    0,
    177,
    244,
    178,
    243,
    244,
    178,
    243,
    244,
    178,
    243,
    244,
    178,
    243,
    244,
    178,
    243,
    244,
    178,
    243,
    244,
    178,
    243,
    244,
    178,
    243,
    244,
    178,
    179,
    0,
    0,
    177,
    178,
    243,
    244,
    178,
    243,
    244,
    178,
    243,
    244,
    178,
    243,
    244,
    178,
    243,
    244,
    178,
    243,
    244,
    178,
    243,
    244,
    178,
    243,
    244,
    178,
    243,
    179,
    0,
    0,
    177,
    243,
    244,
    178,
    243,
    244,
    178,
    243,
    244,
    178,
    243,
    244,
    178,
    243,
    244,
    178,
    243,
    244,
    178,
    243,
    244,
    178,
    243,
    244,
    178,
    243,
    244,
    179,
    0,
    0,
    199,
    200,
    200,
    200,
    200,
    200,
    200,
    200,
    200,
    200,
    200,
    200,
    200,
    200,
    200,
    200,
    200,
    200,
    200,
    200,
    200,
    200,
    200,
    200,
    200,
    200,
    200,
    201,
    0,
    0,
    0,
    0,
    0,
    0,
    0,
    0,
    0,
    0,
    0,
    0,
    0,
    0,
    0,
    0,
    0,
    0,
    0,
    0,
    0,
    0,
    0,
    0,
    0,
    0,
    0,
    0,
    0,
    0,
    0
   ],
   "width": 30,
   "height": 20,
   "x": 0,
   "y": 0,
   "opacity": 1,
   "visible": true
  },
  {
   "id": 2,
   "name": "Objects",
   "type": "tilelayer",
   "data": [
    714,
    715,
    715,
    715,
    715,
    715,
    715,
    715,
    715,
    715,
    715,
    715,
    715,
    715,
    715,
    715,
    715,
    715,
    715,
    715,
    715,
    715,
    715,
    715,
    715,
    715,
    715,
    715,
    715,
    714,
    716,
    0,
    0,
    0,
    0,
    0,
    0,
    0,
    0,
    0,
    0,
    0,
    0,
    0,
    0,
    0,
    0,
    0,
    0,
    0,
    0,
    0,
    0,
    0,
    0,
    0,
    0,
    0,
    0,
    716,
    716,
    0,
    573,
    574,
    575,
    576,
    0,
    0,
    573,
    574,
    575,
    576,
    0,
    0,
    0,
    0,
    0,
    573,
    574,
    575,
    576,
    0,
    0,
    0,
    1767,
    1768,
    1769,
    0,
    0,
    716,
    716,
    0,
    606,
    607,
    608,
    609,
    0,
    0,
    606,
    607,
    608,
    609,
    0,
    0,
    0,
    0,
    0,
    606,
    607,
    608,
    609,
    0,
    0,
    0,
    1791,
    1792,
    1793,
    0,
    0,
    716,
    716,
    0,
    639,
    640,
    641,
    642,
    0,
    0,
    639,
    640,
    641,
    642,
    0,
    0,
    0,
    0,
    0,
    639,
    640,
    641,
    642,
    0,
    0,
    0,
    1815,
    1816,
    1817,
    0,
    0,
    716,
    716,
    0,
    0,
    0,
    0,
    0,
    0,
    0,
    0,
    0,
    0,
    0,
    0,
    0,
    0,
    0,
    0,
    0,
    0,
    0,
    0,
    0,
    0,
    0,
    0,
    0,
    0,
    0,
    0,
    716,
    716,
    0,
    0,
    0,
    0,
    0,
    1884,
    1885,
    0,
    0,
    0,
    0,
    0,
    0,
    0,
    0,
    1526,
    1527,
    0,
    0,
    0,
    0,
    0,
    0,
    0,
    0,
    0,
    0,
    0,
    716,
    716,
    0,
    0,
    0,
    2108,
    0,
    1900,
    1901,
    0,
    0,
    0,
    2111,
    0,
    0,
    0,
    0,
    1550,
    1551,
    0,
    0,
    0,
    0,
    1904,
    1905,
    0,
    0,
    2114,
    0,
    0,
    716,
    716,
    0,
    0,
    0,
    0,
    0,
    0,
    0,
    0,
    0,
    0,
    0,
    0,
    0,
    0,
    0,
    0,
    0,
    0,
    0,
    0,
    0,
    0,
    0,
    0,
    0,
    0,
    0,
    0,
    716,
    716,
    0,
    0,
    0,
    0,
    0,
    0,
    0,
    0,
    0,
    0,
    0,
    0,
    0,
    0,
    0,
    0,
    0,
    0,
    0,
    0,
    0,
    0,
    0,
    0,
    0,
    0,
    0,
    0,
    716,
    716,
    0,
    0,
    0,
    0,
    0,
    0,
    0,
    0,
    0,
    0,
    0,
    0,
    0,
    0,
    0,
    0,
    0,
    0,
    0,
    0,
    0,
    0,
    0,
    0,
    0,
    0,
    0,
    0,
    716,
    716,
    0,
    1767,
    1768,
    1769,
    0,
    0,
    0,
    0,
    0,
    0,
    0,
    2111,
    0,
    0,
    0,
    0,
    0,
    0,
    0,
    0,
    0,
    0,
    0,
    0,
    1767,
    1768,
    1769,
    0,
    716,
    716,
    0,
    1791,
    1792,
    1793,
    0,
    0,
    0,
    0,
    0,
    0,
    0,
    0,
    0,
    0,
    0,
    0,
    0,
    0,
    0,
    0,
    0,
    1526,
    1527,
    0,
    1791,
    1792,
    1793,
    0,
    716,
    716,
    0,
    1815,
    1816,
    1817,
    0,
    0,
    0,
    0,
    0,
    0,
    0,
    0,
    0,
    0,
    0,
    0,
    0,
    0,
    0,
    0,
    0,
    1550,
    1551,
    0,
    1815,
    1816,
    1817,
    0,
    716,
    716,
    0,
    0,
    0,
    0,
    0,
    0,
    0,
    0,
    0,
    1767,
    1768,
    1769,
    0,
    0,
    0,
    0,
    0,
    0,
    0,
    0,
    0,
    0,
    0,
    0,
    0,
    0,
    0,
    0,
    716,
    716,
    0,
    0,
    0,
    0,
    0,
    0,
    0,
    0,
    0,
    1791,
    1792,
    1793,
    0,
    0,
    0,
    1767,
    1768,
    1769,
    0,
    0,
    0,
    0,
    0,
    0,
    0,
    0,
    0,
    0,
    716,
    716,
    0,
    0,
    0,
    0,
    0,
    1526,
    1527,
    0,
    0,
    1815,
    1816,
    1817,
    0,
    0,
    0,
    1791,
    1792,
    1793,
    0,
    2114,
    0,
    0,
    0,
    0,
    0,
    0,
    0,
    0,
    716,
    716,
    0,
    0,
    0,
    2108,
    0,
    1550,
    1551,
    0,
    0,
    0,
    0,
    0,
    0,
    0,
    0,
    1815,
    1816,
    1817,
    0,
    0,
    0,
    0,
    0,
    0,
    0,
    2108,
    0,
    0,
    716,
    716,
    0,
    0,
    0,
    0,
    0,
    0,
    0,
    0,
    0,
    0,
    0,
    0,
    0,
    0,
    0,
    0,
    0,
    0,
    0,
    0,
    0,
    0,
    0,
    0,
    0,
    0,
    0,
    0,
    716,
    714,
    715,
    715,
    715,
    715,
    715,
    715,
    715,
    715,
    715,
    715,
    715,
    715,
    715,
    715,
    715,
    715,
    715,
    715,
    715,
    715,
    715,
    715,
    715,
    715,
    715,
    715,
    715,
    715,
    714
   ],
   "width": 30,
   "height": 20,
   "x": 0,
   "y": 0,
   "opacity": 1,
   "visible": true
  },
  {
   "id": 3,
   "name": "Collision",
   "type": "tilelayer",
   "data": [
    2156,
    2156,
    2156,
    2156,
    2156,
    2156,
    2156,
    2156,
    2156,
    2156,
    2156,
    2156,
    2156,
    2156,
    2156,
    2156,
    2156,
    2156,
    2156,
    2156,
    2156,
    2156,
    2156,
    2156,
    2156,
    2156,
    2156,
    2156,
    2156,
    2156,
    2156,
    0,
    0,
    0,
    0,
    0,
    0,
    0,
    0,
    0,
    0,
    0,
    0,
    0,
    0,
    0,
    0,
    0,
    0,
    0,
    0,
    0,
    0,
    0,
    0,
    0,
    0,
    0,
    0,
    2156,
    2156,
    0,
    2156,
    2156,
    2156,
    2156,
    0,
    0,
    2156,
    2156,
    2156,
    2156,
    0,
    0,
    0,
    0,
    0,
    2156,
    2156,
    2156,
    2156,
    0,
    0,
    0,
    2156,
    2156,
    2156,
    0,
    0,
    2156,
    2156,
    0,
    2156,
    2156,
    2156,
    2156,
    0,
    0,
    2156,
    2156,
    2156,
    2156,
    0,
    0,
    0,
    0,
    0,
    2156,
    2156,
    2156,
    2156,
    0,
    0,
    0,
    2156,
    2156,
    2156,
    0,
    0,
    2156,
    2156,
    0,
    2156,
    0,
    2156,
    2156,
    0,
    0,
    2156,
    0,
    2156,
    2156,
    0,
    0,
    0,
    0,
    0,
    2156,
    0,
    2156,
    2156,
    0,
    0,
    0,
    2156,
    2156,
    2156,
    0,
    0,
    2156,
    2156,
    0,
    0,
    0,
    0,
    0,
    0,
    0,
    0,
    0,
    0,
    0,
    0,
    0,
    0,
    0,
    0,
    0,
    0,
    0,
    0,
    0,
    0,
    0,
    0,
    0,
    0,
    0,
    0,
    2156,
    2156,
    0,
    0,
    0,
    0,
    0,
    2156,
    2156,
    0,
    0,
    0,
    0,
    0,
    0,
    0,
    0,
    2156,
    2156,
    0,
    0,
    0,
    0,
    0,
    0,
    0,
    0,
    0,
    0,
    0,
    2156,
    2156,
    0,
    0,
    0,
    0,
    0,
    2156,
    2156,
    0,
    0,
    0,
    0,
    0,
    0,
    0,
    0,
    2156,
    2156,
    0,
    0,
    0,
    0,
    2156,
    2156,
    0,
    0,
    0,
    0,
    0,
    2156,
    2156,
    0,
    0,
    0,
    0,
    0,
    0,
    0,
    0,
    0,
    0,
    0,
    0,
    0,
    0,
    0,
    0,
    0,
    0,
    0,
    0,
    0,
    0,
    0,
    0,
    0,
    0,
    0,
    0,
    2156,
    2156,
    0,
    0,
    0,
    0,
    0,
    0,
    0,
    0,
    0,
    0,
    0,
    0,
    0,
    0,
    0,
    0,
    0,
    0,
    0,
    0,
    0,
    0,
    0,
    0,
    0,
    0,
    0,
    0,
    2156,
    2156,
    0,
    0,
    0,
    0,
    0,
    0,
    0,
    0,
    0,
    0,
    0,
    0,
    0,
    0,
    0,
    0,
    0,
    0,
    0,
    0,
    0,
    0,
    0,
    0,
    0,
    0,
    0,
    0,
    2156,
    2156,
    0,
    2156,
    2156,
    2156,
    0,
    0,
    0,
    0,
    0,
    0,
    0,
    0,
    0,
    0,
    0,
    0,
    0,
    0,
    0,
    0,
    0,
    0,
    0,
    0,
    2156,
    2156,
    2156,
    0,
    2156,
    2156,
    0,
    2156,
    2156,
    2156,
    0,
    0,
    0,
    0,
    0,
    0,
    0,
    0,
    0,
    0,
    0,
    0,
    0,
    0,
    0,
    0,
    0,
    2156,
    2156,
    0,
    2156,
    2156,
    2156,
    0,
    2156,
    2156,
    0,
    2156,
    2156,
    2156,
    0,
    0,
    0,
    0,
    0,
    0,
    0,
    0,
    0,
    0,
    0,
    0,
    0,
    0,
    0,
    0,
    0,
    2156,
    2156,
    0,
    2156,
    2156,
    2156,
    0,
    2156,
    2156,
    0,
    0,
    0,
    0,
    0,
    0,
    0,
    0,
    0,
    2156,
    2156,
    2156,
    0,
    0,
    0,
    0,
    0,
    0,
    0,
    0,
    0,
    0,
    0,
    0,
    0,
    0,
    0,
    0,
    2156,
    2156,
    0,
    0,
    0,
    0,
    0,
    0,
    0,
    0,
    0,
    2156,
    2156,
    2156,
    0,
    0,
    0,
    2156,
    2156,
    2156,
    0,
    0,
    0,
    0,
    0,
    0,
    0,
    0,
    0,
    0,
    2156,
    2156,
    0,
    0,
    0,
    0,
    0,
    2156,
    2156,
    0,
    0,
    2156,
    2156,
    2156,
    0,
    0,
    0,
    2156,
    2156,
    2156,
    0,
    0,
    0,
    0,
    0,
    0,
    0,
    0,
    0,
    0,
    2156,
    2156,
    0,
    0,
    0,
    0,
    0,
    2156,
    2156,
    0,
    0,
    0,
    0,
    0,
    0,
    0,
    0,
    2156,
    2156,
    2156,
    0,
    0,
    0,
    0,
    0,
    0,
    0,
    0,
    0,
    0,
    2156,
    2156,
    0,
    0,
    0,
    0,
    0,
    0,
    0,
    0,
    0,
    0,
    0,
    0,
    0,
    0,
    0,
    0,
    0,
    0,
    0,
    0,
    0,
    0,
    0,
    0,
    0,
    0,
    0,
    0,
    2156,
    2156,
    2156,
    2156,
    2156,
    2156,
    2156,
    2156,
    2156,
    2156,
    2156,
    2156,
    2156,
    2156,
    2156,
    2156,
    2156,
    2156,
    2156,
    2156,
    2156,
    2156,
    2156,
    2156,
    2156,
    2156,
    2156,
    2156,
    2156,
    2156,
    2156
   ],
   "width": 30,
   "height": 20,
   "x": 0,
   "y": 0,
   "opacity": 1,
   "visible": false
  },
  {
   "id": 4,
   "name": "Spawns",
   "type": "objectgroup",
   "draworder": "topdown",
   "objects": [
    {
     "id": 1,
     "name": "player",
     "type": "spawn",
     "x": 160,
     "y": 112,
     "width": 16,
     "height": 16,
     "visible": true,
     "rotation": 0,
     "point": false,
     "properties": [
      {
       "name": "kind",
       "type": "int",
       "value": 0
      }
     ]
    },
    {
     "id": 2,
     "name": "npc",
     "type": "spawn",
     "x": 352,
     "y": 80,
     "width": 16,
     "height": 16,
     "visible": true,
     "rotation": 0,
     "point": false,
     "properties": [
      {
       "name": "kind",
       "type": "int",
       "value": 1
      }
     ]
    },
    {
     "id": 3,
     "name": "heart",
     "type": "spawn",
     "x": 112,
     "y": 224,
     "width": 16,
     "height": 16,
     "visible": true,
     "rotation": 0,
     "point": false,
     "properties": [
      {
       "name": "kind",
       "type": "int",
       "value": 2
      }
     ]
    }
   ],
   "opacity": 1,
   "visible": true,
   "x": 0,
   "y": 0
  }
 ]
}