{
 "type": "map",
 "version": "1.10",
 "tiledversion": "1.11.0",
 "orientation": "orthogonal",
 "renderorder": "right-down",
 "width": 15,
 "height": 10,
 "tilewidth": 16,
 "tileheight": 16,
 "infinite": false,
 "nextlayerid": 3,
 "nextobjectid": 1,
 "tilesets": [
  {
   "firstgid": 1,
   "source": "td_tiles.tsj"
  },
  {
   "firstgid": 10001,
   "source": "../../../assets/ninja-adventure/tiled/Collision.tsj"
  }
 ],
 "layers": [
  {
   "id": 1,
   "name": "Ground",
   "type": "tilelayer",
   "data": [
    1,
    1,
    1,
    1,
    1,
    1,
    1,
    1,
    1,
    1,
    1,
    1,
    1,
    1,
    1,
    1,
    1,
    1,
    2,
    2,
    2,
    2,
    2,
    1,
    1,
    1,
    1,
    1,
    1,
    1,
    1,
    1,
    1,
    2,
    1,
    1,
    1,
    2,
    1,
    1,
    1,
    1,
    1,
    1,
    1,
    1,
    1,
    1,
    2,
    1,
    1,
    1,
    2,
    1,
    1,
    2,
    2,
    2,
    2,
    2,
    2,
    2,
    2,
    2,
    1,
    1,
    1,
    2,
    1,
    1,
    2,
    1,
    1,
    1,
    1,
    1,
    1,
    1,
    1,
    1,
    1,
    1,
    2,
    1,
    1,
    2,
    1,
    1,
    1,
    1,
    1,
    1,
    1,
    1,
    1,
    1,
    1,
    2,
    1,
    1,
    2,
    1,
    1,
    1,
    1,
    1,
    1,
    1,
    1,
    1,
    1,
    1,
    2,
    2,
    2,
    2,
    1,
    1,
    1,
    1,
    1,
    1,
    1,
    1,
    1,
    1,
    1,
    1,
    1,
    1,
    1,
    1,
    1,
    1,
    1,
    1,
    1,
    1,
    1,
    1,
    1,
    1,
    1,
    1,
    1,
    1,
    1,
    1,
    1,
    1
   ],
   "width": 15,
   "height": 10,
   "x": 0,
   "y": 0,
   "opacity": 1,
   "visible": true
  },
  {
   "id": 2,
   "name": "Solid",
   "type": "tilelayer",
   "data": [
    10001,
    10001,
    10001,
    10001,
    10001,
    10001,
    10001,
    10001,
    10001,
    10001,
    10001,
    10001,
    10001,
    10001,
    10001,
    10001,
    10001,
    10001,
    0,
    0,
    0,
    0,
    0,
    10001,
    10001,
    10001,
    10001,
    10001,
    10001,
    10001,
    10001,
    10001,
    10001,
    0,
    10001,
    10001,
    10001,
    0,
    10001,
    10001,
    10001,
    10001,
    10001,
    10001,
    10001,
    10001,
    10001,
    10001,
    0,
    10001,
    10001,
    10001,
    0,
    10001,
    10001,
    0,
    0,
    0,
    0,
    0,
    0,
    0,
    0,
    0,
    10001,
    10001,
    10001,
    0,
    10001,
    10001,
    0,
    10001,
    10001,
    10001,
    10001,
    10001,
    10001,
    10001,
    10001,
    10001,
    10001,
    10001,
    0,
    10001,
    10001,
    0,
    10001,
    10001,
    10001,
    10001,
    10001,
    10001,
    10001,
    10001,
    10001,
    10001,
    10001,
    0,
    10001,
    10001,
    0,
    10001,
    10001,
    10001,
    10001,
    10001,
    10001,
    10001,
    10001,
    10001,
    10001,
    10001,
    0,
    0,
    0,
    0,
    10001,
    10001,
    10001,
    10001,
    10001,
    10001,
    10001,
    10001,
    10001,
    10001,
    10001,
    10001,
    10001,
    10001,
    10001,
    10001,
    10001,
    10001,
    10001,
    10001,
    10001,
    10001,
    10001,
    10001,
    10001,
    10001,
    10001,
    10001,
    10001,
    10001,
    10001,
    10001,
    10001,
    10001
   ],
   "width": 15,
   "height": 10,
   "x": 0,
   "y": 0,
   "opacity": 1,
   "visible": false
  }
 ]
}