{"type": "map", "orientation": "orthogonal", "renderorder": "right-down", "infinite": false, "width": 13, "height": 9, "tilewidth": 16, "tileheight": 16, "nextlayerid": 6, "nextobjectid": 4, "version": "1.10", "tiledversion": "1.11.0", "tilesets": [{"firstgid": 1, "source": "../../../assets/ninja-adventure/tiled/TilesetInteriorFloor.tsj"}, {"firstgid": 375, "source": "../../../assets/ninja-adventure/tiled/TilesetWallSimple.tsj"}, {"firstgid": 485, "source": "../../../assets/ninja-adventure/tiled/tileset_bed.tsj"}, {"firstgid": 653, "source": "../../../assets/ninja-adventure/tiled/Collision.tsj"}], "layers": [{"type": "tilelayer", "name": "Ground", "id": 1, "width": 13, "height": 9, "x": 0, "y": 0, "opacity": 1, "visible": true, "data": [0, 0, 0, 0, 0, 0, 0, 0, 0, 0, 0, 0, 0, 0, 227, 228, 228, 228, 228, 228, 228, 228, 228, 228, 226, 0, 0, 163, 137, 137, 137, 137, 137, 137, 137, 137, 137, 159, 0, 0, 163, 137, 137, 137, 137, 137, 137, 137, 137, 137, 159, 0, 0, 163, 137, 137, 137, 137, 137, 137, 137, 137, 137, 159, 0, 0, 163, 137, 137, 137, 137, 137, 137, 137, 137, 137, 159, 0, 0, 163, 137, 137, 137, 137, 137, 137, 137, 137, 137, 159, 0, 0, 139, 140, 140, 140, 140, 137, 140, 140, 140, 140, 138, 0, 0, 0, 0, 0, 0, 0, 138, 0, 0, 0, 0, 0, 0]}, {"type": "tilelayer", "name": "Walls", "id": 2, "width": 13, "height": 9, "x": 0, "y": 0, "opacity": 1, "visible": true, "data": [380, 383, 383, 383, 383, 383, 383, 383, 383, 383, 383, 383, 384, 390, 0, 0, 0, 0, 0, 0, 0, 0, 0, 0, 0, 394, 390, 0, 0, 0, 0, 0, 0, 0, 0, 0, 0, 0, 394, 390, 0, 0, 0, 0, 0, 0, 0, 0, 0, 0, 0, 394, 390, 0, 0, 0, 0, 0, 0, 0, 0, 0, 0, 0, 394, 390, 0, 0, 0, 0, 0, 0, 0, 0, 0, 0, 0, 394, 390, 0, 0, 0, 0, 0, 0, 0, 0, 0, 0, 0, 394, 390, 0, 0, 0, 0, 0, 0, 0, 0, 0, 0, 0, 394, 420, 423, 423, 423, 423, 421, 0, 422, 423, 423, 423, 423, 424]}, {"type": "tilelayer", "name": "Props", "id": 3, "width": 13, "height": 9, "x": 0, "y": 0, "opacity": 1, "visible": true, "data": [0, 0, 0, 0, 0, 0, 0, 0, 0, 0, 0, 0, 0, 0, 576, 577, 0, 0, 0, 0, 0, 0, 485, 486, 0, 0, 0, 590, 591, 0, 0, 0, 0, 0, 0, 499, 500, 0, 0, 0, 604, 605, 0, 0, 0, 0, 0, 0, 513, 514, 0, 0, 0, 0, 0, 0, 0, 0, 0, 0, 0, 0, 0, 0, 0, 0, 0, 0, 0, 0, 0, 0, 581, 582, 0, 0, 0, 0, 0, 0, 0, 0, 0, 0, 0, 595, 596, 0, 0, 0, 0, 0, 0, 0, 0, 0, 0, 0, 609, 610, 0, 0, 0, 0, 0, 0, 0, 0, 0, 0, 0, 0, 0, 0, 0, 0, 0]}, {"type": "tilelayer", "name": "Solid", "id": 4, "width": 13, "height": 9, "x": 0, "y": 0, "opacity": 1, "visible": true, "data": [0, 0, 0, 0, 0, 0, 0, 0, 0, 0, 0, 0, 0, 0, 653, 653, 0, 0, 0, 0, 0, 0, 653, 653, 0, 0, 0, 653, 653, 0, 0, 0, 0, 0, 0, 653, 653, 0, 0, 0, 653, 653, 0, 0, 0, 0, 0, 0, 653, 653, 0, 0, 0, 0, 0, 0, 0, 0, 0, 0, 0, 0, 0, 0, 0, 0, 0, 0, 0, 0, 0, 0, 653, 653, 0, 0, 0, 0, 0, 0, 0, 0, 0, 0, 0, 653, 653, 0, 0, 0, 0, 0, 0, 0, 0, 0, 0, 0, 653, 653, 0, 0, 0, 0, 0, 0, 0, 0, 0, 0, 0, 0, 0, 0, 0, 0, 0]}, {"type": "objectgroup", "name": "spawns", "id": 5, "opacity": 1, "visible": true, "x": 0, "y": 0, "objects": [{"id": 1, "name": "", "x": 96, "y": 96, "width": 16, "height": 16, "visible": true, "properties": [{"name": "kind", "type": "int", "value": 0}]}, {"id": 2, "name": "", "x": 64, "y": 48, "width": 16, "height": 16, "visible": true, "properties": [{"name": "kind", "type": "int", "value": 21}]}, {"id": 3, "name": "", "x": 96, "y": 128, "width": 16, "height": 16, "visible": true, "properties": [{"name": "kind", "type": "int", "value": 10}]}]}]}