{"type": "map", "orientation": "orthogonal", "renderorder": "right-down", "infinite": false, "width": 15, "height": 10, "tilewidth": 16, "tileheight": 16, "nextlayerid": 6, "nextobjectid": 4, "version": "1.10", "tiledversion": "1.11.0", "tilesets": [{"firstgid": 1, "source": "../../../assets/ninja-adventure/tiled/TilesetInteriorFloor.tsj"}, {"firstgid": 375, "source": "../../../assets/ninja-adventure/tiled/TilesetWallSimple.tsj"}, {"firstgid": 485, "source": "../../../assets/ninja-adventure/tiled/tileset_bed.tsj"}, {"firstgid": 653, "source": "../../../assets/ninja-adventure/tiled/Collision.tsj"}], "layers": [{"type": "tilelayer", "name": "Ground", "id": 1, "width": 15, "height": 10, "x": 0, "y": 0, "opacity": 1, "visible": true, "data": [0, 0, 0, 0, 0, 0, 0, 0, 0, 0, 0, 0, 0, 0, 0, 0, 265, 266, 266, 266, 266, 266, 266, 266, 266, 266, 266, 266, 267, 0, 0, 287, 268, 313, 291, 269, 314, 292, 270, 288, 312, 290, 268, 289, 0, 0, 287, 290, 268, 313, 291, 269, 314, 292, 270, 288, 312, 290, 289, 0, 0, 287, 312, 290, 268, 313, 291, 269, 314, 292, 270, 288, 312, 289, 0, 0, 287, 288, 312, 290, 268, 313, 291, 269, 314, 292, 270, 288, 289, 0, 0, 287, 270, 288, 312, 290, 268, 313, 291, 269, 314, 292, 270, 289, 0, 0, 287, 292, 270, 288, 312, 290, 268, 313, 291, 269, 314, 292, 289, 0, 0, 309, 310, 310, 310, 310, 310, 310, 310, 310, 310, 310, 310, 311, 0, 0, 0, 0, 0, 0, 0, 0, 309, 0, 0, 0, 0, 0, 0, 0]}, {"type": "tilelayer", "name": "Walls", "id": 2, "width": 15, "height": 10, "x": 0, "y": 0, "opacity": 1, "visible": true, "data": [375, 378, 378, 378, 378, 378, 378, 378, 378, 378, 378, 378, 378, 378, 379, 385, 0, 0, 0, 0, 0, 0, 0, 0, 0, 0, 0, 0, 0, 389, 385, 0, 0, 0, 0, 0, 0, 0, 0, 0, 0, 0, 0, 0, 389, 385, 0, 0, 0, 0, 0, 0, 0, 0, 0, 0, 0, 0, 0, 389, 385, 0, 0, 0, 0, 0, 0, 0, 0, 0, 0, 0, 0, 0, 389, 385, 0, 0, 0, 0, 0, 0, 0, 0, 0, 0, 0, 0, 0, 389, 385, 0, 0, 0, 0, 0, 0, 0, 0, 0, 0, 0, 0, 0, 389, 385, 0, 0, 0, 0, 0, 0, 0, 0, 0, 0, 0, 0, 0, 389, 385, 0, 0, 0, 0, 0, 0, 0, 0, 0, 0, 0, 0, 0, 389, 415, 418, 418, 418, 418, 418, 416, 0, 417, 418, 418, 418, 418, 418, 419]}, {"type": "tilelayer", "name": "Props", "id": 3, "width": 15, "height": 10, "x": 0, "y": 0, "opacity": 1, "visible": true, "data": [0, 0, 0, 0, 0, 0, 0, 0, 0, 0, 0, 0, 0, 0, 0, 0, 0, 576, 577, 576, 577, 0, 0, 0, 0, 578, 579, 580, 0, 0, 0, 0, 590, 591, 590, 591, 0, 0, 0, 0, 592, 593, 594, 0, 0, 0, 0, 604, 605, 604, 605, 0, 0, 0, 0, 606, 607, 608, 0, 0, 0, 0, 0, 0, 0, 0, 0, 0, 0, 0, 0, 0, 0, 0, 0, 0, 581, 582, 0, 0, 0, 0, 0, 0, 0, 0, 0, 581, 582, 0, 0, 595, 596, 0, 0, 0, 0, 0, 0, 0, 0, 0, 595, 596, 0, 0, 609, 610, 0, 0, 0, 0, 0, 0, 0, 0, 0, 609, 610, 0, 0, 0, 0, 0, 0, 0, 0, 0, 0, 0, 0, 0, 0, 0, 0, 0, 0, 0, 0, 0, 0, 0, 0, 0, 0, 0, 0, 0, 0, 0]}, {"type": "tilelayer", "name": "Solid", "id": 4, "width": 15, "height": 10, "x": 0, "y": 0, "opacity": 1, "visible": true, "data": [0, 0, 0, 0, 0, 0, 0, 0, 0, 0, 0, 0, 0, 0, 0, 0, 0, 653, 653, 653, 653, 0, 0, 0, 0, 653, 653, 653, 0, 0, 0, 0, 653, 653, 653, 653, 0, 0, 0, 0, 653, 653, 653, 0, 0, 0, 0, 653, 653, 653, 653, 0, 0, 0, 0, 653, 653, 653, 0, 0, 0, 0, 0, 0, 0, 0, 0, 0, 0, 0, 0, 0, 0, 0, 0, 0, 653, 653, 0, 0, 0, 0, 0, 0, 0, 0, 0, 653, 653, 0, 0, 653, 653, 0, 0, 0, 0, 0, 0, 0, 0, 0, 653, 653, 0, 0, 653, 653, 0, 0, 0, 0, 0, 0, 0, 0, 0, 653, 653, 0, 0, 0, 0, 0, 0, 0, 0, 0, 0, 0, 0, 0, 0, 0, 0, 0, 0, 0, 0, 0, 0, 0, 0, 0, 0, 0, 0, 0, 0, 0]}, {"type": "objectgroup", "name": "spawns", "id": 5, "opacity": 1, "visible": true, "x": 0, "y": 0, "objects": [{"id": 1, "name": "", "x": 112, "y": 112, "width": 16, "height": 16, "visible": true, "properties": [{"name": "kind", "type": "int", "value": 0}]}, {"id": 2, "name": "", "x": 112, "y": 64, "width": 16, "height": 16, "visible": true, "properties": [{"name": "kind", "type": "int", "value": 20}]}, {"id": 3, "name": "", "x": 112, "y": 144, "width": 16, "height": 16, "visible": true, "properties": [{"name": "kind", "type": "int", "value": 10}]}]}]}