{"type": "map", "orientation": "orthogonal", "renderorder": "right-down", "infinite": false, "width": 40, "height": 36, "tilewidth": 16, "tileheight": 16, "nextlayerid": 6, "nextobjectid": 6, "version": "1.10", "tiledversion": "1.11.0", "tilesets": [{"firstgid": 1, "source": "../../../assets/ninja-adventure/tiled/TilesetFloor.tsj"}, {"firstgid": 573, "source": "../../../assets/ninja-adventure/tiled/TilesetField.tsj"}, {"firstgid": 648, "source": "../../../assets/ninja-adventure/tiled/TilesetFloorDetail.tsj"}, {"firstgid": 728, "source": "../../../assets/ninja-adventure/tiled/TilesetNature.tsj"}, {"firstgid": 1232, "source": "../../../assets/ninja-adventure/tiled/TilesetHouse.tsj"}, {"firstgid": 1991, "source": "../../../assets/ninja-adventure/tiled/TilesetWater.tsj"}, {"firstgid": 2467, "source": "../../../assets/ninja-adventure/tiled/Collision.tsj"}], "layers": [{"type": "tilelayer", "name": "Ground", "id": 1, "width": 40, "height": 36, "x": 0, "y": 0, "opacity": 1, "visible": true, "data": [265, 265, 265, 265, 265, 265, 265, 265, 265, 265, 265, 265, 265, 265, 265, 265, 265, 265, 265, 265, 265, 265, 265, 265, 265, 265, 265, 265, 265, 265, 265, 265, 265, 265, 265, 265, 265, 265, 265, 265, 265, 265, 265, 265, 265, 265, 265, 265, 265, 265, 265, 265, 265, 265, 265, 265, 265, 265, 265, 265, 265, 265, 265, 265, 265, 265, 265, 265, 265, 265, 265, 265, 265, 265, 265, 265, 265, 265, 265, 265, 265, 265, 265, 265, 265, 265, 265, 265, 265, 265, 265, 265, 265, 265, 265, 265, 265, 265, 265, 265, 265, 265, 265, 265, 265, 265, 265, 265, 265, 265, 265, 265, 265, 265, 265, 265, 265, 265, 265, 265, 265, 265, 265, 265, 265, 265, 265, 265, 265, 265, 265, 265, 265, 265, 265, 265, 265, 265, 265, 265, 265, 265, 265, 265, 265, 265, 265, 265, 265, 265, 265, 265, 265, 265, 265, 265, 265, 265, 265, 265, 265, 265, 265, 265, 265, 265, 265, 265, 265, 265, 265, 265, 265, 265, 265, 265, 265, 265, 265, 265, 265, 265, 265, 265, 265, 265, 265, 265, 265, 265, 265, 265, 265, 265, 265, 265, 265, 265, 265, 265, 265, 265, 265, 265, 265, 606, 606, 606, 606, 606, 606, 606, 606, 606, 606, 265, 265, 265, 265, 265, 265, 265, 265, 265, 265, 265, 265, 265, 265, 265, 265, 265, 265, 265, 265, 265, 265, 265, 265, 265, 265, 265, 265, 265, 265, 606, 606, 606, 606, 606, 606, 606, 606, 606, 606, 265, 265, 265, 265, 265, 265, 265, 265, 265, 606, 606, 606, 606, 606, 606, 606, 606, 606, 606, 606, 265, 265, 265, 265, 265, 265, 265, 265, 265, 265, 606, 606, 606, 606, 606, 606, 606, 606, 606, 606, 265, 265, 265, 265, 265, 265, 265, 265, 265, 606, 606, 606, 606, 606, 606, 606, 606, 606, 606, 606, 265, 265, 265, 265, 265, 265, 265, 265, 265, 265, 606, 606, 606, 606, 606, 606, 606, 606, 606, 606, 265, 265, 265, 265, 265, 265, 265, 265, 265, 606, 606, 606, 606, 606, 606, 606, 606, 606, 606, 606, 265, 265, 265, 265, 265, 265, 265, 265, 265, 265, 606, 606, 606, 606, 606, 606, 606, 606, 606, 606, 265, 265, 265, 265, 265, 265, 265, 265, 265, 606, 606, 606, 606, 606, 606, 606, 606, 606, 606, 606, 265, 265, 265, 265, 265, 265, 265, 265, 265, 265, 265, 265, 265, 265, 265, 265, 265, 265, 265, 265, 265, 265, 265, 265, 265, 265, 265, 265, 265, 265, 265, 265, 265, 265, 265, 265, 265, 265, 265, 265, 265, 265, 265, 265, 265, 265, 265, 265, 265, 265, 265, 265, 265, 265, 265, 265, 265, 265, 265, 265, 265, 265, 265, 265, 265, 265, 265, 265, 265, 265, 265, 265, 265, 265, 265, 265, 265, 265, 265, 265, 265, 265, 265, 265, 265, 265, 265, 265, 265, 265, 265, 606, 606, 606, 606, 606, 606, 606, 606, 606, 265, 265, 265, 265, 265, 265, 265, 265, 265, 265, 606, 606, 606, 606, 606, 606, 606, 606, 606, 606, 265, 265, 265, 265, 265, 265, 265, 265, 265, 265, 265, 606, 606, 606, 606, 606, 606, 606, 606, 606, 265, 265, 265, 265, 265, 265, 265, 265, 265, 265, 606, 606, 606, 606, 606, 606, 606, 606, 606, 606, 265, 265, 265, 265, 265, 265, 265, 265, 265, 265, 265, 606, 606, 606, 606, 606, 606, 606, 606, 606, 265, 265, 265, 265, 265, 265, 265, 265, 265, 265, 606, 606, 606, 606, 606, 606, 606, 606, 606, 606, 265, 265, 265, 265, 265, 265, 265, 265, 265, 265, 265, 606, 606, 606, 606, 606, 606, 606, 606, 606, 606, 606, 606, 265, 265, 265, 265, 265, 265, 265, 606, 606, 606, 606, 606, 606, 606, 606, 606, 606, 265, 265, 265, 265, 265, 265, 265, 265, 265, 265, 265, 265, 265, 265, 265, 265, 265, 265, 606, 606, 606, 606, 606, 265, 265, 265, 265, 265, 265, 265, 606, 606, 606, 606, 606, 606, 606, 606, 606, 606, 265, 265, 265, 265, 265, 265, 265, 265, 265, 265, 265, 265, 265, 265, 265, 265, 265, 265, 606, 606, 606, 606, 606, 265, 265, 265, 265, 265, 265, 265, 265, 265, 265, 265, 265, 265, 265, 265, 265, 265, 265, 265, 265, 265, 265, 265, 265, 265, 265, 265, 265, 265, 265, 265, 265, 265, 265, 265, 265, 265, 265, 265, 265, 265, 265, 265, 265, 265, 265, 265, 265, 265, 265, 265, 265, 265, 265, 265, 265, 265, 265, 265, 265, 265, 265, 265, 265, 265, 265, 265, 265, 265, 265, 265, 265, 265, 265, 265, 265, 265, 265, 265, 265, 265, 265, 265, 265, 265, 265, 265, 265, 265, 265, 265, 265, 265, 265, 265, 265, 265, 265, 265, 265, 265, 265, 265, 265, 265, 265, 265, 265, 265, 265, 265, 265, 265, 265, 265, 265, 265, 265, 265, 265, 265, 265, 265, 265, 265, 265, 265, 265, 265, 265, 265, 265, 265, 265, 265, 265, 265, 265, 265, 265, 265, 265, 265, 265, 265, 265, 265, 265, 265, 265, 265, 265, 265, 265, 265, 265, 265, 265, 265, 265, 265, 265, 265, 265, 265, 265, 265, 265, 265, 265, 265, 265, 265, 265, 265, 265, 265, 265, 265, 265, 265, 265, 265, 265, 265, 265, 265, 265, 265, 265, 265, 265, 265, 265, 265, 265, 265, 265, 265, 265, 265, 265, 265, 265, 265, 265, 265, 265, 265, 265, 265, 265, 265, 265, 265, 265, 265, 265, 265, 265, 265, 265, 265, 265, 265, 265, 265, 265, 265, 265, 265, 265, 265, 265, 265, 265, 265, 265, 265, 265, 265, 265, 265, 265, 265, 265, 265, 265, 265, 265, 265, 265, 265, 265, 265, 265, 265, 265, 265, 265, 265, 265, 265, 265, 265, 265, 265, 265, 265, 265, 265, 1311, 265, 265, 265, 265, 265, 265, 265, 265, 265, 265, 265, 265, 265, 265, 265, 265, 265, 1299, 265, 265, 265, 265, 265, 265, 265, 265, 265, 265, 265, 265, 265, 265, 265, 265, 265, 265, 265, 265, 265, 265, 265, 265, 265, 265, 265, 265, 265, 265, 265, 265, 265, 265, 265, 265, 265, 265, 265, 265, 265, 265, 265, 265, 265, 265, 265, 265, 265, 265, 265, 265, 265, 265, 265, 265, 265, 265, 265, 265, 265, 265, 265, 265, 265, 265, 265, 265, 265, 265, 265, 265, 265, 265, 265, 265, 265, 265, 265, 265, 265, 265, 265, 265, 265, 265, 265, 265, 265, 265, 265, 265, 265, 265, 265, 265, 265, 265, 265, 265, 265, 265, 265, 265, 265, 265, 265, 265, 265, 265, 265, 265, 265, 265, 265, 265, 265, 265, 265, 265, 265, 265, 265, 265, 265, 265, 265, 265, 265, 265, 265, 265, 265, 265, 265, 265, 265, 265, 265, 265, 265, 265, 265, 265, 265, 265, 265, 265, 265, 265, 265, 265, 265, 265, 265, 265, 265, 265, 265, 265, 265, 265, 265, 265, 265, 265, 265, 265, 265, 265, 265, 265, 265, 265, 265, 265, 265, 265, 265, 265, 265, 265, 265, 265, 265, 265, 265, 265, 265, 265, 265, 265, 265, 265, 265, 265, 265, 265, 265, 265, 265, 265, 265, 265, 265, 265, 265, 265, 265, 265, 265, 265, 265, 265, 265, 265, 265, 265, 265, 265, 265, 265, 265, 265, 265, 265, 265, 265, 265, 265, 265, 265, 265, 265, 265, 265, 265, 265, 265, 265, 265, 2159, 2160, 2160, 2160, 2161, 265, 265, 265, 265, 265, 265, 265, 265, 265, 265, 265, 265, 265, 265, 265, 265, 265, 265, 265, 265, 265, 265, 265, 265, 265, 265, 265, 265, 265, 265, 265, 265, 265, 265, 265, 2187, 2188, 2188, 2188, 2189, 265, 265, 265, 265, 265, 265, 265, 265, 265, 265, 265, 265, 265, 265, 265, 265, 265, 265, 265, 265, 265, 265, 265, 265, 265, 265, 265, 265, 265, 265, 265, 265, 265, 265, 265, 2215, 2216, 2216, 2216, 2217, 265, 265, 265, 265, 265, 265, 265, 265, 265, 265, 265, 265, 265, 265, 265, 265, 265, 265, 265, 265, 265, 265, 265, 265, 265, 265, 265, 265, 265, 265, 265, 265, 265, 265, 265, 265, 265, 265, 265, 265, 265, 265, 265, 265, 265, 265, 265, 265, 265, 265, 265, 265, 265, 265, 265, 265, 265, 265, 265, 265, 265, 265, 265, 265, 265, 265, 265, 265, 265, 265, 265, 265, 265, 265, 265, 265, 265, 265, 265, 265, 265, 265, 265, 265, 265, 265, 265, 265, 265, 265, 265, 265, 265, 265, 265, 265, 265, 265, 265, 265, 265, 265, 265, 265, 265, 265, 265, 265, 265, 265, 265, 265, 265, 265, 265, 265, 265, 265, 265, 265, 265, 265, 265, 265, 265, 265]}, {"type": "tilelayer", "name": "Paths", "id": 2, "width": 40, "height": 36, "x": 0, "y": 0, "opacity": 1, "visible": true, "data": [0, 0, 0, 0, 0, 0, 0, 0, 0, 0, 0, 0, 0, 0, 0, 0, 0, 0, 0, 0, 0, 0, 0, 0, 0, 0, 0, 0, 0, 0, 0, 0, 0, 0, 0, 0, 0, 0, 0, 0, 0, 0, 0, 0, 0, 0, 0, 0, 0, 0, 0, 0, 0, 0, 0, 0, 0, 0, 0, 0, 0, 0, 0, 0, 0, 0, 0, 0, 0, 0, 0, 0, 0, 0, 0, 0, 0, 0, 0, 0, 0, 0, 0, 0, 0, 0, 0, 0, 0, 0, 0, 0, 0, 0, 0, 0, 0, 0, 0, 0, 0, 0, 0, 0, 0, 0, 0, 0, 0, 0, 0, 0, 0, 0, 0, 0, 0, 0, 0, 0, 0, 0, 0, 0, 0, 0, 0, 0, 0, 0, 0, 0, 0, 0, 0, 0, 0, 0, 155, 156, 157, 0, 0, 0, 0, 0, 0, 0, 0, 0, 0, 0, 0, 0, 0, 0, 0, 0, 0, 0, 0, 0, 0, 0, 0, 0, 0, 0, 0, 0, 0, 0, 0, 0, 0, 0, 0, 0, 177, 244, 179, 0, 0, 0, 0, 0, 0, 0, 0, 0, 0, 0, 0, 0, 0, 0, 0, 0, 0, 0, 0, 0, 0, 0, 0, 0, 0, 0, 0, 0, 0, 0, 0, 0, 0, 0, 0, 0, 177, 178, 179, 0, 0, 0, 0, 0, 0, 0, 0, 0, 0, 0, 0, 0, 0, 0, 0, 0, 0, 0, 0, 0, 0, 0, 0, 0, 0, 0, 0, 0, 0, 0, 0, 0, 0, 0, 0, 0, 177, 243, 179, 0, 0, 0, 0, 0, 0, 0, 0, 0, 0, 0, 0, 0, 0, 0, 0, 0, 0, 0, 0, 0, 0, 0, 0, 0, 0, 0, 0, 0, 0, 0, 0, 0, 0, 0, 0, 0, 177, 244, 179, 0, 0, 0, 0, 0, 0, 0, 0, 0, 0, 0, 0, 0, 0, 0, 0, 0, 0, 0, 0, 0, 0, 0, 0, 0, 0, 0, 0, 0, 0, 0, 0, 0, 0, 0, 0, 0, 177, 178, 179, 0, 0, 0, 0, 0, 0, 0, 0, 0, 0, 0, 0, 0, 0, 0, 0, 0, 0, 0, 0, 0, 0, 0, 0, 0, 0, 0, 0, 0, 0, 0, 0, 0, 0, 0, 0, 0, 177, 243, 179, 0, 0, 0, 0, 0, 0, 0, 0, 0, 0, 0, 0, 0, 0, 0, 0, 0, 0, 0, 0, 0, 0, 0, 0, 0, 0, 0, 0, 0, 0, 0, 0, 0, 0, 0, 0, 0, 177, 244, 179, 0, 0, 0, 0, 0, 0, 0, 0, 0, 0, 0, 0, 0, 0, 0, 0, 0, 0, 0, 0, 0, 0, 0, 0, 0, 0, 0, 0, 0, 0, 0, 0, 0, 0, 0, 0, 0, 177, 178, 179, 0, 0, 0, 0, 0, 0, 0, 0, 0, 0, 0, 0, 0, 0, 0, 0, 0, 0, 0, 0, 0, 0, 0, 0, 0, 0, 0, 0, 0, 0, 0, 0, 0, 0, 0, 0, 0, 177, 243, 179, 0, 0, 0, 0, 0, 0, 0, 0, 0, 0, 0, 0, 0, 0, 0, 0, 0, 0, 0, 0, 0, 0, 0, 0, 0, 0, 0, 0, 0, 0, 0, 0, 0, 0, 0, 0, 0, 177, 244, 179, 0, 0, 0, 0, 0, 0, 0, 0, 0, 0, 0, 0, 0, 0, 0, 0, 0, 0, 0, 0, 0, 0, 0, 0, 0, 0, 0, 0, 0, 0, 0, 0, 0, 0, 0, 0, 0, 177, 178, 179, 0, 0, 0, 0, 0, 0, 0, 0, 0, 0, 0, 0, 0, 0, 0, 0, 0, 0, 0, 0, 0, 0, 0, 0, 0, 0, 0, 0, 0, 0, 0, 0, 0, 0, 0, 0, 0, 177, 243, 179, 0, 0, 0, 0, 0, 0, 0, 0, 0, 0, 0, 0, 0, 0, 0, 0, 0, 0, 0, 0, 0, 0, 0, 0, 0, 0, 0, 0, 0, 0, 0, 0, 0, 0, 0, 0, 0, 177, 244, 179, 0, 0, 0, 0, 0, 0, 0, 0, 0, 0, 0, 0, 0, 0, 0, 0, 0, 0, 0, 0, 0, 0, 0, 0, 0, 0, 0, 0, 0, 0, 0, 0, 0, 0, 0, 0, 0, 177, 178, 179, 0, 0, 0, 0, 0, 0, 0, 0, 0, 0, 0, 0, 0, 0, 0, 0, 0, 0, 0, 0, 0, 0, 0, 0, 0, 0, 0, 0, 0, 0, 0, 0, 0, 0, 0, 0, 0, 177, 243, 179, 0, 0, 0, 0, 0, 0, 0, 0, 0, 0, 0, 0, 0, 0, 0, 0, 0, 0, 0, 0, 0, 0, 0, 0, 0, 0, 0, 0, 0, 0, 0, 0, 0, 0, 0, 0, 0, 177, 244, 179, 0, 0, 0, 0, 0, 0, 0, 0, 0, 0, 0, 0, 0, 0, 0, 0, 0, 0, 0, 0, 0, 0, 0, 0, 0, 0, 0, 0, 0, 0, 0, 0, 0, 0, 0, 0, 0, 177, 178, 179, 0, 0, 0, 0, 0, 0, 0, 0, 0, 0, 0, 0, 0, 0, 0, 0, 0, 0, 0, 0, 0, 0, 0, 0, 0, 0, 0, 0, 0, 0, 0, 0, 0, 0, 0, 0, 0, 177, 243, 179, 0, 0, 0, 0, 0, 0, 0, 0, 0, 0, 0, 0, 0, 0, 0, 0, 0, 0, 0, 0, 0, 0, 0, 0, 0, 0, 0, 0, 0, 0, 0, 0, 0, 0, 0, 0, 0, 177, 244, 179, 0, 0, 0, 0, 0, 0, 0, 0, 0, 0, 0, 0, 0, 0, 0, 0, 0, 0, 0, 0, 0, 0, 0, 0, 0, 0, 0, 0, 0, 0, 0, 0, 0, 0, 0, 0, 0, 177, 178, 179, 0, 0, 0, 0, 0, 0, 0, 0, 0, 0, 0, 0, 0, 0, 0, 0, 0, 0, 0, 0, 0, 0, 0, 0, 0, 0, 0, 0, 0, 0, 0, 0, 0, 0, 0, 0, 0, 177, 243, 179, 0, 0, 0, 0, 0, 0, 0, 0, 0, 0, 0, 0, 0, 0, 0, 0, 0, 0, 0, 0, 0, 0, 0, 0, 0, 0, 0, 0, 158, 0, 0, 0, 0, 0, 0, 0, 0, 177, 244, 179, 0, 0, 0, 0, 0, 0, 158, 0, 0, 0, 0, 0, 0, 0, 0, 0, 0, 0, 0, 0, 0, 0, 0, 0, 0, 155, 156, 156, 207, 156, 156, 156, 156, 156, 156, 156, 156, 205, 178, 204, 156, 156, 156, 156, 156, 156, 207, 156, 156, 156, 156, 156, 157, 0, 0, 0, 0, 0, 0, 0, 0, 0, 0, 0, 0, 177, 243, 244, 178, 243, 244, 178, 243, 244, 178, 243, 244, 178, 243, 244, 178, 243, 244, 178, 243, 244, 178, 243, 244, 178, 243, 244, 179, 0, 0, 0, 0, 0, 0, 0, 0, 0, 0, 0, 0, 199, 200, 200, 200, 200, 200, 200, 200, 200, 200, 200, 200, 183, 244, 182, 200, 200, 200, 200, 200, 200, 200, 200, 200, 200, 200, 200, 201, 0, 0, 0, 0, 0, 0, 0, 0, 0, 0, 0, 0, 0, 0, 0, 0, 0, 0, 0, 0, 0, 0, 0, 0, 177, 178, 179, 0, 0, 0, 0, 0, 0, 0, 0, 0, 0, 0, 0, 0, 0, 0, 0, 0, 0, 0, 0, 0, 0, 0, 0, 0, 0, 0, 0, 0, 0, 0, 0, 0, 0, 0, 0, 0, 177, 243, 179, 0, 0, 0, 0, 0, 0, 0, 0, 0, 0, 0, 0, 0, 0, 0, 0, 0, 0, 0, 0, 0, 0, 0, 0, 0, 0, 0, 0, 0, 0, 0, 0, 0, 0, 0, 0, 0, 177, 244, 179, 0, 0, 0, 0, 0, 0, 0, 0, 0, 0, 0, 0, 0, 0, 0, 0, 0, 0, 0, 0, 0, 0, 0, 0, 0, 0, 0, 0, 0, 0, 0, 0, 0, 0, 0, 0, 0, 199, 200, 201, 0, 0, 0, 0, 0, 0, 0, 0, 0, 0, 0, 0, 0, 0, 0, 0, 0, 0, 0, 0, 0, 0, 0, 0, 0, 0, 0, 0, 0, 0, 0, 0, 0, 0, 0, 0, 0, 0, 0, 0, 0, 0, 0, 0, 0, 0, 0, 0, 0, 0, 0, 0, 0, 0, 0, 0, 0, 0, 0, 0, 0, 0, 0, 0, 0, 0, 0, 0, 0, 0, 0, 0, 0, 0, 0, 0, 0, 0, 0, 0, 0, 0, 0, 0, 0, 0, 0, 0, 0, 0, 0, 0, 0, 0, 0, 0, 0, 0, 0, 0, 0, 0, 0, 0, 0, 0, 0, 0, 0, 0, 0, 0, 0, 0, 0, 0, 0, 0, 0, 0, 0, 0, 0, 0, 0, 0, 0, 0, 0, 0, 0, 0, 0, 0, 0, 0, 0, 0, 0]}, {"type": "tilelayer", "name": "Props", "id": 3, "width": 40, "height": 36, "x": 0, "y": 0, "opacity": 1, "visible": true, "data": [1160, 1161, 1162, 1163, 1164, 1165, 1160, 1161, 1162, 1163, 1164, 1165, 1160, 1161, 1162, 1163, 1164, 1165, 1160, 1161, 1162, 1163, 1164, 1165, 1160, 1161, 1162, 1163, 1164, 1165, 1160, 1161, 1162, 1163, 1164, 1165, 1160, 1161, 1162, 1163, 1184, 1185, 1186, 1187, 1188, 1189, 1184, 1185, 1186, 1187, 1188, 1189, 1184, 1185, 1186, 1187, 1188, 1189, 1184, 1185, 1186, 1187, 1188, 1189, 1184, 1185, 1186, 1187, 1188, 1189, 1184, 1185, 1186, 1187, 1188, 1189, 1184, 1185, 1186, 1187, 1208, 1209, 1210, 1211, 1212, 1213, 1208, 1209, 1210, 1211, 1212, 1213, 1208, 1209, 1210, 1211, 1212, 1213, 1208, 1209, 1210, 1211, 1212, 1213, 1208, 1209, 1210, 1211, 1212, 1213, 1208, 1209, 1210, 1211, 1212, 1213, 1208, 1209, 1210, 1211, 1163, 1164, 1165, 0, 0, 0, 0, 0, 0, 0, 0, 0, 0, 0, 0, 0, 0, 0, 0, 0, 0, 0, 0, 0, 0, 0, 0, 0, 0, 0, 0, 0, 0, 0, 0, 0, 0, 1160, 1161, 1162, 1187, 1188, 1189, 0, 0, 0, 0, 0, 0, 0, 0, 0, 0, 0, 0, 0, 0, 0, 0, 0, 0, 0, 0, 0, 0, 0, 0, 0, 0, 0, 0, 0, 0, 0, 0, 0, 0, 1184, 1185, 1186, 1211, 1212, 1213, 0, 0, 0, 683, 680, 682, 0, 680, 682, 683, 0, 682, 0, 0, 0, 0, 0, 0, 0, 0, 0, 0, 0, 0, 0, 0, 0, 0, 0, 0, 0, 0, 0, 0, 1208, 1209, 1210, 1160, 1161, 1162, 0, 0, 683, 0, 682, 683, 680, 0, 683, 680, 682, 0, 0, 0, 0, 0, 0, 0, 0, 0, 0, 680, 682, 0, 680, 682, 683, 0, 682, 683, 680, 0, 0, 0, 1163, 1164, 1165, 1184, 1185, 1186, 0, 0, 680, 682, 0, 680, 682, 683, 0, 682, 683, 680, 0, 0, 0, 0, 0, 0, 0, 0, 0, 682, 683, 680, 0, 683, 680, 682, 0, 680, 682, 683, 0, 0, 1187, 1188, 1189, 1208, 1209, 1210, 0, 0, 682, 683, 680, 0, 683, 680, 682, 0, 680, 682, 0, 0, 0, 0, 0, 0, 0, 0, 0, 0, 680, 682, 683, 0, 682, 683, 680, 0, 683, 680, 0, 0, 1211, 1212, 1213, 1163, 1164, 1165, 0, 0, 0, 680, 682, 683, 0, 682, 683, 680, 0, 683, 0, 0, 0, 0, 0, 0, 0, 0, 0, 680, 0, 683, 680, 682, 0, 680, 682, 683, 0, 682, 0, 0, 1160, 1161, 1162, 1187, 1188, 1189, 0, 0, 0, 0, 0, 0, 0, 0, 0, 0, 0, 0, 0, 0, 0, 0, 0, 0, 0, 0, 0, 0, 0, 0, 0, 0, 0, 0, 0, 0, 0, 0, 0, 0, 1184, 1185, 1186, 1211, 1212, 1213, 0, 0, 0, 0, 0, 0, 0, 0, 0, 0, 0, 0, 0, 0, 0, 0, 0, 0, 0, 0, 0, 0, 0, 0, 0, 0, 0, 0, 0, 0, 0, 0, 0, 0, 1208, 1209, 1210, 1160, 1161, 1162, 0, 0, 0, 680, 682, 0, 680, 682, 683, 0, 682, 683, 0, 0, 0, 0, 0, 0, 0, 0, 0, 0, 682, 683, 680, 0, 683, 680, 682, 0, 680, 682, 0, 0, 1163, 1164, 1165, 1184, 1185, 1186, 0, 0, 0, 682, 683, 680, 0, 683, 680, 682, 0, 680, 0, 0, 0, 0, 0, 0, 0, 0, 0, 0, 0, 680, 682, 683, 0, 682, 683, 680, 0, 683, 0, 0, 1187, 1188, 1189, 1208, 1209, 1210, 0, 0, 0, 0, 680, 682, 683, 0, 682, 683, 680, 0, 0, 0, 0, 0, 0, 0, 0, 0, 0, 0, 680, 0, 683, 680, 682, 0, 680, 682, 683, 0, 0, 0, 1211, 1212, 1213, 1163, 1164, 1165, 0, 0, 0, 680, 0, 683, 680, 682, 0, 680, 682, 683, 0, 682, 683, 0, 0, 0, 0, 0, 0, 0, 682, 683, 0, 682, 683, 680, 0, 683, 680, 682, 0, 0, 1160, 1161, 1162, 1187, 1188, 1189, 0, 0, 0, 0, 0, 0, 0, 0, 0, 0, 683, 680, 682, 0, 680, 0, 0, 0, 0, 0, 0, 0, 683, 680, 682, 0, 680, 682, 683, 0, 682, 683, 0, 0, 1184, 1185, 1186, 1211, 1212, 1213, 0, 0, 0, 0, 0, 0, 0, 0, 0, 0, 0, 682, 683, 680, 0, 0, 0, 0, 0, 0, 0, 0, 0, 0, 0, 0, 0, 0, 0, 0, 0, 0, 0, 0, 1208, 1209, 1210, 1160, 1161, 1162, 1163, 1164, 1165, 1160, 1161, 1162, 1163, 1164, 1165, 1160, 1161, 1162, 1163, 1164, 1165, 0, 0, 0, 1163, 1164, 1165, 1160, 1161, 1162, 1163, 1164, 1165, 1160, 1161, 1162, 1163, 1164, 1165, 1160, 1161, 1162, 1165, 1184, 1185, 1186, 1187, 1188, 1189, 1184, 1185, 1186, 1187, 1188, 1189, 1184, 1185, 1186, 1187, 1188, 1189, 0, 0, 0, 1187, 1188, 1189, 1184, 1185, 1186, 1187, 1188, 1189, 1184, 1185, 1186, 1187, 1188, 1189, 1184, 1185, 1186, 1189, 1208, 1209, 1210, 1211, 1212, 1213, 1208, 1209, 1210, 1211, 1212, 1213, 1208, 1209, 1210, 1211, 1212, 1213, 0, 0, 0, 1211, 1212, 1213, 1208, 1209, 1210, 1211, 1212, 1213, 1208, 1209, 1210, 1211, 1212, 1213, 1208, 1209, 1210, 1213, 1163, 1164, 1165, 0, 686, 0, 0, 0, 0, 0, 0, 0, 0, 0, 0, 0, 0, 0, 0, 0, 0, 0, 0, 0, 972, 0, 0, 0, 0, 0, 0, 0, 0, 0, 0, 0, 0, 1160, 1161, 1162, 1187, 1188, 1189, 0, 0, 0, 1244, 1245, 1245, 1245, 1245, 1245, 1247, 0, 0, 0, 0, 0, 0, 0, 0, 0, 0, 0, 0, 1232, 1233, 1233, 1233, 1235, 0, 0, 0, 0, 0, 0, 0, 1184, 1185, 1186, 1211, 1212, 1213, 0, 0, 0, 1277, 1278, 1278, 1278, 1278, 1278, 1280, 0, 0, 0, 0, 0, 0, 0, 0, 0, 0, 0, 0, 1265, 1266, 1266, 1266, 1268, 0, 0, 0, 0, 0, 0, 0, 1208, 1209, 1210, 1160, 1161, 1162, 0, 0, 0, 1310, 1312, 1312, 0, 1312, 1312, 1313, 0, 0, 0, 0, 0, 0, 0, 0, 0, 0, 0, 0, 1298, 1300, 0, 1300, 1301, 0, 0, 0, 0, 0, 0, 0, 1163, 1164, 1165, 1184, 1185, 1186, 0, 972, 0, 0, 0, 0, 0, 0, 0, 0, 0, 0, 0, 0, 0, 0, 0, 0, 0, 920, 0, 0, 0, 0, 0, 0, 0, 0, 686, 0, 0, 0, 686, 0, 1187, 1188, 1189, 1208, 1209, 1210, 0, 0, 0, 0, 0, 0, 0, 0, 0, 0, 0, 0, 0, 0, 0, 0, 0, 0, 0, 0, 0, 0, 0, 0, 0, 0, 0, 0, 0, 0, 0, 0, 0, 0, 1211, 1212, 1213, 1163, 1164, 1165, 0, 0, 0, 0, 0, 0, 0, 0, 0, 0, 0, 0, 0, 0, 0, 0, 0, 0, 0, 0, 0, 0, 0, 0, 0, 0, 0, 0, 0, 0, 0, 972, 0, 0, 1160, 1161, 1162, 1187, 1188, 1189, 0, 0, 0, 0, 0, 0, 0, 0, 0, 0, 0, 0, 0, 0, 0, 0, 0, 0, 0, 0, 0, 0, 0, 0, 0, 0, 0, 0, 0, 0, 0, 0, 0, 0, 1184, 1185, 1186, 1211, 1212, 1213, 0, 0, 0, 0, 0, 0, 0, 0, 0, 0, 0, 0, 0, 0, 0, 0, 0, 0, 0, 0, 0, 0, 0, 0, 0, 0, 0, 0, 0, 0, 0, 0, 0, 0, 1208, 1209, 1210, 1160, 1161, 1162, 0, 0, 0, 972, 0, 0, 0, 0, 0, 0, 686, 0, 0, 0, 0, 0, 0, 0, 0, 0, 0, 0, 0, 0, 0, 0, 0, 0, 0, 0, 0, 0, 0, 0, 1163, 1164, 1165, 1184, 1185, 1186, 0, 0, 686, 0, 0, 0, 0, 0, 0, 0, 0, 0, 0, 0, 0, 0, 0, 0, 0, 0, 686, 0, 0, 0, 0, 0, 0, 0, 0, 0, 0, 0, 0, 0, 1187, 1188, 1189, 1208, 1209, 1210, 0, 0, 0, 0, 0, 0, 0, 0, 0, 0, 0, 0, 0, 0, 0, 0, 0, 0, 0, 0, 0, 0, 0, 0, 0, 0, 0, 0, 0, 0, 0, 0, 0, 0, 1211, 1212, 1213, 1163, 1164, 1165, 1160, 1161, 1162, 1163, 1164, 686, 1160, 1161, 1162, 1163, 1164, 1165, 1160, 686, 1162, 1163, 1164, 1165, 1160, 972, 1162, 1163, 1164, 1165, 1160, 1161, 1162, 1163, 1164, 1165, 1160, 1161, 1162, 1163, 1164, 1165, 1160, 1187, 1188, 1189, 1184, 1185, 1186, 1187, 1188, 1189, 1184, 1185, 1186, 1187, 1188, 1189, 1184, 1185, 1186, 1187, 1188, 1189, 1184, 1185, 1186, 1187, 1188, 1189, 1184, 1185, 1186, 1187, 1188, 1189, 1184, 1185, 1186, 1187, 1188, 1189, 1184, 1211, 1212, 1213, 1208, 1209, 1210, 1211, 1212, 1213, 1208, 1209, 1210, 1211, 1212, 1213, 1208, 1209, 1210, 1211, 1212, 1213, 1208, 1209, 1210, 1211, 1212, 1213, 1208, 1209, 1210, 1211, 1212, 1213, 1208, 1209, 1210, 1211, 1212, 1213, 1208]}, {"type": "tilelayer", "name": "Solid", "id": 4, "width": 40, "height": 36, "x": 0, "y": 0, "opacity": 1, "visible": true, "data": [2467, 2467, 2467, 2467, 2467, 2467, 2467, 2467, 2467, 2467, 2467, 2467, 2467, 2467, 2467, 2467, 2467, 2467, 2467, 2467, 2467, 2467, 2467, 2467, 2467, 2467, 2467, 2467, 2467, 2467, 2467, 2467, 2467, 2467, 2467, 2467, 2467, 2467, 2467, 2467, 2467, 2467, 2467, 2467, 2467, 2467, 2467, 2467, 2467, 2467, 2467, 2467, 2467, 2467, 2467, 2467, 2467, 2467, 2467, 2467, 2467, 2467, 2467, 2467, 2467, 2467, 2467, 2467, 2467, 2467, 2467, 2467, 2467, 2467, 2467, 2467, 2467, 2467, 2467, 2467, 2467, 2467, 2467, 2467, 2467, 2467, 2467, 2467, 2467, 2467, 2467, 2467, 2467, 2467, 2467, 2467, 2467, 2467, 2467, 2467, 2467, 2467, 2467, 2467, 2467, 2467, 2467, 2467, 2467, 2467, 2467, 2467, 2467, 2467, 2467, 2467, 2467, 2467, 2467, 2467, 2467, 2467, 2467, 0, 0, 0, 0, 0, 0, 0, 0, 0, 0, 0, 0, 0, 0, 0, 0, 0, 0, 0, 0, 0, 0, 0, 0, 0, 0, 0, 0, 0, 0, 0, 0, 0, 0, 2467, 2467, 2467, 2467, 2467, 2467, 0, 0, 0, 0, 0, 0, 0, 0, 0, 0, 0, 0, 0, 0, 0, 0, 0, 0, 0, 0, 0, 0, 0, 0, 0, 0, 0, 0, 0, 0, 0, 0, 0, 0, 2467, 2467, 2467, 2467, 2467, 2467, 0, 0, 0, 0, 0, 0, 0, 0, 0, 0, 0, 0, 0, 0, 0, 0, 0, 0, 0, 0, 0, 0, 0, 0, 0, 0, 0, 0, 0, 0, 0, 0, 0, 0, 2467, 2467, 2467, 2467, 2467, 2467, 0, 0, 0, 0, 0, 0, 0, 0, 0, 0, 0, 0, 0, 0, 0, 0, 0, 0, 0, 0, 0, 0, 0, 0, 0, 0, 0, 0, 0, 0, 0, 0, 0, 0, 2467, 2467, 2467, 2467, 2467, 2467, 0, 0, 0, 0, 0, 0, 0, 0, 0, 0, 0, 0, 0, 0, 0, 0, 0, 0, 0, 0, 0, 0, 0, 0, 0, 0, 0, 0, 0, 0, 0, 0, 0, 0, 2467, 2467, 2467, 2467, 2467, 2467, 0, 0, 0, 0, 0, 0, 0, 0, 0, 0, 0, 0, 0, 0, 0, 0, 0, 0, 0, 0, 0, 0, 0, 0, 0, 0, 0, 0, 0, 0, 0, 0, 0, 0, 2467, 2467, 2467, 2467, 2467, 2467, 0, 0, 0, 0, 0, 0, 0, 0, 0, 0, 0, 0, 0, 0, 0, 0, 0, 0, 0, 0, 0, 0, 0, 0, 0, 0, 0, 0, 0, 0, 0, 0, 0, 0, 2467, 2467, 2467, 2467, 2467, 2467, 0, 0, 0, 0, 0, 0, 0, 0, 0, 0, 0, 0, 0, 0, 0, 0, 0, 0, 0, 0, 0, 0, 0, 0, 0, 0, 0, 0, 0, 0, 0, 0, 0, 0, 2467, 2467, 2467, 2467, 2467, 2467, 0, 0, 0, 0, 0, 0, 0, 0, 0, 0, 0, 0, 0, 0, 0, 0, 0, 0, 0, 0, 0, 0, 0, 0, 0, 0, 0, 0, 0, 0, 0, 0, 0, 0, 2467, 2467, 2467, 2467, 2467, 2467, 0, 0, 0, 0, 0, 0, 0, 0, 0, 0, 0, 0, 0, 0, 0, 0, 0, 0, 0, 0, 0, 0, 0, 0, 0, 0, 0, 0, 0, 0, 0, 0, 0, 0, 2467, 2467, 2467, 2467, 2467, 2467, 0, 0, 0, 0, 0, 0, 0, 0, 0, 0, 0, 0, 0, 0, 0, 0, 0, 0, 0, 0, 0, 0, 0, 0, 0, 0, 0, 0, 0, 0, 0, 0, 0, 0, 2467, 2467, 2467, 2467, 2467, 2467, 0, 0, 0, 0, 0, 0, 0, 0, 0, 0, 0, 0, 0, 0, 0, 0, 0, 0, 0, 0, 0, 0, 0, 0, 0, 0, 0, 0, 0, 0, 0, 0, 0, 0, 2467, 2467, 2467, 2467, 2467, 2467, 0, 0, 0, 0, 0, 0, 0, 0, 0, 0, 0, 0, 0, 0, 0, 0, 0, 0, 0, 0, 0, 0, 0, 0, 0, 0, 0, 0, 0, 0, 0, 0, 0, 0, 2467, 2467, 2467, 2467, 2467, 2467, 0, 0, 0, 0, 0, 0, 0, 0, 0, 0, 0, 0, 0, 0, 0, 0, 0, 0, 0, 0, 0, 0, 0, 0, 0, 0, 0, 0, 0, 0, 0, 0, 0, 0, 2467, 2467, 2467, 2467, 2467, 2467, 0, 0, 0, 0, 0, 0, 0, 0, 0, 0, 0, 0, 0, 0, 0, 0, 0, 0, 0, 0, 0, 0, 0, 0, 0, 0, 0, 0, 0, 0, 0, 0, 0, 0, 2467, 2467, 2467, 2467, 2467, 2467, 2467, 2467, 2467, 2467, 2467, 2467, 2467, 2467, 2467, 2467, 2467, 2467, 2467, 2467, 2467, 0, 0, 0, 2467, 2467, 2467, 2467, 2467, 2467, 2467, 2467, 2467, 2467, 2467, 2467, 2467, 2467, 2467, 2467, 2467, 2467, 2467, 2467, 2467, 2467, 2467, 2467, 2467, 2467, 2467, 2467, 2467, 2467, 2467, 2467, 2467, 2467, 2467, 2467, 2467, 0, 0, 0, 2467, 2467, 2467, 2467, 2467, 2467, 2467, 2467, 2467, 2467, 2467, 2467, 2467, 2467, 2467, 2467, 2467, 2467, 2467, 2467, 2467, 2467, 2467, 2467, 2467, 2467, 2467, 2467, 2467, 2467, 2467, 2467, 2467, 2467, 2467, 2467, 2467, 0, 0, 0, 2467, 2467, 2467, 2467, 2467, 2467, 2467, 2467, 2467, 2467, 2467, 2467, 2467, 2467, 2467, 2467, 2467, 2467, 2467, 2467, 2467, 2467, 0, 0, 0, 0, 0, 0, 0, 0, 0, 0, 0, 0, 0, 0, 0, 0, 0, 0, 0, 0, 0, 2467, 0, 0, 0, 0, 0, 0, 0, 0, 0, 0, 0, 0, 2467, 2467, 2467, 2467, 2467, 2467, 0, 0, 0, 0, 0, 0, 0, 0, 0, 0, 0, 0, 0, 0, 0, 0, 0, 0, 0, 0, 0, 0, 0, 0, 0, 0, 0, 0, 0, 0, 0, 0, 0, 0, 2467, 2467, 2467, 2467, 2467, 2467, 0, 0, 0, 0, 0, 0, 0, 0, 0, 0, 0, 0, 0, 0, 0, 0, 0, 0, 0, 0, 0, 0, 0, 0, 0, 0, 0, 0, 0, 0, 0, 0, 0, 0, 2467, 2467, 2467, 2467, 2467, 2467, 0, 0, 0, 0, 0, 0, 0, 0, 0, 0, 0, 0, 0, 0, 0, 0, 0, 0, 0, 0, 0, 0, 0, 0, 0, 0, 0, 0, 0, 0, 0, 0, 0, 0, 2467, 2467, 2467, 2467, 2467, 2467, 0, 2467, 0, 0, 0, 0, 0, 0, 0, 0, 0, 0, 0, 0, 0, 0, 0, 0, 0, 2467, 0, 0, 0, 0, 0, 0, 0, 0, 0, 0, 0, 0, 0, 0, 2467, 2467, 2467, 2467, 2467, 2467, 0, 0, 0, 0, 0, 0, 0, 0, 0, 0, 0, 0, 0, 0, 0, 0, 0, 0, 0, 0, 0, 0, 0, 0, 0, 0, 0, 0, 0, 0, 0, 0, 0, 0, 2467, 2467, 2467, 2467, 2467, 2467, 0, 0, 0, 0, 0, 0, 0, 0, 0, 0, 0, 0, 0, 0, 0, 0, 0, 0, 0, 0, 0, 0, 0, 0, 0, 0, 0, 0, 0, 0, 0, 2467, 0, 0, 2467, 2467, 2467, 2467, 2467, 2467, 0, 0, 0, 0, 0, 0, 0, 0, 0, 0, 0, 0, 0, 0, 0, 0, 0, 0, 0, 0, 0, 0, 0, 0, 0, 0, 0, 0, 0, 0, 0, 0, 0, 0, 2467, 2467, 2467, 2467, 2467, 2467, 0, 0, 0, 0, 0, 0, 0, 0, 0, 0, 0, 0, 0, 0, 0, 0, 0, 0, 0, 0, 0, 0, 0, 0, 0, 0, 0, 0, 0, 0, 0, 0, 0, 0, 2467, 2467, 2467, 2467, 2467, 2467, 0, 0, 0, 2467, 0, 0, 0, 0, 0, 0, 0, 0, 0, 0, 0, 0, 0, 0, 0, 0, 0, 0, 0, 0, 0, 0, 2467, 2467, 2467, 2467, 2467, 0, 0, 0, 2467, 2467, 2467, 2467, 2467, 2467, 0, 0, 0, 0, 0, 0, 0, 0, 0, 0, 0, 0, 0, 0, 0, 0, 0, 0, 0, 0, 0, 0, 0, 0, 0, 0, 2467, 2467, 2467, 2467, 2467, 0, 0, 0, 2467, 2467, 2467, 2467, 2467, 2467, 0, 0, 0, 0, 0, 0, 0, 0, 0, 0, 0, 0, 0, 0, 0, 0, 0, 0, 0, 0, 0, 0, 0, 0, 0, 0, 2467, 2467, 2467, 2467, 2467, 0, 0, 0, 2467, 2467, 2467, 2467, 2467, 2467, 2467, 2467, 2467, 2467, 2467, 2467, 2467, 2467, 2467, 2467, 2467, 2467, 2467, 2467, 2467, 2467, 2467, 2467, 2467, 2467, 2467, 2467, 2467, 2467, 2467, 2467, 2467, 2467, 2467, 2467, 2467, 2467, 2467, 2467, 2467, 2467, 2467, 2467, 2467, 2467, 2467, 2467, 2467, 2467, 2467, 2467, 2467, 2467, 2467, 2467, 2467, 2467, 2467, 2467, 2467, 2467, 2467, 2467, 2467, 2467, 2467, 2467, 2467, 2467, 2467, 2467, 2467, 2467, 2467, 2467, 2467, 2467, 2467, 2467, 2467, 2467, 2467, 2467, 2467, 2467, 2467, 2467, 2467, 2467, 2467, 2467, 2467, 2467, 2467, 2467, 2467, 2467, 2467, 2467, 2467, 2467, 2467, 2467, 2467, 2467, 2467, 2467, 2467, 2467, 2467, 2467, 2467, 2467, 2467, 2467, 2467, 2467, 2467, 2467, 2467, 2467, 2467]}, {"type": "objectgroup", "name": "spawns", "id": 5, "opacity": 1, "visible": true, "x": 0, "y": 0, "objects": [{"id": 1, "name": "", "x": 304, "y": 480, "width": 16, "height": 16, "visible": true, "properties": [{"name": "kind", "type": "int", "value": 0}]}, {"id": 2, "name": "", "x": 144, "y": 384, "width": 16, "height": 16, "visible": true, "properties": [{"name": "kind", "type": "int", "value": 10}, {"name": "a", "type": "int", "value": 1}]}, {"id": 3, "name": "", "x": 432, "y": 384, "width": 16, "height": 16, "visible": true, "properties": [{"name": "kind", "type": "int", "value": 10}, {"name": "a", "type": "int", "value": 2}]}, {"id": 4, "name": "", "x": 240, "y": 432, "width": 16, "height": 16, "visible": true, "properties": [{"name": "kind", "type": "int", "value": 22}]}, {"id": 5, "name": "", "x": 336, "y": 336, "width": 16, "height": 16, "visible": true, "properties": [{"name": "kind", "type": "int", "value": 23}]}]}]}