{"type": "map", "orientation": "orthogonal", "renderorder": "right-down", "infinite": false, "width": 15, "height": 10, "tilewidth": 16, "tileheight": 16, "nextlayerid": 4, "nextobjectid": 2, "version": "1.10", "tiledversion": "1.11.0", "tilesets": [{"firstgid": 1, "source": "../../../assets/ninja-adventure/tiled/TilesetInteriorFloor.tsj"}, {"firstgid": 375, "source": "../../../assets/ninja-adventure/tiled/TilesetWallSimple.tsj"}], "layers": [{"type": "tilelayer", "name": "Ground", "id": 1, "width": 15, "height": 10, "x": 0, "y": 0, "opacity": 1, "visible": true, "data": [0, 0, 0, 0, 0, 0, 0, 0, 0, 0, 0, 0, 0, 0, 0, 0, 265, 266, 266, 266, 266, 266, 266, 266, 266, 266, 266, 266, 267, 0, 0, 287, 268, 313, 291, 269, 314, 292, 270, 288, 312, 290, 268, 289, 0, 0, 287, 290, 268, 313, 291, 269, 314, 292, 270, 288, 312, 290, 289, 0, 0, 287, 312, 290, 268, 313, 291, 269, 314, 292, 270, 288, 312, 289, 0, 0, 287, 288, 312, 290, 268, 313, 291, 269, 314, 292, 270, 288, 289, 0, 0, 287, 270, 288, 312, 290, 268, 313, 291, 269, 314, 292, 270, 289, 0, 0, 287, 292, 270, 288, 312, 290, 268, 313, 291, 269, 314, 292, 289, 0, 0, 309, 310, 310, 310, 310, 312, 290, 268, 310, 310, 310, 310, 311, 0, 0, 0, 0, 0, 0, 0, 309, 310, 311, 0, 0, 0, 0, 0, 0]}, {"type": "tilelayer", "name": "Walls", "id": 2, "width": 15, "height": 10, "x": 0, "y": 0, "opacity": 1, "visible": true, "data": [375, 378, 378, 378, 378, 378, 378, 378, 378, 378, 378, 378, 378, 378, 379, 385, 0, 0, 0, 0, 0, 0, 0, 0, 0, 0, 0, 0, 0, 389, 385, 0, 0, 0, 0, 0, 0, 0, 0, 0, 0, 0, 0, 0, 389, 385, 0, 0, 0, 0, 0, 0, 0, 0, 0, 0, 0, 0, 0, 389, 385, 0, 0, 0, 0, 0, 0, 0, 0, 0, 0, 0, 0, 0, 389, 385, 0, 0, 0, 0, 0, 0, 0, 0, 0, 0, 0, 0, 0, 389, 385, 0, 0, 0, 0, 0, 0, 0, 0, 0, 0, 0, 0, 0, 389, 385, 0, 0, 0, 0, 0, 0, 0, 0, 0, 0, 0, 0, 0, 389, 385, 0, 0, 0, 0, 0, 0, 0, 0, 0, 0, 0, 0, 0, 389, 415, 418, 418, 418, 418, 416, 0, 0, 0, 417, 418, 418, 418, 418, 419]}, {"type": "objectgroup", "name": "spawns", "id": 3, "opacity": 1, "visible": true, "x": 0, "y": 0, "objects": [{"id": 1, "name": "", "x": 112, "y": 112, "width": 16, "height": 16, "visible": true, "properties": [{"name": "kind", "type": "int", "value": 0}]}]}]}