{"type": "map", "orientation": "orthogonal", "renderorder": "right-down", "infinite": false, "width": 15, "height": 10, "tilewidth": 16, "tileheight": 16, "nextlayerid": 4, "nextobjectid": 2, "version": "1.10", "tiledversion": "1.11.0", "tilesets": [{"firstgid": 1, "source": "../../../assets/ninja-adventure/tiled/TilesetInteriorFloor.tsj"}, {"firstgid": 375, "source": "../../../assets/ninja-adventure/tiled/TilesetWallSimple.tsj"}], "layers": [{"type": "tilelayer", "name": "Ground", "id": 1, "width": 15, "height": 10, "x": 0, "y": 0, "opacity": 1, "visible": true, "data": [0, 0, 0, 0, 0, 0, 0, 0, 0, 0, 0, 0, 0, 0, 0, 0, 85, 83, 84, 85, 83, 84, 85, 83, 84, 85, 83, 84, 85, 0, 0, 64, 40, 62, 40, 62, 40, 62, 40, 62, 40, 62, 40, 60, 0, 0, 42, 62, 40, 62, 40, 62, 40, 62, 40, 62, 40, 62, 38, 0, 0, 64, 40, 62, 40, 62, 40, 62, 40, 62, 40, 62, 40, 60, 0, 0, 42, 62, 40, 62, 40, 62, 40, 62, 40, 62, 40, 62, 38, 0, 0, 64, 40, 62, 40, 62, 40, 62, 40, 62, 40, 62, 40, 60, 0, 0, 42, 62, 40, 62, 40, 62, 40, 62, 40, 62, 40, 62, 38, 0, 0, 17, 18, 19, 17, 18, 20, 62, 16, 19, 17, 18, 19, 17, 0, 0, 0, 0, 0, 0, 0, 17, 18, 19, 0, 0, 0, 0, 0, 0]}, {"type": "tilelayer", "name": "Walls", "id": 2, "width": 15, "height": 10, "x": 0, "y": 0, "opacity": 1, "visible": true, "data": [440, 443, 443, 443, 443, 443, 443, 443, 443, 443, 443, 443, 443, 443, 444, 450, 0, 0, 0, 0, 0, 0, 0, 0, 0, 0, 0, 0, 0, 454, 450, 0, 0, 0, 0, 0, 0, 0, 0, 0, 0, 0, 0, 0, 454, 450, 0, 0, 0, 0, 0, 0, 0, 0, 0, 0, 0, 0, 0, 454, 450, 0, 0, 0, 0, 0, 0, 0, 0, 0, 0, 0, 0, 0, 454, 450, 0, 0, 0, 0, 0, 0, 0, 0, 0, 0, 0, 0, 0, 454, 450, 0, 0, 0, 0, 0, 0, 0, 0, 0, 0, 0, 0, 0, 454, 450, 0, 0, 0, 0, 0, 0, 0, 0, 0, 0, 0, 0, 0, 454, 450, 0, 0, 0, 0, 0, 0, 0, 0, 0, 0, 0, 0, 0, 454, 480, 483, 483, 483, 483, 481, 0, 0, 0, 482, 483, 483, 483, 483, 484]}, {"type": "objectgroup", "name": "spawns", "id": 3, "opacity": 1, "visible": true, "x": 0, "y": 0, "objects": [{"id": 1, "name": "", "x": 112, "y": 112, "width": 16, "height": 16, "visible": true, "properties": [{"name": "kind", "type": "int", "value": 0}]}]}]}