{"type": "map", "orientation": "orthogonal", "renderorder": "right-down", "infinite": false, "width": 15, "height": 10, "tilewidth": 16, "tileheight": 16, "nextlayerid": 4, "nextobjectid": 2, "version": "1.10", "tiledversion": "1.11.0", "tilesets": [{"firstgid": 1, "source": "../../../assets/ninja-adventure/tiled/TilesetInteriorFloor.tsj"}, {"firstgid": 375, "source": "../../../assets/ninja-adventure/tiled/TilesetWallSimple.tsj"}], "layers": [{"type": "tilelayer", "name": "Ground", "id": 1, "width": 15, "height": 10, "x": 0, "y": 0, "opacity": 1, "visible": true, "data": [0, 0, 0, 0, 0, 0, 0, 0, 0, 0, 0, 0, 0, 0, 0, 0, 95, 96, 96, 96, 96, 96, 96, 96, 96, 96, 96, 96, 94, 0, 0, 31, 5, 5, 5, 5, 5, 5, 5, 5, 5, 5, 5, 27, 0, 0, 31, 5, 5, 5, 5, 5, 5, 5, 5, 5, 5, 5, 27, 0, 0, 31, 5, 5, 5, 5, 5, 5, 5, 5, 5, 5, 5, 27, 0, 0, 31, 5, 5, 5, 5, 5, 5, 5, 5, 5, 5, 5, 27, 0, 0, 31, 5, 5, 5, 5, 5, 5, 5, 5, 5, 5, 5, 27, 0, 0, 31, 5, 5, 5, 5, 5, 5, 5, 5, 5, 5, 5, 27, 0, 0, 7, 8, 8, 8, 8, 9, 5, 5, 8, 8, 8, 8, 6, 0, 0, 0, 0, 0, 0, 0, 7, 8, 6, 0, 0, 0, 0, 0, 0]}, {"type": "tilelayer", "name": "Walls", "id": 2, "width": 15, "height": 10, "x": 0, "y": 0, "opacity": 1, "visible": true, "data": [435, 438, 438, 438, 438, 438, 438, 438, 438, 438, 438, 438, 438, 438, 439, 445, 0, 0, 0, 0, 0, 0, 0, 0, 0, 0, 0, 0, 0, 449, 445, 0, 0, 0, 0, 0, 0, 0, 0, 0, 0, 0, 0, 0, 449, 445, 0, 0, 0, 0, 0, 0, 0, 0, 0, 0, 0, 0, 0, 449, 445, 0, 0, 0, 0, 0, 0, 0, 0, 0, 0, 0, 0, 0, 449, 445, 0, 0, 0, 0, 0, 0, 0, 0, 0, 0, 0, 0, 0, 449, 445, 0, 0, 0, 0, 0, 0, 0, 0, 0, 0, 0, 0, 0, 449, 445, 0, 0, 0, 0, 0, 0, 0, 0, 0, 0, 0, 0, 0, 449, 445, 0, 0, 0, 0, 0, 0, 0, 0, 0, 0, 0, 0, 0, 449, 475, 478, 478, 478, 478, 476, 0, 0, 0, 477, 478, 478, 478, 478, 479]}, {"type": "objectgroup", "name": "spawns", "id": 3, "opacity": 1, "visible": true, "x": 0, "y": 0, "objects": [{"id": 1, "name": "", "x": 112, "y": 112, "width": 16, "height": 16, "visible": true, "properties": [{"name": "kind", "type": "int", "value": 0}]}]}]}