{"type": "map", "orientation": "orthogonal", "renderorder": "right-down", "infinite": false, "width": 15, "height": 10, "tilewidth": 16, "tileheight": 16, "nextlayerid": 4, "nextobjectid": 2, "version": "1.10", "tiledversion": "1.11.0", "tilesets": [{"firstgid": 1, "source": "../../../assets/ninja-adventure/tiled/TilesetInteriorFloor.tsj"}, {"firstgid": 375, "source": "../../../assets/ninja-adventure/tiled/TilesetWallSimple.tsj"}], "layers": [{"type": "tilelayer", "name": "Ground", "id": 1, "width": 15, "height": 10, "x": 0, "y": 0, "opacity": 1, "visible": true, "data": [0, 0, 0, 0, 0, 0, 0, 0, 0, 0, 0, 0, 0, 0, 0, 0, 227, 228, 228, 228, 228, 228, 228, 228, 228, 228, 228, 228, 226, 0, 0, 163, 137, 137, 137, 137, 137, 137, 137, 137, 137, 137, 137, 159, 0, 0, 163, 137, 137, 137, 137, 137, 137, 137, 137, 137, 137, 137, 159, 0, 0, 163, 137, 137, 137, 137, 137, 137, 137, 137, 137, 137, 137, 159, 0, 0, 163, 137, 137, 137, 137, 137, 137, 137, 137, 137, 137, 137, 159, 0, 0, 163, 137, 137, 137, 137, 137, 137, 137, 137, 137, 137, 137, 159, 0, 0, 163, 137, 137, 137, 137, 137, 137, 137, 137, 137, 137, 137, 159, 0, 0, 139, 140, 140, 140, 140, 141, 137, 137, 140, 140, 140, 140, 138, 0, 0, 0, 0, 0, 0, 0, 139, 140, 138, 0, 0, 0, 0, 0, 0]}, {"type": "tilelayer", "name": "Walls", "id": 2, "width": 15, "height": 10, "x": 0, "y": 0, "opacity": 1, "visible": true, "data": [380, 383, 383, 383, 383, 383, 383, 383, 383, 383, 383, 383, 383, 383, 384, 390, 0, 0, 0, 0, 0, 0, 0, 0, 0, 0, 0, 0, 0, 394, 390, 0, 0, 0, 0, 0, 0, 0, 0, 0, 0, 0, 0, 0, 394, 390, 0, 0, 0, 0, 0, 0, 0, 0, 0, 0, 0, 0, 0, 394, 390, 0, 0, 0, 0, 0, 0, 0, 0, 0, 0, 0, 0, 0, 394, 390, 0, 0, 0, 0, 0, 0, 0, 0, 0, 0, 0, 0, 0, 394, 390, 0, 0, 0, 0, 0, 0, 0, 0, 0, 0, 0, 0, 0, 394, 390, 0, 0, 0, 0, 0, 0, 0, 0, 0, 0, 0, 0, 0, 394, 390, 0, 0, 0, 0, 0, 0, 0, 0, 0, 0, 0, 0, 0, 394, 420, 423, 423, 423, 423, 421, 0, 0, 0, 422, 423, 423, 423, 423, 424]}, {"type": "objectgroup", "name": "spawns", "id": 3, "opacity": 1, "visible": true, "x": 0, "y": 0, "objects": [{"id": 1, "name": "", "x": 112, "y": 112, "width": 16, "height": 16, "visible": true, "properties": [{"name": "kind", "type": "int", "value": 0}]}]}]}