{"type": "map", "orientation": "orthogonal", "renderorder": "right-down", "infinite": false, "width": 15, "height": 40, "tilewidth": 16, "tileheight": 16, "nextlayerid": 5, "nextobjectid": 11, "version": "1.10", "tiledversion": "1.11.0", "tilesets": [{"firstgid": 1, "source": "../../../assets/ninja-adventure/tiled/TilesetInteriorFloor.tsj"}, {"firstgid": 375, "source": "../../../assets/ninja-adventure/tiled/TilesetWallSimple.tsj"}, {"firstgid": 485, "source": "../../../assets/ninja-adventure/tiled/TilesetDungeon.tsj"}], "layers": [{"type": "tilelayer", "name": "Ground", "id": 1, "width": 15, "height": 40, "x": 0, "y": 0, "opacity": 1, "visible": true, "data": [0, 0, 0, 0, 0, 0, 0, 0, 0, 0, 0, 0, 0, 0, 0, 0, 276, 277, 277, 277, 277, 277, 277, 277, 277, 277, 277, 277, 278, 0, 0, 298, 303, 304, 303, 304, 303, 304, 303, 304, 303, 304, 303, 300, 0, 0, 298, 325, 326, 325, 326, 325, 326, 325, 326, 325, 326, 325, 300, 0, 0, 298, 303, 304, 303, 304, 303, 304, 303, 304, 303, 304, 303, 300, 0, 0, 298, 325, 326, 325, 326, 325, 326, 325, 326, 325, 326, 325, 300, 0, 0, 298, 303, 304, 303, 304, 303, 304, 303, 304, 303, 304, 303, 300, 0, 0, 298, 325, 326, 325, 326, 325, 326, 325, 326, 325, 326, 325, 300, 0, 0, 320, 321, 321, 321, 321, 303, 304, 303, 321, 321, 321, 321, 322, 0, 0, 0, 0, 0, 0, 0, 298, 326, 300, 0, 0, 0, 0, 0, 0, 0, 0, 0, 0, 0, 0, 298, 304, 300, 0, 0, 0, 0, 0, 0, 0, 276, 277, 277, 277, 277, 325, 326, 325, 277, 277, 277, 277, 278, 0, 0, 298, 303, 304, 303, 304, 303, 304, 303, 304, 303, 304, 303, 300, 0, 0, 298, 325, 326, 325, 326, 325, 326, 325, 326, 325, 326, 325, 300, 0, 0, 298, 303, 304, 303, 304, 303, 304, 303, 304, 303, 304, 303, 300, 0, 0, 298, 325, 326, 325, 326, 325, 326, 325, 326, 325, 326, 325, 300, 0, 0, 298, 303, 304, 303, 304, 303, 304, 303, 304, 303, 304, 303, 300, 0, 0, 298, 325, 326, 325, 326, 325, 326, 325, 326, 325, 326, 325, 300, 0, 0, 320, 321, 321, 321, 321, 303, 304, 303, 321, 321, 321, 321, 322, 0, 0, 0, 0, 0, 0, 0, 298, 326, 300, 0, 0, 0, 0, 0, 0, 0, 0, 0, 0, 0, 0, 298, 304, 300, 0, 0, 0, 0, 0, 0, 0, 276, 277, 277, 277, 277, 325, 326, 325, 277, 277, 277, 277, 278, 0, 0, 298, 303, 304, 303, 304, 303, 304, 303, 304, 303, 304, 303, 300, 0, 0, 298, 325, 326, 325, 326, 325, 326, 325, 326, 325, 326, 325, 300, 0, 0, 298, 303, 304, 303, 304, 303, 304, 303, 304, 303, 304, 303, 300, 0, 0, 298, 325, 326, 325, 326, 325, 326, 325, 326, 325, 326, 325, 300, 0, 0, 298, 303, 304, 303, 304, 303, 304, 303, 304, 303, 304, 303, 300, 0, 0, 298, 325, 326, 325, 326, 325, 326, 325, 326, 325, 326, 325, 300, 0, 0, 320, 321, 321, 321, 321, 303, 304, 303, 321, 321, 321, 321, 322, 0, 0, 0, 0, 0, 0, 0, 298, 326, 300, 0, 0, 0, 0, 0, 0, 0, 0, 0, 0, 0, 0, 298, 304, 300, 0, 0, 0, 0, 0, 0, 0, 276, 277, 277, 277, 277, 325, 326, 325, 277, 277, 277, 277, 278, 0, 0, 298, 303, 304, 303, 304, 303, 304, 303, 304, 303, 304, 303, 300, 0, 0, 298, 325, 326, 325, 326, 325, 326, 325, 326, 325, 326, 325, 300, 0, 0, 298, 303, 304, 303, 304, 303, 304, 303, 304, 303, 304, 303, 300, 0, 0, 298, 325, 326, 325, 326, 325, 326, 325, 326, 325, 326, 325, 300, 0, 0, 298, 303, 304, 303, 304, 303, 304, 303, 304, 303, 304, 303, 300, 0, 0, 298, 325, 326, 325, 326, 325, 326, 325, 326, 325, 326, 325, 300, 0, 0, 320, 321, 321, 321, 321, 321, 321, 321, 321, 321, 321, 321, 322, 0, 0, 0, 0, 0, 0, 0, 0, 0, 0, 0, 0, 0, 0, 0, 0]}, {"type": "tilelayer", "name": "Walls", "id": 2, "width": 15, "height": 40, "x": 0, "y": 0, "opacity": 1, "visible": true, "data": [375, 378, 378, 378, 378, 378, 378, 378, 378, 378, 378, 378, 378, 378, 379, 385, 0, 0, 0, 0, 0, 0, 0, 0, 0, 0, 0, 0, 0, 389, 385, 0, 0, 0, 0, 0, 0, 0, 0, 0, 0, 0, 0, 0, 389, 385, 0, 0, 0, 0, 0, 0, 0, 0, 0, 0, 0, 0, 0, 389, 385, 0, 0, 0, 0, 0, 0, 0, 0, 0, 0, 0, 0, 0, 389, 385, 0, 0, 0, 0, 0, 0, 0, 0, 0, 0, 0, 0, 0, 389, 385, 0, 0, 0, 0, 0, 0, 0, 0, 0, 0, 0, 0, 0, 389, 385, 0, 0, 0, 0, 0, 0, 0, 0, 0, 0, 0, 0, 0, 389, 385, 0, 0, 0, 0, 0, 0, 0, 0, 0, 0, 0, 0, 0, 389, 415, 418, 418, 418, 418, 416, 0, 0, 0, 417, 418, 418, 418, 418, 419, 375, 378, 378, 378, 378, 376, 0, 0, 0, 377, 378, 378, 378, 378, 379, 385, 0, 0, 0, 0, 0, 0, 0, 0, 0, 0, 0, 0, 0, 389, 385, 0, 0, 0, 0, 0, 0, 0, 0, 0, 0, 0, 0, 0, 389, 385, 0, 0, 0, 0, 0, 0, 0, 0, 0, 0, 0, 0, 0, 389, 385, 0, 0, 0, 0, 0, 0, 0, 0, 0, 0, 0, 0, 0, 389, 385, 0, 0, 0, 0, 0, 0, 0, 0, 0, 0, 0, 0, 0, 389, 385, 0, 0, 0, 0, 0, 0, 0, 0, 0, 0, 0, 0, 0, 389, 385, 0, 0, 0, 0, 0, 0, 0, 0, 0, 0, 0, 0, 0, 389, 385, 0, 0, 0, 0, 0, 0, 0, 0, 0, 0, 0, 0, 0, 389, 415, 418, 418, 418, 418, 416, 0, 0, 0, 417, 418, 418, 418, 418, 419, 375, 378, 378, 378, 378, 376, 0, 0, 0, 377, 378, 378, 378, 378, 379, 385, 0, 0, 0, 0, 0, 0, 0, 0, 0, 0, 0, 0, 0, 389, 385, 0, 0, 0, 0, 0, 0, 0, 0, 0, 0, 0, 0, 0, 389, 385, 0, 0, 0, 0, 0, 0, 0, 0, 0, 0, 0, 0, 0, 389, 385, 0, 0, 0, 0, 0, 0, 0, 0, 0, 0, 0, 0, 0, 389, 385, 0, 0, 0, 0, 0, 0, 0, 0, 0, 0, 0, 0, 0, 389, 385, 0, 0, 0, 0, 0, 0, 0, 0, 0, 0, 0, 0, 0, 389, 385, 0, 0, 0, 0, 0, 0, 0, 0, 0, 0, 0, 0, 0, 389, 385, 0, 0, 0, 0, 0, 0, 0, 0, 0, 0, 0, 0, 0, 389, 415, 418, 418, 418, 418, 416, 0, 0, 0, 417, 418, 418, 418, 418, 419, 375, 378, 378, 378, 378, 376, 0, 0, 0, 377, 378, 378, 378, 378, 379, 385, 0, 0, 0, 0, 0, 0, 0, 0, 0, 0, 0, 0, 0, 389, 385, 0, 0, 0, 0, 0, 0, 0, 0, 0, 0, 0, 0, 0, 389, 385, 0, 0, 0, 0, 0, 0, 0, 0, 0, 0, 0, 0, 0, 389, 385, 0, 0, 0, 0, 0, 0, 0, 0, 0, 0, 0, 0, 0, 389, 385, 0, 0, 0, 0, 0, 0, 0, 0, 0, 0, 0, 0, 0, 389, 385, 0, 0, 0, 0, 0, 0, 0, 0, 0, 0, 0, 0, 0, 389, 385, 0, 0, 0, 0, 0, 0, 0, 0, 0, 0, 0, 0, 0, 389, 385, 0, 0, 0, 0, 0, 0, 0, 0, 0, 0, 0, 0, 0, 389, 415, 418, 418, 418, 418, 418, 418, 418, 418, 418, 418, 418, 418, 418, 419]}, {"type": "tilelayer", "name": "Props", "id": 3, "width": 15, "height": 40, "x": 0, "y": 0, "opacity": 1, "visible": true, "data": [0, 0, 0, 0, 0, 0, 0, 0, 0, 0, 0, 0, 0, 0, 0, 0, 0, 0, 0, 0, 0, 0, 0, 0, 0, 0, 0, 0, 0, 0, 0, 0, 0, 0, 513, 0, 511, 0, 0, 0, 513, 0, 0, 0, 0, 0, 0, 0, 0, 0, 0, 0, 0, 0, 0, 0, 0, 0, 0, 0, 0, 0, 0, 0, 0, 0, 0, 0, 0, 0, 0, 0, 0, 0, 0, 0, 0, 0, 0, 0, 0, 0, 0, 0, 0, 0, 0, 0, 0, 0, 0, 0, 0, 0, 0, 0, 0, 0, 0, 0, 0, 0, 0, 0, 0, 0, 0, 0, 0, 0, 0, 0, 0, 0, 0, 0, 0, 0, 0, 0, 0, 0, 0, 0, 0, 0, 0, 0, 0, 0, 0, 0, 0, 0, 0, 0, 0, 0, 0, 0, 0, 0, 0, 0, 0, 0, 0, 0, 0, 0, 0, 0, 0, 0, 0, 0, 0, 0, 0, 0, 0, 0, 0, 0, 0, 0, 0, 0, 0, 0, 0, 0, 0, 0, 0, 0, 0, 0, 0, 0, 0, 0, 0, 0, 0, 0, 0, 0, 0, 0, 0, 0, 0, 0, 0, 0, 0, 0, 0, 0, 0, 0, 0, 0, 0, 0, 0, 0, 0, 0, 0, 0, 0, 0, 0, 0, 0, 0, 0, 0, 0, 0, 0, 0, 0, 0, 0, 0, 510, 0, 0, 0, 0, 0, 0, 0, 510, 0, 0, 0, 0, 0, 0, 0, 0, 0, 0, 0, 0, 0, 0, 0, 0, 0, 0, 0, 0, 0, 0, 0, 0, 0, 0, 0, 0, 0, 0, 0, 0, 0, 0, 0, 0, 0, 0, 0, 0, 0, 0, 0, 0, 0, 0, 0, 0, 0, 0, 0, 0, 0, 0, 0, 0, 0, 0, 0, 0, 0, 0, 0, 0, 0, 0, 0, 0, 0, 0, 0, 0, 0, 0, 0, 0, 0, 0, 0, 0, 0, 0, 0, 0, 0, 0, 0, 0, 0, 0, 0, 0, 0, 0, 0, 0, 0, 0, 0, 0, 0, 0, 0, 0, 0, 0, 0, 0, 0, 0, 0, 0, 0, 0, 0, 0, 0, 0, 0, 0, 0, 0, 0, 0, 0, 0, 0, 0, 0, 0, 0, 0, 0, 0, 0, 0, 0, 0, 0, 0, 0, 510, 0, 0, 0, 0, 0, 0, 0, 510, 0, 0, 0, 0, 0, 0, 0, 0, 0, 0, 0, 0, 0, 0, 0, 0, 0, 0, 0, 0, 0, 0, 0, 0, 0, 0, 0, 0, 0, 0, 0, 0, 0, 0, 0, 0, 0, 0, 0, 0, 0, 0, 0, 0, 0, 0, 0, 0, 0, 0, 0, 0, 0, 0, 0, 0, 0, 0, 0, 0, 0, 0, 0, 0, 0, 0, 0, 0, 0, 0, 0, 0, 0, 0, 0, 0, 0, 0, 0, 0, 0, 0, 0, 0, 0, 0, 0, 0, 0, 0, 0, 0, 0, 0, 0, 0, 0, 0, 0, 0, 0, 0, 0, 0, 0, 0, 0, 0, 0, 0, 0, 0, 0, 0, 0, 0, 0, 0, 0, 0, 0, 0, 0, 0, 0, 0, 0, 0, 0, 0, 0, 0, 0, 0, 0, 0, 0, 0, 0, 0, 0, 0, 0, 0, 0, 0, 0, 0, 0, 0, 0, 0, 0, 0, 0, 0, 0, 0, 0, 0, 0, 0, 0, 0, 0, 0, 0, 0, 0, 0, 0, 0, 0, 0, 0, 0, 0, 0, 0, 0, 0, 0, 0, 0, 0, 0, 0, 0, 0, 0, 0, 0, 0, 0, 0, 0, 0, 0, 0, 0, 0, 0, 0, 0, 0, 0, 0, 0, 0, 0, 0, 0, 0]}, {"type": "objectgroup", "name": "spawns", "id": 4, "opacity": 1, "visible": true, "x": 0, "y": 0, "objects": [{"id": 1, "name": "", "x": 112, "y": 592, "width": 16, "height": 16, "visible": true, "properties": [{"name": "kind", "type": "int", "value": 0}]}, {"id": 2, "name": "", "x": 64, "y": 544, "width": 16, "height": 16, "visible": true, "properties": [{"name": "kind", "type": "int", "value": 13}]}, {"id": 3, "name": "", "x": 96, "y": 528, "width": 16, "height": 16, "visible": true, "properties": [{"name": "kind", "type": "int", "value": 30}]}, {"id": 4, "name": "", "x": 144, "y": 512, "width": 16, "height": 16, "visible": true, "properties": [{"name": "kind", "type": "int", "value": 30}]}, {"id": 5, "name": "", "x": 80, "y": 416, "width": 16, "height": 16, "visible": true, "properties": [{"name": "kind", "type": "int", "value": 30}]}, {"id": 6, "name": "", "x": 144, "y": 384, "width": 16, "height": 16, "visible": true, "properties": [{"name": "kind", "type": "int", "value": 31}]}, {"id": 7, "name": "", "x": 176, "y": 352, "width": 16, "height": 16, "visible": true, "properties": [{"name": "kind", "type": "int", "value": 12}]}, {"id": 8, "name": "", "x": 96, "y": 256, "width": 16, "height": 16, "visible": true, "properties": [{"name": "kind", "type": "int", "value": 32}]}, {"id": 9, "name": "", "x": 144, "y": 224, "width": 16, "height": 16, "visible": true, "properties": [{"name": "kind", "type": "int", "value": 32}]}, {"id": 10, "name": "", "x": 112, "y": 80, "width": 16, "height": 16, "visible": true, "properties": [{"name": "kind", "type": "int", "value": 40}]}]}]}