{"type": "map", "orientation": "orthogonal", "renderorder": "right-down", "infinite": false, "width": 40, "height": 30, "tilewidth": 16, "tileheight": 16, "nextlayerid": 5, "nextobjectid": 6, "version": "1.10", "tiledversion": "1.11.0", "tilesets": [{"firstgid": 1, "source": "../../../assets/ninja-adventure/tiled/TilesetFloor.tsj"}, {"firstgid": 573, "source": "../../../assets/ninja-adventure/tiled/TilesetNature.tsj"}, {"firstgid": 1077, "source": "../../../assets/ninja-adventure/tiled/TilesetHouse.tsj"}, {"firstgid": 1836, "source": "../../../assets/ninja-adventure/tiled/TilesetWater.tsj"}], "layers": [{"type": "tilelayer", "name": "Ground", "id": 1, "width": 40, "height": 30, "x": 0, "y": 0, "opacity": 1, "visible": true, "data": [265, 265, 265, 265, 265, 265, 265, 265, 265, 265, 265, 265, 265, 265, 265, 265, 265, 265, 265, 265, 265, 265, 265, 265, 265, 265, 265, 265, 265, 265, 265, 265, 265, 265, 265, 265, 265, 265, 265, 265, 265, 265, 265, 265, 265, 265, 265, 265, 265, 265, 265, 265, 265, 265, 265, 265, 265, 265, 265, 265, 265, 265, 265, 265, 265, 265, 265, 265, 265, 265, 265, 265, 265, 265, 265, 265, 265, 265, 265, 265, 265, 265, 265, 265, 265, 265, 265, 265, 265, 265, 265, 265, 265, 265, 265, 265, 265, 265, 265, 265, 265, 265, 265, 265, 265, 265, 265, 265, 265, 265, 265, 265, 265, 265, 265, 265, 265, 265, 265, 265, 265, 265, 265, 265, 265, 265, 265, 265, 265, 265, 265, 265, 265, 265, 265, 265, 265, 265, 1375, 265, 265, 265, 265, 265, 265, 265, 265, 265, 265, 265, 265, 265, 265, 265, 265, 265, 265, 265, 265, 265, 265, 265, 265, 265, 265, 265, 265, 265, 265, 265, 265, 265, 265, 265, 265, 265, 265, 265, 265, 265, 265, 265, 265, 265, 265, 265, 265, 265, 265, 265, 265, 265, 265, 265, 265, 265, 265, 265, 265, 265, 265, 265, 265, 265, 265, 265, 265, 265, 265, 265, 265, 265, 265, 265, 265, 265, 265, 265, 265, 265, 265, 265, 265, 265, 265, 265, 265, 265, 265, 265, 265, 265, 265, 265, 265, 265, 265, 265, 265, 265, 265, 265, 265, 265, 265, 265, 265, 265, 265, 265, 265, 265, 265, 265, 265, 265, 265, 265, 265, 265, 265, 265, 265, 265, 265, 265, 265, 265, 265, 265, 265, 265, 265, 265, 265, 265, 265, 265, 265, 265, 265, 265, 265, 265, 265, 265, 265, 265, 265, 265, 265, 265, 265, 265, 265, 265, 265, 265, 265, 265, 265, 265, 265, 265, 265, 265, 265, 265, 265, 265, 265, 2004, 2005, 2005, 2006, 265, 265, 265, 265, 265, 265, 265, 265, 265, 265, 265, 265, 265, 265, 265, 265, 265, 265, 265, 265, 265, 265, 265, 265, 265, 265, 265, 265, 265, 265, 265, 265, 265, 265, 265, 265, 2032, 2033, 2033, 2034, 265, 265, 265, 265, 265, 265, 265, 265, 265, 265, 265, 265, 265, 265, 265, 265, 265, 265, 265, 265, 265, 265, 265, 265, 265, 265, 265, 265, 265, 265, 265, 265, 265, 265, 265, 265, 2060, 2061, 2061, 2062, 265, 265, 265, 265, 265, 265, 265, 265, 265, 265, 265, 265, 265, 265, 265, 265, 265, 265, 265, 265, 265, 265, 265, 265, 265, 265, 265, 265, 265, 265, 265, 265, 265, 265, 265, 265, 265, 265, 265, 265, 265, 265, 265, 265, 265, 265, 265, 265, 265, 265, 265, 265, 265, 265, 265, 265, 265, 265, 265, 265, 265, 265, 265, 265, 265, 265, 265, 265, 265, 265, 265, 265, 265, 265, 265, 265, 265, 265, 265, 265, 265, 265, 265, 265, 265, 265, 265, 265, 265, 265, 265, 265, 265, 265, 265, 265, 265, 265, 265, 265, 265, 265, 265, 265, 265, 265, 265, 265, 265, 265, 265, 265, 265, 265, 265, 265, 265, 265, 265, 265, 265, 265, 265, 265, 265, 265, 265, 265, 265, 265, 265, 265, 265, 265, 265, 265, 265, 265, 265, 265, 265, 265, 265, 265, 265, 265, 265, 265, 265, 265, 265, 265, 265, 265, 265, 265, 265, 265, 265, 265, 265, 265, 265, 265, 265, 265, 265, 265, 265, 265, 265, 265, 265, 265, 265, 265, 265, 265, 265, 265, 265, 265, 265, 265, 265, 265, 265, 265, 265, 265, 265, 265, 265, 265, 265, 265, 265, 265, 265, 265, 265, 265, 265, 265, 265, 265, 265, 265, 265, 265, 265, 265, 265, 265, 265, 265, 265, 265, 265, 265, 265, 265, 265, 265, 265, 265, 265, 265, 265, 265, 265, 265, 265, 265, 265, 265, 265, 265, 265, 265, 265, 265, 265, 265, 265, 265, 265, 265, 265, 265, 265, 265, 265, 265, 265, 265, 265, 265, 265, 265, 265, 265, 265, 265, 265, 265, 265, 265, 265, 265, 265, 265, 265, 265, 265, 265, 265, 265, 265, 265, 265, 265, 265, 265, 265, 265, 265, 265, 265, 265, 265, 265, 265, 265, 265, 265, 265, 265, 265, 265, 265, 265, 265, 265, 265, 265, 265, 265, 265, 265, 265, 265, 265, 265, 265, 265, 265, 265, 265, 265, 265, 265, 265, 265, 265, 265, 265, 265, 265, 265, 265, 265, 265, 265, 265, 265, 265, 265, 265, 265, 265, 265, 265, 265, 265, 265, 265, 265, 265, 265, 265, 265, 265, 265, 265, 265, 265, 265, 265, 265, 265, 265, 265, 265, 265, 265, 265, 265, 265, 265, 265, 265, 265, 265, 265, 265, 265, 265, 265, 265, 265, 265, 265, 265, 265, 265, 265, 265, 265, 265, 265, 265, 265, 265, 265, 265, 265, 1156, 265, 265, 265, 265, 265, 265, 265, 265, 265, 265, 265, 265, 265, 1144, 265, 265, 265, 265, 265, 265, 265, 265, 265, 265, 265, 265, 265, 265, 265, 265, 265, 265, 265, 265, 265, 265, 265, 265, 265, 265, 265, 265, 265, 265, 265, 265, 265, 265, 265, 265, 265, 265, 265, 265, 265, 265, 265, 265, 265, 265, 265, 265, 265, 265, 265, 265, 265, 265, 265, 265, 265, 265, 265, 265, 265, 265, 265, 265, 265, 265, 265, 265, 265, 265, 265, 265, 265, 265, 265, 265, 265, 265, 265, 265, 265, 265, 265, 265, 265, 265, 265, 265, 265, 265, 265, 265, 265, 265, 265, 265, 265, 265, 265, 265, 265, 265, 265, 265, 265, 265, 265, 265, 265, 265, 265, 265, 265, 265, 265, 265, 265, 265, 265, 265, 265, 265, 265, 265, 265, 265, 265, 265, 265, 265, 265, 265, 265, 265, 265, 265, 265, 265, 265, 265, 265, 265, 265, 265, 265, 265, 265, 265, 265, 265, 265, 265, 265, 265, 265, 265, 265, 265, 265, 265, 265, 265, 265, 265, 265, 265, 265, 265, 265, 265, 265, 265, 265, 265, 265, 265, 265, 265, 265, 265, 265, 265, 265, 265, 265, 265, 265, 265, 265, 265, 265, 265, 265, 265, 265, 265, 265, 265, 265, 265, 265, 265, 265, 265, 1144, 265, 265, 265, 265, 265, 265, 265, 265, 265, 265, 265, 265, 265, 265, 265, 265, 265, 265, 265, 265, 265, 265, 265, 265, 265, 265, 265, 265, 265, 265, 265, 265, 265, 265, 265, 265, 265, 265, 265, 265, 265, 265, 265, 265, 265, 265, 265, 265, 265, 265, 265, 265, 265, 265, 265, 265, 265, 265, 1156, 265, 265, 265, 265, 265, 265, 265, 265, 265, 265, 265, 265, 265, 265, 265, 265, 265, 265, 265, 265, 265, 265, 265, 265, 265, 265, 265, 265, 265, 265, 265, 265, 265, 265, 265, 265, 265, 265, 265, 265, 265, 265, 265, 265, 265, 265, 265, 265, 265, 265, 265, 265, 265, 265, 265, 265, 265, 265, 265, 265, 265, 265, 265, 265, 265, 265, 265, 265, 265, 265, 265, 265, 265, 265, 265, 265, 265, 265, 265, 265, 265, 265, 265, 265, 265, 265, 265, 265, 265, 265, 265, 265, 265, 265, 265, 265, 265, 265, 265, 265, 265, 265, 265, 265, 265, 265, 265, 265, 265, 265, 265, 265, 265, 265, 265, 265, 265, 265, 265, 265, 265, 265, 265, 265, 265, 265, 265, 265, 265]}, {"type": "tilelayer", "name": "Paths", "id": 2, "width": 40, "height": 30, "x": 0, "y": 0, "opacity": 1, "visible": true, "data": [0, 0, 0, 0, 0, 0, 0, 0, 0, 0, 0, 0, 0, 0, 0, 0, 0, 0, 0, 0, 0, 0, 0, 0, 0, 0, 0, 0, 0, 0, 0, 0, 0, 0, 0, 0, 0, 0, 0, 0, 0, 0, 0, 0, 0, 0, 0, 0, 0, 0, 0, 0, 0, 0, 0, 0, 0, 0, 0, 0, 0, 0, 0, 0, 0, 0, 0, 0, 0, 0, 0, 0, 0, 0, 0, 0, 0, 0, 0, 0, 0, 0, 0, 0, 0, 0, 0, 0, 0, 0, 0, 0, 0, 0, 0, 0, 0, 0, 0, 0, 0, 0, 0, 0, 0, 0, 0, 0, 0, 0, 0, 0, 0, 0, 0, 0, 0, 0, 0, 0, 0, 0, 0, 0, 0, 0, 0, 0, 0, 0, 0, 0, 0, 0, 0, 0, 0, 0, 0, 0, 0, 0, 0, 0, 0, 0, 0, 0, 0, 0, 0, 0, 0, 0, 0, 0, 0, 0, 0, 0, 0, 0, 0, 0, 0, 0, 0, 0, 0, 0, 0, 0, 0, 0, 0, 0, 0, 155, 156, 157, 0, 0, 0, 0, 0, 0, 0, 0, 0, 0, 0, 0, 0, 0, 0, 0, 0, 0, 0, 0, 0, 0, 0, 0, 0, 0, 0, 0, 0, 0, 0, 0, 0, 0, 0, 0, 0, 177, 244, 179, 0, 0, 0, 0, 0, 0, 0, 0, 0, 0, 0, 0, 0, 0, 0, 0, 0, 0, 0, 0, 0, 0, 0, 0, 0, 0, 0, 0, 0, 0, 0, 0, 0, 0, 0, 0, 0, 177, 178, 179, 0, 0, 0, 0, 0, 0, 0, 0, 0, 0, 0, 0, 0, 0, 0, 0, 0, 0, 0, 0, 0, 0, 0, 0, 0, 0, 0, 0, 0, 0, 0, 0, 0, 0, 0, 0, 0, 177, 243, 179, 0, 0, 0, 0, 0, 0, 0, 0, 0, 0, 0, 0, 0, 0, 0, 0, 0, 0, 0, 0, 0, 0, 0, 0, 0, 0, 0, 0, 0, 0, 0, 0, 0, 0, 0, 0, 0, 177, 244, 179, 0, 0, 0, 0, 0, 0, 0, 0, 0, 0, 0, 0, 0, 0, 0, 0, 0, 0, 0, 0, 0, 0, 0, 0, 0, 0, 0, 0, 0, 0, 0, 0, 0, 0, 0, 0, 0, 177, 178, 179, 0, 0, 0, 0, 0, 0, 0, 0, 0, 0, 0, 0, 0, 0, 0, 0, 0, 0, 0, 0, 0, 0, 0, 0, 0, 0, 0, 0, 0, 0, 0, 0, 0, 0, 0, 0, 0, 177, 243, 179, 0, 0, 0, 0, 0, 0, 0, 0, 0, 0, 0, 0, 0, 0, 0, 0, 0, 0, 0, 0, 0, 0, 0, 0, 0, 0, 0, 0, 0, 0, 0, 0, 0, 0, 0, 0, 0, 177, 244, 179, 0, 0, 0, 0, 0, 0, 0, 0, 0, 0, 0, 0, 0, 0, 0, 0, 0, 0, 0, 0, 0, 0, 0, 0, 0, 0, 0, 0, 0, 0, 0, 0, 0, 0, 0, 0, 0, 177, 178, 179, 0, 0, 0, 0, 0, 0, 0, 0, 0, 0, 0, 0, 0, 0, 0, 0, 0, 0, 0, 0, 0, 0, 0, 0, 0, 0, 0, 0, 0, 0, 0, 0, 0, 0, 0, 0, 0, 177, 243, 179, 0, 0, 0, 0, 0, 0, 0, 0, 0, 0, 0, 0, 0, 0, 0, 0, 0, 0, 0, 0, 0, 0, 0, 0, 155, 156, 156, 156, 156, 156, 156, 156, 156, 156, 156, 156, 156, 205, 244, 204, 156, 156, 156, 156, 156, 156, 156, 156, 156, 156, 156, 156, 156, 156, 156, 157, 0, 0, 0, 0, 0, 0, 0, 0, 177, 244, 178, 243, 244, 178, 243, 244, 178, 243, 244, 178, 243, 244, 178, 243, 244, 178, 243, 244, 178, 243, 244, 178, 243, 244, 178, 243, 244, 178, 243, 179, 0, 0, 0, 0, 0, 0, 0, 0, 199, 200, 200, 200, 200, 200, 200, 200, 200, 200, 200, 200, 200, 183, 243, 182, 200, 200, 200, 200, 200, 200, 200, 200, 200, 200, 200, 200, 200, 200, 200, 201, 0, 0, 0, 0, 0, 0, 0, 0, 0, 0, 0, 0, 0, 0, 0, 0, 0, 0, 0, 0, 0, 177, 244, 179, 0, 0, 0, 0, 0, 0, 0, 0, 0, 0, 0, 0, 0, 0, 0, 0, 0, 0, 0, 0, 0, 0, 0, 0, 0, 0, 0, 0, 0, 0, 0, 0, 0, 0, 0, 0, 0, 177, 178, 179, 0, 0, 0, 0, 0, 0, 0, 0, 0, 0, 0, 0, 0, 0, 0, 0, 0, 0, 0, 0, 0, 0, 0, 0, 0, 0, 0, 0, 0, 0, 0, 0, 0, 0, 0, 0, 0, 177, 243, 179, 0, 0, 0, 0, 0, 0, 0, 0, 0, 0, 0, 0, 0, 0, 0, 0, 0, 0, 0, 0, 0, 0, 0, 0, 0, 0, 0, 0, 0, 0, 0, 0, 0, 0, 0, 0, 0, 177, 244, 179, 0, 0, 155, 156, 156, 156, 156, 156, 156, 157, 0, 0, 0, 0, 0, 0, 0, 0, 0, 0, 0, 0, 0, 0, 0, 0, 0, 0, 0, 0, 0, 0, 0, 0, 0, 0, 0, 177, 178, 179, 0, 0, 177, 244, 178, 243, 244, 178, 243, 179, 0, 0, 0, 0, 0, 0, 0, 0, 0, 0, 0, 0, 0, 0, 0, 0, 0, 0, 0, 0, 0, 0, 0, 0, 0, 0, 0, 177, 243, 179, 0, 0, 177, 178, 243, 244, 178, 243, 244, 179, 0, 0, 0, 0, 0, 0, 0, 0, 0, 0, 0, 0, 0, 0, 0, 0, 0, 0, 0, 0, 0, 0, 0, 0, 0, 0, 0, 177, 244, 179, 0, 0, 199, 200, 200, 200, 200, 200, 200, 201, 0, 0, 0, 0, 0, 0, 0, 0, 0, 0, 0, 0, 0, 0, 0, 0, 0, 0, 0, 0, 0, 0, 0, 0, 0, 0, 0, 177, 178, 179, 0, 0, 0, 0, 0, 0, 0, 0, 0, 0, 0, 0, 0, 0, 0, 0, 0, 0, 0, 0, 0, 0, 0, 0, 0, 0, 0, 0, 0, 0, 0, 0, 0, 0, 0, 0, 0, 199, 200, 201, 0, 0, 0, 0, 0, 0, 0, 0, 0, 0, 0, 0, 0, 0, 0, 0, 0, 0, 0, 0, 0, 0, 0, 0, 0, 0, 0, 0, 0, 0, 0, 0, 0, 0, 0, 0, 0, 0, 0, 0, 0, 0, 0, 0, 0, 0, 0, 0, 0, 0, 0, 0, 0, 0, 0, 0, 0, 0, 0, 0, 0, 0, 0, 0, 0, 0, 0, 0, 0, 0, 0, 0, 0, 0, 0, 0, 0, 0, 0, 0, 0, 0, 0, 0, 0, 0, 0, 0, 0, 0, 0, 0, 0, 0, 0, 0, 0, 0, 0, 0, 0, 0, 0, 0, 0, 0, 0, 0, 0, 0, 0, 0, 0, 0, 0, 0, 0, 0, 0, 0, 0, 0, 0, 0, 0, 0, 0, 0, 0, 0, 0, 0, 0, 0, 0, 0, 0, 0, 0, 0, 0, 0, 0, 0, 0, 0, 0, 0, 0, 0, 0, 0, 0, 0, 0, 0, 0, 0, 0, 0, 0, 0, 0, 0, 0, 0, 0, 0, 0, 0, 0, 0, 0, 0, 0, 0, 0, 0, 0, 0]}, {"type": "tilelayer", "name": "Props", "id": 3, "width": 40, "height": 30, "x": 0, "y": 0, "opacity": 1, "visible": true, "data": [1005, 1006, 1007, 1008, 1009, 1010, 1005, 1006, 1007, 1008, 1009, 1010, 1005, 1006, 1007, 1008, 1009, 1010, 1005, 1006, 1007, 1008, 1009, 1010, 1005, 1006, 1007, 1008, 1009, 1010, 1005, 1006, 1007, 1008, 1009, 1010, 1005, 1006, 1007, 1008, 1029, 1030, 1031, 1032, 1033, 1034, 1029, 1030, 1031, 1032, 1033, 1034, 1029, 1030, 1031, 1032, 1033, 1034, 1029, 1030, 1031, 1032, 1033, 1034, 1029, 1030, 1031, 1032, 1033, 1034, 1029, 1030, 1031, 1032, 1033, 1034, 1029, 1030, 1031, 1032, 1053, 1054, 1055, 1056, 1057, 1058, 1053, 1054, 1055, 1056, 1057, 1058, 1053, 1054, 1055, 1056, 1057, 1341, 1342, 1343, 1055, 1056, 1057, 1058, 1053, 1054, 1055, 1056, 1057, 1058, 1053, 1054, 1055, 1056, 1057, 1058, 1053, 1054, 1055, 1056, 0, 0, 1008, 1009, 1010, 0, 0, 0, 0, 0, 0, 0, 0, 0, 0, 0, 0, 1374, 0, 1376, 0, 0, 0, 0, 0, 0, 0, 0, 0, 0, 0, 0, 0, 0, 0, 1005, 1006, 1007, 0, 0, 0, 0, 1032, 1033, 1034, 0, 0, 0, 0, 0, 0, 0, 0, 0, 0, 0, 0, 0, 0, 0, 0, 0, 0, 0, 0, 0, 0, 0, 0, 0, 0, 0, 0, 0, 0, 1029, 1030, 1031, 0, 0, 0, 0, 1056, 1057, 1058, 0, 0, 0, 0, 0, 0, 0, 0, 0, 0, 0, 0, 1242, 1243, 1244, 0, 0, 0, 0, 0, 0, 0, 0, 0, 0, 0, 0, 0, 0, 0, 1053, 1054, 1055, 0, 0, 0, 0, 0, 0, 0, 0, 0, 0, 0, 0, 0, 0, 0, 0, 0, 0, 0, 1275, 1276, 1277, 0, 0, 0, 0, 0, 0, 0, 0, 0, 0, 0, 0, 0, 0, 0, 0, 0, 0, 0, 0, 0, 0, 0, 0, 0, 0, 0, 0, 0, 0, 0, 0, 0, 0, 0, 0, 0, 1308, 1309, 1310, 0, 0, 0, 0, 0, 0, 0, 0, 0, 0, 0, 0, 0, 0, 0, 0, 0, 0, 0, 0, 0, 0, 0, 1005, 1006, 1007, 0, 0, 0, 0, 0, 0, 0, 1008, 1009, 1010, 0, 0, 0, 0, 0, 0, 0, 0, 0, 0, 0, 0, 0, 0, 0, 0, 0, 0, 0, 0, 0, 0, 0, 0, 0, 0, 0, 1029, 1030, 1031, 0, 0, 0, 0, 0, 0, 0, 1032, 1033, 1034, 0, 0, 0, 0, 0, 0, 0, 0, 0, 0, 0, 0, 0, 0, 0, 0, 0, 0, 0, 0, 0, 0, 0, 0, 0, 0, 0, 1053, 1054, 1055, 0, 0, 0, 0, 0, 0, 0, 1056, 1057, 1058, 0, 0, 0, 0, 0, 0, 0, 0, 0, 0, 0, 0, 0, 0, 0, 0, 0, 0, 0, 0, 0, 0, 0, 0, 0, 0, 0, 0, 0, 0, 0, 0, 0, 0, 0, 0, 0, 0, 0, 0, 0, 0, 0, 0, 0, 0, 0, 0, 0, 0, 0, 0, 0, 0, 0, 0, 0, 0, 0, 0, 0, 0, 0, 0, 0, 0, 1008, 1009, 1010, 0, 0, 0, 0, 0, 0, 0, 0, 0, 0, 0, 0, 0, 0, 0, 0, 0, 0, 0, 0, 0, 0, 0, 0, 0, 0, 0, 0, 0, 0, 1008, 1009, 1010, 0, 0, 0, 0, 1032, 1033, 1034, 0, 0, 0, 0, 0, 0, 0, 0, 0, 0, 0, 0, 0, 0, 0, 0, 0, 0, 0, 0, 0, 0, 0, 0, 0, 0, 0, 0, 0, 0, 1032, 1033, 1034, 0, 0, 0, 0, 1056, 1057, 1058, 0, 0, 0, 0, 0, 0, 0, 0, 0, 0, 0, 0, 0, 0, 0, 0, 0, 0, 0, 0, 0, 0, 0, 0, 0, 0, 0, 0, 0, 0, 1056, 1057, 1058, 0, 0, 0, 0, 0, 0, 0, 0, 0, 0, 0, 0, 0, 0, 0, 0, 0, 0, 0, 0, 0, 0, 0, 0, 0, 0, 0, 0, 0, 0, 0, 0, 0, 0, 0, 0, 0, 0, 0, 0, 0, 0, 0, 0, 0, 0, 0, 0, 0, 0, 0, 0, 0, 0, 0, 0, 0, 0, 0, 0, 0, 0, 0, 0, 0, 0, 0, 0, 0, 0, 0, 0, 0, 0, 0, 0, 0, 0, 0, 0, 0, 0, 0, 0, 0, 0, 0, 0, 0, 0, 0, 0, 0, 0, 0, 0, 0, 0, 0, 0, 0, 0, 0, 0, 0, 0, 0, 0, 0, 0, 0, 1089, 1090, 1090, 1090, 1090, 1092, 0, 0, 0, 0, 0, 0, 0, 0, 0, 1077, 1078, 1078, 1078, 1078, 1080, 0, 0, 0, 0, 0, 0, 0, 0, 0, 0, 0, 0, 0, 0, 0, 0, 0, 0, 0, 1122, 1123, 1123, 1123, 1123, 1125, 0, 0, 0, 0, 0, 0, 0, 0, 0, 1110, 1111, 1111, 1111, 1111, 1113, 0, 0, 0, 0, 0, 0, 0, 0, 0, 0, 0, 0, 0, 0, 0, 0, 0, 0, 0, 1155, 1157, 1157, 0, 1157, 1158, 0, 0, 0, 0, 0, 0, 0, 0, 0, 1143, 1145, 0, 1145, 1145, 1146, 0, 0, 0, 0, 0, 0, 0, 0, 0, 0, 0, 0, 0, 0, 0, 0, 0, 0, 0, 0, 0, 0, 0, 0, 0, 0, 0, 0, 0, 0, 0, 0, 0, 0, 0, 0, 0, 0, 0, 0, 0, 0, 0, 0, 0, 0, 0, 0, 0, 0, 0, 0, 0, 0, 0, 0, 0, 0, 0, 0, 0, 0, 0, 0, 1008, 1009, 1010, 0, 0, 0, 0, 0, 0, 0, 0, 0, 0, 0, 0, 0, 0, 0, 0, 0, 0, 0, 0, 0, 0, 0, 0, 0, 0, 0, 0, 0, 0, 0, 0, 0, 0, 0, 0, 0, 1032, 1033, 1034, 0, 0, 0, 0, 0, 0, 0, 0, 0, 0, 0, 0, 1077, 1078, 1078, 1078, 1080, 0, 0, 0, 0, 0, 0, 0, 0, 0, 0, 0, 0, 0, 0, 0, 0, 0, 0, 0, 0, 1056, 1057, 1058, 0, 0, 0, 0, 0, 0, 0, 0, 0, 0, 0, 0, 1110, 1111, 1111, 1111, 1113, 1005, 1006, 1007, 0, 0, 0, 0, 0, 0, 0, 0, 0, 0, 0, 1089, 1090, 1090, 1090, 1092, 0, 0, 0, 0, 0, 0, 0, 0, 0, 0, 0, 0, 0, 0, 0, 0, 1143, 1145, 0, 1145, 1146, 1029, 1030, 1031, 0, 0, 0, 0, 0, 0, 0, 0, 0, 0, 0, 1122, 1123, 1123, 1123, 1125, 0, 0, 0, 0, 0, 0, 0, 0, 0, 0, 0, 0, 0, 0, 0, 0, 0, 0, 0, 0, 0, 1053, 1054, 1055, 0, 0, 0, 0, 0, 0, 0, 0, 0, 0, 0, 1155, 1157, 0, 1157, 1158, 0, 0, 0, 0, 0, 0, 0, 1008, 1009, 1010, 1005, 1006, 1007, 1008, 1009, 1010, 1005, 1006, 1007, 1008, 1009, 1010, 1005, 1006, 1007, 1008, 1009, 1010, 1005, 1006, 1007, 1008, 1009, 1010, 1005, 1006, 1007, 1008, 1009, 1010, 1005, 1006, 1007, 1008, 1009, 1010, 1005, 1032, 1033, 1034, 1029, 1030, 1031, 1032, 1033, 1034, 1029, 1030, 1031, 1032, 1033, 1034, 1029, 1030, 1031, 1032, 1033, 1034, 1029, 1030, 1031, 1032, 1033, 1034, 1029, 1030, 1031, 1032, 1033, 1034, 1029, 1030, 1031, 1032, 1033, 1034, 1029, 1056, 1057, 1058, 1053, 1054, 1055, 1056, 1057, 1058, 1053, 1054, 1055, 1056, 1057, 1058, 1053, 1054, 1055, 1056, 1057, 1058, 1053, 1054, 1055, 1056, 1057, 1058, 1053, 1054, 1055, 1056, 1057, 1058, 1053, 1054, 1055, 1056, 1057, 1058, 1053]}, {"type": "objectgroup", "name": "spawns", "id": 4, "opacity": 1, "visible": true, "x": 0, "y": 0, "objects": [{"id": 1, "name": "", "x": 304, "y": 256, "width": 16, "height": 16, "visible": true, "properties": [{"name": "kind", "type": "int", "value": 0}]}, {"id": 2, "name": "", "x": 304, "y": 192, "width": 16, "height": 16, "visible": true, "properties": [{"name": "kind", "type": "int", "value": 20}]}, {"id": 3, "name": "", "x": 144, "y": 288, "width": 16, "height": 16, "visible": true, "properties": [{"name": "kind", "type": "int", "value": 21}]}, {"id": 4, "name": "", "x": 464, "y": 320, "width": 16, "height": 16, "visible": true, "properties": [{"name": "kind", "type": "int", "value": 22}]}, {"id": 5, "name": "", "x": 400, "y": 416, "width": 16, "height": 16, "visible": true, "properties": [{"name": "kind", "type": "int", "value": 23}]}]}]}