{"type":"map","orientation":"orthogonal","renderorder":"right-down","infinite":false,"width":15,"height":10,"tilewidth":16,"tileheight":16,"nextlayerid":6,"nextobjectid":5,"version":"1.10","tiledversion":"1.11.0","tilesets":[{"firstgid":1,"source":"../../../assets/ninja-adventure/tiled/TilesetInteriorFloor.tsj"},{"firstgid":375,"source":"../../../assets/ninja-adventure/tiled/TilesetWallSimple.tsj"},{"firstgid":485,"source":"../../../assets/ninja-adventure/tiled/TilesetDungeon.tsj"}],"layers":[{"type":"tilelayer","name":"Ground","id":1,"width":15,"height":10,"x":0,"y":0,"opacity":1,"visible":true,"data":[0,0,0,0,0,0,0,0,0,0,0,0,0,0,0,0,276,277,277,277,277,277,277,277,277,277,277,277,278,0,0,298,303,304,303,304,303,304,303,304,303,304,303,300,0,0,298,325,326,325,326,325,326,325,326,325,326,325,300,0,0,298,303,304,303,304,303,304,303,304,303,304,303,300,0,0,298,325,326,325,326,325,326,325,326,325,326,325,300,0,0,298,303,304,303,304,303,304,303,304,303,304,303,300,0,0,298,325,326,325,326,325,326,325,326,325,326,325,300,0,0,320,321,321,321,321,321,321,321,321,321,321,321,322,0,0,0,0,0,0,0,303,303,303,0,0,0,0,0,0]},{"type":"tilelayer","name":"Collision","id":4,"width":15,"height":10,"x":0,"y":0,"opacity":1,"visible":true,"data":[1,1,1,1,1,1,1,1,1,1,1,1,1,1,1,1,0,0,0,0,0,0,0,0,0,0,0,0,0,1,1,0,0,0,0,0,0,0,0,0,0,0,0,0,1,1,0,0,0,0,0,0,0,0,0,0,0,0,0,1,1,0,0,0,1,0,0,0,0,0,1,0,0,0,1,1,0,0,0,0,0,0,0,0,0,0,0,0,0,1,1,0,0,0,0,0,0,0,0,0,0,0,0,0,1,1,0,0,0,0,0,0,0,0,0,0,0,0,0,1,1,0,0,0,0,0,0,0,0,0,0,0,0,0,1,1,1,1,1,1,1,0,0,0,1,1,1,1,1,1]},{"type":"objectgroup","name":"spawns","id":5,"opacity":1,"visible":true,"x":0,"y":0,"objects":[{"id":1,"name":"player","x":112,"y":128,"width":16,"height":16,"visible":true,"properties":[{"name":"kind","type":"int","value":0}]},{"id":2,"name":"old_man","x":112,"y":64,"width":16,"height":16,"visible":true,"properties":[{"name":"kind","type":"int","value":20}]},{"id":3,"name":"wooden_sword","x":112,"y":80,"width":16,"height":16,"visible":true,"properties":[{"name":"kind","type":"int","value":21}]},{"id":4,"name":"return","x":112,"y":144,"width":16,"height":16,"visible":true,"properties":[{"name":"kind","type":"int","value":120}]}]}]}