{
 "type": "map",
 "orientation": "orthogonal",
 "renderorder": "right-down",
 "infinite": false,
 "width": 30,
 "height": 18,
 "tilewidth": 16,
 "tileheight": 16,
 "nextlayerid": 3,
 "nextobjectid": 1,
 "version": "1.10",
 "tiledversion": "1.11.0",
 "tilesets": [
  {
   "firstgid": 1,
   "source": "wsg_tiles.tsj"
  }
 ],
 "layers": [
  {
   "type": "tilelayer",
   "name": "Ground",
   "id": 1,
   "width": 30,
   "height": 18,
   "x": 0,
   "y": 0,
   "opacity": 1,
   "visible": true,
   "data": [
    6,
    7,
    6,
    7,
    6,
    7,
    6,
    7,
    6,
    7,
    6,
    7,
    6,
    7,
    6,
    7,
    6,
    7,
    6,
    7,
    6,
    7,
    6,
    7,
    6,
    7,
    6,
    7,
    6,
    7,
    7,
    4,
    4,
    4,
    4,
    4,
    4,
    4,
    4,
    4,
    4,
    4,
    4,
    4,
    4,
    4,
    4,
    4,
    4,
    4,
    4,
    4,
    4,
    4,
    4,
    4,
    4,
    4,
    4,
    6,
    6,
    4,
    1,
    2,
    1,
    1,
    3,
    1,
    2,
    1,
    1,
    3,
    1,
    2,
    1,
    1,
    3,
    1,
    2,
    1,
    1,
    3,
    1,
    2,
    1,
    1,
    3,
    1,
    4,
    7,
    7,
    4,
    1,
    3,
    1,
    2,
    1,
    1,
    7,
    6,
    2,
    1,
    1,
    6,
    7,
    6,
    7,
    1,
    3,
    1,
    7,
    6,
    1,
    3,
    1,
    2,
    1,
    1,
    4,
    6,
    6,
    4,
    2,
    1,
    1,
    3,
    1,
    2,
    6,
    7,
    3,
    1,
    2,
    7,
    1,
    3,
    6,
    2,
    1,
    1,
    6,
    7,
    2,
    1,
    1,
    3,
    1,
    2,
    4,
    7,
    7,
    6,
    7,
    6,
    2,
    1,
    1,
    3,
    1,
    2,
    1,
    1,
    3,
    1,
    2,
    1,
    1,
    3,
    1,
    2,
    1,
    1,
    3,
    1,
    2,
    1,
    7,
    6,
    7,
    6,
    6,
    7,
    8,
    8,
    8,
    1,
    2,
    1,
    1,
    3,
    1,
    2,
    1,
    1,
    3,
    1,
    2,
    1,
    1,
    3,
    1,
    2,
    1,
    1,
    3,
    9,
    9,
    9,
    6,
    7,
    7,
    6,
    8,
    8,
    8,
    10,
    10,
    10,
    10,
    10,
    10,
    10,
    10,
    10,
    10,
    10,
    10,
    10,
    10,
    10,
    10,
    10,
    10,
    10,
    10,
    9,
    9,
    9,
    7,
    6,
    6,
    7,
    8,
    8,
    8,
    10,
    10,
    10,
    10,
    10,
    10,
    10,
    10,
    10,
    10,
    10,
    10,
    10,
    10,
    10,
    10,
    10,
    10,
    10,
    10,
    9,
    9,
    9,
    6,
    7,
    7,
    6,
    8,
    11,
    8,
    10,
    10,
    10,
    10,
    10,
    10,
    10,
    10,
    10,
    10,
    10,
    10,
    10,
    10,
    10,
    10,
    10,
    10,
    10,
    10,
    9,
    11,
    9,
    7,
    6,
    6,
    7,
    8,
    8,
    8,
    10,
    10,
    10,
    10,
    10,
    10,
    10,
    10,
    10,
    10,
    10,
    10,
    10,
    10,
    10,
    10,
    10,
    10,
    10,
    10,
    9,
    9,
    9,
    6,
    7,
    7,
    6,
    8,
    8,
    8,
    1,
    2,
    1,
    1,
    3,
    1,
    2,
    1,
    1,
    3,
    1,
    2,
    1,
    1,
    3,
    1,
    2,
    1,
    1,
    3,
    9,
    9,
    9,
    7,
    6,
    6,
    7,
    6,
    7,
    1,
    1,
    3,
    1,
    2,
    1,
    1,
    3,
    1,
    2,
    1,
    1,
    3,
    1,
    2,
    1,
    1,
    3,
    1,
    2,
    1,
    1,
    6,
    7,
    6,
    7,
    7,
    4,
    1,
    3,
    1,
    2,
    1,
    1,
    7,
    6,
    2,
    1,
    1,
    6,
    1,
    2,
    7,
    1,
    3,
    1,
    7,
    6,
    1,
    3,
    1,
    2,
    1,
    1,
    4,
    6,
    6,
    4,
    2,
    1,
    1,
    3,
    1,
    2,
    6,
    7,
    3,
    1,
    2,
    7,
    6,
    7,
    6,
    2,
    1,
    1,
    6,
    7,
    2,
    1,
    1,
    3,
    1,
    2,
    4,
    7,
    7,
    4,
    3,
    1,
    2,
    1,
    1,
    3,
    1,
    2,
    1,
    1,
    3,
    1,
    2,
    1,
    1,
    3,
    1,
    2,
    1,
    1,
    3,
    1,
    2,
    1,
    1,
    3,
    4,
    6,
    6,
    4,
    4,
    4,
    4,
    4,
    4,
    4,
    4,
    4,
    4,
    4,
    4,
    4,
    4,
    4,
    4,
    4,
    4,
    4,
    4,
    4,
    4,
    4,
    4,
    4,
    4,
    4,
    4,
    7,
    7,
    6,
    7,
    6,
    7,
    6,
    7,
    6,
    7,
    6,
    7,
    6,
    7,
    6,
    7,
    6,
    7,
    6,
    7,
    6,
    7,
    6,
    7,
    6,
    7,
    6,
    7,
    6,
    7,
    6
   ]
  },
  {
   "type": "tilelayer",
   "name": "Solid",
   "id": 2,
   "width": 30,
   "height": 18,
   "x": 0,
   "y": 0,
   "opacity": 1,
   "visible": true,
   "data": [
    6,
    7,
    6,
    7,
    6,
    7,
    6,
    7,
    6,
    7,
    6,
    7,
    6,
    7,
    6,
    7,
    6,
    7,
    6,
    7,
    6,
    7,
    6,
    7,
    6,
    7,
    6,
    7,
    6,
    7,
    7,
    0,
    0,
    0,
    0,
    0,
    0,
    0,
    0,
    0,
    0,
    0,
    0,
    0,
    0,
    0,
    0,
    0,
    0,
    0,
    0,
    0,
    0,
    0,
    0,
    0,
    0,
    0,
    0,
    6,
    6,
    0,
    0,
    0,
    0,
    0,
    0,
    0,
    0,
    0,
    0,
    0,
    0,
    0,
    0,
    0,
    0,
    0,
    0,
    0,
    0,
    0,
    0,
    0,
    0,
    0,
    0,
    0,
    0,
    7,
    7,
    0,
    0,
    0,
    0,
    0,
    0,
    0,
    7,
    6,
    0,
    0,
    0,
    6,
    7,
    6,
    7,
    0,
    0,
    0,
    7,
    6,
    0,
    0,
    0,
    0,
    0,
    0,
    0,
    6,
    6,
    0,
    0,
    0,
    0,
    0,
    0,
    0,
    6,
    7,
    0,
    0,
    0,
    7,
    0,
    0,
    6,
    0,
    0,
    0,
    6,
    7,
    0,
    0,
    0,
    0,
    0,
    0,
    0,
    7,
    7,
    6,
    7,
    6,
    0,
    0,
    0,
    0,
    0,
    0,
    0,
    0,
    0,
    0,
    0,
    0,
    0,
    0,
    0,
    0,
    0,
    0,
    0,
    0,
    0,
    0,
    7,
    6,
    7,
    6,
    6,
    7,
    0,
    0,
    0,
    0,
    0,
    0,
    0,
    0,
    0,
    0,
    0,
    0,
    0,
    0,
    0,
    0,
    0,
    0,
    0,
    0,
    0,
    0,
    0,
    0,
    0,
    0,
    6,
    7,
    7,
    6,
    0,
    0,
    0,
    0,
    0,
    0,
    0,
    0,
    0,
    0,
    0,
    0,
    0,
    0,
    0,
    0,
    0,
    0,
    0,
    0,
    0,
    0,
    0,
    0,
    0,
    0,
    7,
    6,
    6,
    7,
    0,
    0,
    0,
    0,
    0,
    0,
    0,
    0,
    0,
    0,
    0,
    0,
    0,
    0,
    0,
    0,
    0,
    0,
    0,
    0,
    0,
    0,
    0,
    0,
    0,
    0,
    6,
    7,
    7,
    6,
    0,
    0,
    0,
    0,
    0,
    0,
    0,
    0,
    0,
    0,
    0,
    0,
    0,
    0,
    0,
    0,
    0,
    0,
    0,
    0,
    0,
    0,
    0,
    0,
    0,
    0,
    7,
    6,
    6,
    7,
    0,
    0,
    0,
    0,
    0,
    0,
    0,
    0,
    0,
    0,
    0,
    0,
    0,
    0,
    0,
    0,
    0,
    0,
    0,
    0,
    0,
    0,
    0,
    0,
    0,
    0,
    6,
    7,
    7,
    6,
    0,
    0,
    0,
    0,
    0,
    0,
    0,
    0,
    0,
    0,
    0,
    0,
    0,
    0,
    0,
    0,
    0,
    0,
    0,
    0,
    0,
    0,
    0,
    0,
    0,
    0,
    7,
    6,
    6,
    7,
    6,
    7,
    0,
    0,
    0,
    0,
    0,
    0,
    0,
    0,
    0,
    0,
    0,
    0,
    0,
    0,
    0,
    0,
    0,
    0,
    0,
    0,
    0,
    0,
    6,
    7,
    6,
    7,
    7,
    0,
    0,
    0,
    0,
    0,
    0,
    0,
    7,
    6,
    0,
    0,
    0,
    6,
    0,
    0,
    7,
    0,
    0,
    0,
    7,
    6,
    0,
    0,
    0,
    0,
    0,
    0,
    0,
    6,
    6,
    0,
    0,
    0,
    0,
    0,
    0,
    0,
    6,
    7,
    0,
    0,
    0,
    7,
    6,
    7,
    6,
    0,
    0,
    0,
    6,
    7,
    0,
    0,
    0,
    0,
    0,
    0,
    0,
    7,
    7,
    0,
    0,
    0,
    0,
    0,
    0,
    0,
    0,
    0,
    0,
    0,
    0,
    0,
    0,
    0,
    0,
    0,
    0,
    0,
    0,
    0,
    0,
    0,
    0,
    0,
    0,
    0,
    0,
    6,
    6,
    0,
    0,
    0,
    0,
    0,
    0,
    0,
    0,
    0,
    0,
    0,
    0,
    0,
    0,
    0,
    0,
    0,
    0,
    0,
    0,
    0,
    0,
    0,
    0,
    0,
    0,
    0,
    0,
    7,
    7,
    6,
    7,
    6,
    7,
    6,
    7,
    6,
    7,
    6,
    7,
    6,
    7,
    6,
    7,
    6,
    7,
    6,
    7,
    6,
    7,
    6,
    7,
    6,
    7,
    6,
    7,
    6,
    7,
    6
   ]
  }
 ]
}