{
 "type": "map",
 "version": "1.10",
 "tiledversion": "1.11.0",
 "orientation": "orthogonal",
 "renderorder": "right-down",
 "width": 30,
 "height": 20,
 "tilewidth": 16,
 "tileheight": 16,
 "infinite": false,
 "nextlayerid": 4,
 "nextobjectid": 1,
 "tilesets": [
  {
   "firstgid": 1,
   "source": "rts_tiles.tsj"
  },
  {
   "firstgid": 100,
   "source": "../../../assets/ninja-adventure/tiled/Collision.tsj"
  }
 ],
 "layers": [
  {
   "id": 1,
   "name": "Ground",
   "type": "tilelayer",
   "data": [
    3,
    3,
    3,
    3,
    3,
    3,
    3,
    3,
    3,
    3,
    3,
    3,
    3,
    3,
    3,
    3,
    3,
    3,
    3,
    3,
    3,
    3,
    3,
    3,
    3,
    3,
    3,
    3,
    3,
    3,
    3,
    1,
    1,
    1,
    1,
    1,
    1,
    1,
    1,
    1,
    1,
    1,
    1,
    1,
    1,
    3,
    1,
    1,
    1,
    1,
    1,
    1,
    3,
    1,
    1,
    1,
    1,
    1,
    1,
    3,
    3,
    1,
    1,
    1,
    1,
    1,
    1,
    1,
    2,
    1,
    1,
    1,
    1,
    1,
    1,
    3,
    1,
    1,
    1,
    1,
    1,
    1,
    3,
    1,
    1,
    1,
    1,
    1,
    1,
    3,
    3,
    1,
    1,
    1,
    1,
    1,
    1,
    1,
    1,
    1,
    1,
    1,
    1,
    1,
    1,
    3,
    1,
    1,
    1,
    1,
    1,
    1,
    3,
    1,
    1,
    1,
    1,
    1,
    1,
    3,
    3,
    1,
    1,
    1,
    1,
    1,
    1,
    1,
    3,
    1,
    1,
    1,
    1,
    1,
    1,
    3,
    1,
    1,
    1,
    1,
    1,
    1,
    3,
    1,
    1,
    1,
    1,
    1,
    1,
    3,
    3,
    1,
    1,
    1,
    1,
    1,
    1,
    1,
    3,
    1,
    1,
    1,
    1,
    1,
    1,
    3,
    1,
    1,
    1,
    1,
    1,
    1,
    3,
    1,
    1,
    1,
    1,
    1,
    1,
    3,
    3,
    1,
    1,
    1,
    1,
    1,
    1,
    1,
    3,
    1,
    1,
    1,
    1,
    1,
    1,
    3,
    1,
    1,
    1,
    1,
    1,
    1,
    3,
    1,
    1,
    1,
    1,
    1,
    1,
    3,
    3,
    1,
    1,
    1,
    1,
    1,
    1,
    1,
    3,
    1,
    1,
    1,
    1,
    1,
    1,
    3,
    1,
    1,
    1,
    1,
    1,
    1,
    3,
    1,
    1,
    1,
    1,
    1,
    1,
    3,
    3,
    1,
    1,
    1,
    1,
    1,
    1,
    1,
    3,
    1,
    1,
    1,
    1,
    1,
    1,
    3,
    1,
    1,
    1,
    1,
    1,
    1,
    3,
    1,
    1,
    1,
    1,
    1,
    1,
    3,
    3,
    1,
    1,
    1,
    1,
    1,
    1,
    1,
    3,
    1,
    1,
    1,
    1,
    1,
    1,
    3,
    1,
    1,
    1,
    1,
    1,
    1,
    1,
    1,
    1,
    1,
    1,
    1,
    1,
    3,
    3,
    1,
    1,
    1,
    1,
    1,
    1,
    1,
    3,
    1,
    1,
    1,
    1,
    1,
    1,
    3,
    1,
    1,
    1,
    1,
    1,
    1,
    2,
    1,
    1,
    1,
    1,
    1,
    1,
    3,
    3,
    1,
    1,
    1,
    1,
    1,
    1,
    1,
    3,
    1,
    1,
    1,
    1,
    1,
    1,
    3,
    1,
    1,
    1,
    1,
    1,
    1,
    1,
    1,
    1,
    1,
    1,
    1,
    1,
    3,
    3,
    1,
    1,
    1,
    1,
    1,
    1,
    1,
    3,
    1,
    1,
    1,
    1,
    1,
    1,
    3,
    1,
    1,
    1,
    1,
    1,
    1,
    3,
    1,
    1,
    1,
    1,
    1,
    1,
    3,
    3,
    1,
    1,
    1,
    1,
    1,
    1,
    1,
    3,
    1,
    1,
    1,
    1,
    1,
    1,
    3,
    1,
    1,
    1,
    1,
    1,
    1,
    3,
    1,
    1,
    1,
    1,
    1,
    1,
    3,
    3,
    1,
    1,
    1,
    1,
    1,
    1,
    1,
    3,
    1,
    1,
    1,
    1,
    1,
    1,
    3,
    1,
    1,
    1,
    1,
    1,
    1,
    3,
    1,
    1,
    1,
    1,
    1,
    1,
    3,
    3,
    1,
    1,
    1,
    1,
    1,
    1,
    1,
    3,
    1,
    1,
    1,
    1,
    1,
    1,
    1,
    1,
    1,
    1,
    1,
    1,
    1,
    3,
    1,
    1,
    1,
    1,
    1,
    1,
    3,
    3,
    1,
    1,
    1,
    1,
    1,
    1,
    1,
    3,
    1,
    1,
    1,
    1,
    1,
    1,
    2,
    1,
    1,
    1,
    1,
    1,
    1,
    3,
    1,
    1,
    1,
    1,
    1,
    1,
    3,
    3,
    1,
    1,
    1,
    1,
    1,
    1,
    1,
    3,
    1,
    1,
    1,
    1,
    1,
    1,
    1,
    1,
    1,
    1,
    1,
    1,
    1,
    3,
    1,
    1,
    1,
    1,
    1,
    1,
    3,
    3,
    1,
    1,
    1,
    1,
    1,
    1,
    1,
    3,
    1,
    1,
    1,
    1,
    1,
    1,
    3,
    1,
    1,
    1,
    1,
    1,
    1,
    3,
    1,
    1,
    1,
    1,
    1,
    1,
    3,
    3,
    3,
    3,
    3,
    3,
    3,
    3,
    3,
    3,
    3,
    3,
    3,
    3,
    3,
    3,
    3,
    3,
    3,
    3,
    3,
    3,
    3,
    3,
    3,
    3,
    3,
    3,
    3,
    3,
    3
   ],
   "width": 30,
   "height": 20,
   "x": 0,
   "y": 0,
   "opacity": 1,
   "visible": true
  },
  {
   "id": 2,
   "name": "Solid",
   "type": "tilelayer",
   "data": [
    100,
    100,
    100,
    100,
    100,
    100,
    100,
    100,
    100,
    100,
    100,
    100,
    100,
    100,
    100,
    100,
    100,
    100,
    100,
    100,
    100,
    100,
    100,
    100,
    100,
    100,
    100,
    100,
    100,
    100,
    100,
    0,
    0,
    0,
    0,
    0,
    0,
    0,
    0,
    0,
    0,
    0,
    0,
    0,
    0,
    100,
    0,
    0,
    0,
    0,
    0,
    0,
    100,
    0,
    0,
    0,
    0,
    0,
    0,
    100,
    100,
    0,
    0,
    0,
    0,
    0,
    0,
    0,
    0,
    0,
    0,
    0,
    0,
    0,
    0,
    100,
    0,
    0,
    0,
    0,
    0,
    0,
    100,
    0,
    0,
    0,
    0,
    0,
    0,
    100,
    100,
    0,
    0,
    0,
    0,
    0,
    0,
    0,
    0,
    0,
    0,
    0,
    0,
    0,
    0,
    100,
    0,
    0,
    0,
    0,
    0,
    0,
    100,
    0,
    0,
    0,
    0,
    0,
    0,
    100,
    100,
    0,
    0,
    0,
    0,
    0,
    0,
    0,
    100,
    0,
    0,
    0,
    0,
    0,
    0,
    100,
    0,
    0,
    0,
    0,
    0,
    0,
    100,
    0,
    0,
    0,
    0,
    0,
    0,
    100,
    100,
    0,
    0,
    0,
    0,
    0,
    0,
    0,
    100,
    0,
    0,
    0,
    0,
    0,
    0,
    100,
    0,
    0,
    0,
    0,
    0,
    0,
    100,
    0,
    0,
    0,
    0,
    0,
    0,
    100,
    100,
    0,
    0,
    0,
    0,
    0,
    0,
    0,
    100,
    0,
    0,
    0,
    0,
    0,
    0,
    100,
    0,
    0,
    0,
    0,
    0,
    0,
    100,
    0,
    0,
    0,
    0,
    0,
    0,
    100,
    100,
    0,
    0,
    0,
    0,
    0,
    0,
    0,
    100,
    0,
    0,
    0,
    0,
    0,
    0,
    100,
    0,
    0,
    0,
    0,
    0,
    0,
    100,
    0,
    0,
    0,
    0,
    0,
    0,
    100,
    100,
    0,
    0,
    0,
    0,
    0,
    0,
    0,
    100,
    0,
    0,
    0,
    0,
    0,
    0,
    100,
    0,
    0,
    0,
    0,
    0,
    0,
    100,
    0,
    0,
    0,
    0,
    0,
    0,
    100,
    100,
    0,
    0,
    0,
    0,
    0,
    0,
    0,
    100,
    0,
    0,
    0,
    0,
    0,
    0,
    100,
    0,
    0,
    0,
    0,
    0,
    0,
    0,
    0,
    0,
    0,
    0,
    0,
    0,
    100,
    100,
    0,
    0,
    0,
    0,
    0,
    0,
    0,
    100,
    0,
    0,
    0,
    0,
    0,
    0,
    100,
    0,
    0,
    0,
    0,
    0,
    0,
    0,
    0,
    0,
    0,
    0,
    0,
    0,
    100,
    100,
    0,
    0,
    0,
    0,
    0,
    0,
    0,
    100,
    0,
    0,
    0,
    0,
    0,
    0,
    100,
    0,
    0,
    0,
    0,
    0,
    0,
    0,
    0,
    0,
    0,
    0,
    0,
    0,
    100,
    100,
    0,
    0,
    0,
    0,
    0,
    0,
    0,
    100,
    0,
    0,
    0,
    0,
    0,
    0,
    100,
    0,
    0,
    0,
    0,
    0,
    0,
    100,
    0,
    0,
    0,
    0,
    0,
    0,
    100,
    100,
    0,
    0,
    0,
    0,
    0,
    0,
    0,
    100,
    0,
    0,
    0,
    0,
    0,
    0,
    100,
    0,
    0,
    0,
    0,
    0,
    0,
    100,
    0,
    0,
    0,
    0,
    0,
    0,
    100,
    100,
    0,
    0,
    0,
    0,
    0,
    0,
    0,
    100,
    0,
    0,
    0,
    0,
    0,
    0,
    100,
    0,
    0,
    0,
    0,
    0,
    0,
    100,
    0,
    0,
    0,
    0,
    0,
    0,
    100,
    100,
    0,
    0,
    0,
    0,
    0,
    0,
    0,
    100,
    0,
    0,
    0,
    0,
    0,
    0,
    0,
    0,
    0,
    0,
    0,
    0,
    0,
    100,
    0,
    0,
    0,
    0,
    0,
    0,
    100,
    100,
    0,
    0,
    0,
    0,
    0,
    0,
    0,
    100,
    0,
    0,
    0,
    0,
    0,
    0,
    0,
    0,
    0,
    0,
    0,
    0,
    0,
    100,
    0,
    0,
    0,
    0,
    0,
    0,
    100,
    100,
    0,
    0,
    0,
    0,
    0,
    0,
    0,
    100,
    0,
    0,
    0,
    0,
    0,
    0,
    0,
    0,
    0,
    0,
    0,
    0,
    0,
    100,
    0,
    0,
    0,
    0,
    0,
    0,
    100,
    100,
    0,
    0,
    0,
    0,
    0,
    0,
    0,
    100,
    0,
    0,
    0,
    0,
    0,
    0,
    100,
    0,
    0,
    0,
    0,
    0,
    0,
    100,
    0,
    0,
    0,
    0,
    0,
    0,
    100,
    100,
    100,
    100,
    100,
    100,
    100,
    100,
    100,
    100,
    100,
    100,
    100,
    100,
    100,
    100,
    100,
    100,
    100,
    100,
    100,
    100,
    100,
    100,
    100,
    100,
    100,
    100,
    100,
    100,
    100
   ],
   "width": 30,
   "height": 20,
   "x": 0,
   "y": 0,
   "opacity": 1,
   "visible": false
  }
 ]
}