{"type": "map", "orientation": "orthogonal", "renderorder": "right-down", "infinite": false, "width": 240, "height": 80, "tilewidth": 16, "tileheight": 16, "nextlayerid": 5, "nextobjectid": 614, "version": "1.10", "tiledversion": "1.11.0", "tilesets": [{"firstgid": 1, "source": "TilesetOverworld.tsj"}], "layers": [{"type": "tilelayer", "name": "Ground", "id": 1, "width": 240, "height": 80, "x": 0, "y": 0, "opacity": 1, "visible": true, "data": [56, 56, 56, 56, 56, 56, 56, 56, 56, 56, 56, 56, 56, 56, 56, 56, 56, 56, 56, 56, 56, 56, 56, 56, 56, 56, 56, 56, 56, 56, 56, 56, 56, 56, 56, 56, 56, 56, 56, 56, 56, 56, 56, 56, 56, 56, 56, 56, 56, 56, 56, 56, 56, 56, 56, 56, 56, 56, 56, 56, 56, 56, 56, 56, 56, 56, 56, 56, 56, 56, 56, 56, 56, 56, 56, 56, 56, 56, 56, 56, 56, 56, 56, 56, 56, 56, 56, 56, 56, 56, 56, 56, 56, 56, 56, 56, 56, 56, 56, 56, 56, 56, 56, 56, 56, 56, 56, 56, 56, 56, 56, 56, 56, 56, 56, 56, 56, 56, 56, 56, 56, 56, 56, 56, 56, 56, 56, 56, 56, 56, 56, 56, 56, 56, 56, 56, 56, 56, 56, 56, 56, 56, 56, 56, 56, 56, 56, 56, 56, 56, 56, 56, 56, 56, 56, 56, 56, 56, 56, 56, 56, 56, 56, 56, 56, 56, 56, 56, 56, 56, 56, 56, 56, 56, 56, 56, 56, 56, 56, 56, 56, 56, 56, 56, 56, 56, 56, 56, 56, 56, 56, 56, 56, 56, 56, 56, 56, 56, 56, 56, 56, 56, 56, 56, 56, 56, 56, 56, 56, 56, 92, 92, 92, 92, 92, 92, 92, 92, 92, 92, 92, 92, 92, 92, 92, 92, 56, 56, 56, 56, 56, 56, 56, 56, 56, 56, 56, 56, 56, 56, 56, 56, 56, 56, 56, 56, 56, 56, 56, 56, 56, 56, 56, 56, 56, 56, 56, 56, 56, 56, 56, 56, 56, 56, 56, 57, 55, 57, 55, 56, 56, 56, 56, 56, 56, 56, 56, 56, 56, 56, 56, 56, 56, 56, 56, 56, 57, 55, 56, 56, 56, 56, 56, 56, 56, 56, 56, 56, 56, 56, 56, 56, 56, 56, 56, 56, 56, 56, 56, 56, 56, 56, 1, 56, 56, 56, 56, 56, 56, 56, 56, 56, 56, 56, 56, 56, 56, 56, 56, 56, 56, 56, 56, 56, 56, 56, 56, 57, 55, 56, 56, 56, 56, 56, 56, 56, 56, 56, 56, 56, 56, 56, 56, 56, 56, 56, 56, 56, 56, 56, 56, 56, 56, 56, 56, 56, 56, 57, 55, 56, 56, 56, 56, 56, 56, 56, 56, 56, 56, 56, 56, 56, 56, 56, 56, 56, 56, 56, 56, 56, 56, 56, 1, 56, 56, 56, 56, 56, 56, 56, 56, 56, 56, 56, 56, 56, 56, 56, 56, 56, 56, 56, 56, 56, 56, 56, 56, 57, 55, 56, 56, 56, 56, 56, 56, 56, 56, 56, 1, 56, 57, 55, 56, 56, 56, 56, 56, 56, 56, 56, 56, 57, 55, 56, 56, 56, 56, 56, 56, 56, 92, 92, 92, 92, 92, 92, 92, 92, 92, 92, 92, 92, 92, 92, 92, 92, 56, 56, 56, 56, 56, 56, 56, 56, 56, 56, 56, 56, 56, 56, 56, 56, 56, 56, 56, 56, 56, 56, 56, 56, 56, 56, 56, 56, 56, 56, 56, 55, 56, 56, 56, 56, 56, 56, 3, 3, 3, 3, 3, 56, 56, 56, 56, 56, 56, 56, 56, 56, 56, 56, 57, 55, 56, 56, 56, 56, 3, 3, 55, 56, 56, 56, 56, 56, 56, 56, 56, 56, 56, 56, 56, 56, 56, 56, 56, 56, 56, 56, 56, 56, 57, 3, 3, 3, 3, 57, 55, 57, 3, 3, 3, 3, 3, 3, 3, 3, 3, 3, 3, 55, 56, 56, 56, 56, 57, 55, 57, 3, 3, 55, 56, 56, 56, 56, 56, 56, 56, 56, 56, 56, 56, 56, 56, 56, 56, 56, 56, 56, 56, 56, 56, 56, 56, 56, 57, 55, 57, 3, 3, 55, 56, 56, 56, 56, 56, 56, 57, 55, 57, 3, 3, 3, 3, 3, 3, 3, 3, 3, 55, 56, 56, 57, 3, 3, 3, 3, 3, 3, 3, 3, 3, 3, 3, 3, 55, 56, 56, 57, 3, 3, 3, 3, 3, 3, 3, 3, 3, 3, 3, 55, 56, 56, 56, 56, 56, 56, 56, 57, 3, 3, 3, 3, 56, 56, 57, 3, 3, 55, 56, 56, 57, 3, 3, 3, 3, 55, 56, 56, 56, 56, 92, 92, 92, 92, 92, 92, 92, 92, 92, 92, 92, 92, 92, 92, 92, 92, 56, 3, 3, 3, 3, 3, 3, 3, 3, 3, 3, 3, 3, 56, 56, 56, 56, 56, 56, 56, 56, 56, 56, 56, 56, 56, 56, 56, 56, 56, 57, 3, 56, 56, 56, 56, 56, 56, 3, 3, 3, 3, 3, 55, 56, 56, 56, 56, 56, 56, 56, 56, 56, 56, 3, 3, 55, 56, 56, 56, 3, 3, 3, 55, 56, 56, 56, 56, 56, 56, 56, 56, 56, 56, 56, 56, 56, 56, 56, 56, 56, 56, 56, 57, 3, 3, 3, 3, 3, 3, 3, 3, 3, 37, 39, 3, 3, 3, 3, 37, 39, 3, 3, 3, 56, 56, 56, 57, 3, 3, 3, 3, 3, 3, 56, 56, 56, 56, 56, 56, 56, 56, 56, 56, 56, 56, 57, 55, 56, 56, 56, 56, 56, 56, 56, 56, 56, 57, 3, 3, 3, 3, 3, 3, 56, 56, 56, 56, 56, 56, 3, 3, 3, 3, 3, 2, 3, 3, 3, 3, 3, 3, 3, 55, 56, 3, 3, 73, 74, 74, 74, 74, 74, 74, 74, 75, 3, 3, 3, 56, 57, 3, 3, 3, 3, 40, 41, 42, 3, 3, 3, 3, 3, 3, 56, 56, 56, 56, 56, 56, 56, 3, 3, 3, 3, 3, 55, 57, 3, 3, 3, 3, 55, 57, 3, 3, 3, 3, 3, 3, 55, 56, 56, 56, 56, 56, 56, 56, 56, 56, 56, 56, 56, 56, 92, 92, 92, 92, 92, 92, 56, 3, 3, 40, 42, 3, 40, 143, 42, 3, 40, 42, 3, 56, 56, 56, 56, 56, 56, 56, 56, 56, 56, 56, 56, 56, 56, 56, 56, 56, 3, 3, 55, 57, 55, 56, 56, 57, 3, 3, 3, 3, 3, 3, 56, 56, 56, 56, 56, 56, 56, 56, 56, 57, 3, 3, 3, 55, 56, 57, 3, 3, 3, 3, 55, 56, 56, 56, 56, 56, 56, 56, 56, 56, 56, 56, 56, 56, 57, 55, 56, 56, 57, 3, 3, 3, 3, 3, 3, 3, 3, 3, 37, 56, 56, 39, 3, 3, 37, 56, 56, 39, 3, 3, 57, 55, 57, 3, 3, 3, 3, 3, 3, 3, 55, 57, 55, 57, 55, 56, 56, 56, 56, 56, 56, 57, 3, 3, 55, 56, 56, 57, 55, 56, 57, 55, 57, 3, 3, 3, 3, 3, 3, 3, 55, 57, 55, 57, 55, 57, 3, 3, 3, 3, 2, 3, 3, 3, 3, 3, 3, 3, 3, 3, 56, 3, 3, 91, 92, 92, 92, 92, 92, 92, 92, 93, 3, 3, 3, 56, 3, 3, 21, 3, 21, 58, 1, 60, 21, 3, 21, 3, 3, 3, 56, 56, 56, 56, 56, 56, 57, 3, 3, 3, 3, 3, 3, 3, 3, 3, 3, 3, 3, 3, 3, 3, 3, 3, 3, 3, 3, 55, 56, 56, 56, 56, 56, 56, 56, 1, 56, 56, 56, 56, 92, 92, 92, 92, 92, 92, 56, 3, 3, 58, 60, 3, 58, 1, 60, 3, 58, 60, 3, 56, 56, 56, 56, 56, 56, 56, 56, 3, 3, 3, 3, 3, 3, 3, 3, 3, 3, 3, 3, 3, 3, 3, 3, 3, 3, 3, 3, 3, 3, 3, 3, 3, 3, 3, 3, 3, 3, 3, 3, 3, 3, 3, 3, 3, 3, 3, 3, 3, 3, 3, 3, 3, 3, 3, 3, 3, 56, 56, 56, 56, 56, 57, 3, 3, 3, 3, 55, 57, 3, 3, 3, 3, 3, 3, 3, 3, 3, 3, 56, 56, 56, 56, 3, 3, 56, 56, 56, 56, 3, 3, 3, 3, 3, 3, 3, 3, 3, 3, 3, 3, 3, 3, 3, 3, 3, 3, 3, 3, 3, 3, 3, 3, 3, 3, 3, 3, 3, 3, 3, 3, 3, 3, 3, 3, 3, 3, 3, 3, 3, 3, 3, 3, 3, 3, 3, 3, 3, 3, 3, 2, 3, 2, 3, 2, 3, 2, 3, 2, 3, 3, 56, 3, 3, 91, 92, 92, 92, 92, 92, 92, 92, 93, 3, 3, 3, 56, 3, 3, 3, 3, 3, 3, 3, 3, 3, 3, 3, 3, 3, 3, 56, 56, 56, 56, 56, 3, 3, 3, 3, 3, 3, 3, 3, 3, 3, 3, 3, 3, 3, 3, 3, 3, 3, 3, 3, 3, 3, 3, 3, 55, 56, 56, 56, 56, 56, 3, 56, 56, 56, 56, 92, 92, 92, 92, 92, 92, 56, 3, 3, 3, 3, 3, 3, 3, 3, 3, 3, 3, 3, 56, 56, 56, 56, 56, 56, 56, 56, 19, 38, 38, 38, 38, 38, 38, 38, 38, 3, 3, 3, 3, 3, 3, 3, 3, 3, 3, 3, 3, 3, 3, 38, 38, 38, 19, 38, 38, 38, 38, 38, 39, 3, 3, 3, 3, 3, 3, 3, 3, 3, 3, 37, 38, 38, 38, 38, 19, 56, 56, 56, 56, 56, 3, 3, 3, 3, 3, 3, 3, 3, 3, 3, 3, 3, 3, 3, 3, 3, 3, 55, 56, 56, 57, 3, 3, 55, 56, 56, 57, 3, 3, 39, 37, 39, 3, 3, 3, 3, 3, 3, 3, 37, 39, 37, 39, 37, 38, 38, 38, 38, 19, 38, 39, 3, 3, 37, 38, 38, 39, 37, 38, 39, 37, 39, 3, 3, 3, 3, 3, 3, 3, 37, 39, 37, 39, 37, 39, 3, 3, 3, 3, 2, 3, 3, 3, 3, 3, 3, 3, 3, 3, 56, 3, 3, 109, 110, 92, 92, 92, 110, 110, 110, 111, 3, 3, 3, 56, 3, 3, 21, 3, 21, 3, 3, 3, 21, 3, 21, 3, 3, 3, 56, 56, 56, 56, 56, 19, 39, 3, 3, 3, 3, 3, 3, 3, 3, 3, 3, 3, 3, 3, 3, 3, 3, 3, 3, 3, 3, 3, 3, 3, 56, 56, 56, 56, 56, 3, 56, 56, 56, 56, 92, 92, 92, 92, 92, 92, 56, 3, 3, 3, 3, 3, 3, 3, 3, 3, 3, 3, 3, 56, 56, 56, 56, 56, 56, 56, 56, 19, 56, 56, 56, 56, 56, 56, 56, 56, 39, 3, 3, 3, 3, 3, 3, 3, 3, 3, 3, 3, 3, 37, 56, 56, 56, 19, 56, 56, 56, 56, 56, 56, 3, 3, 3, 3, 3, 3, 3, 3, 3, 37, 56, 56, 56, 56, 56, 19, 56, 56, 56, 56, 56, 3, 3, 3, 3, 3, 3, 3, 3, 3, 3, 3, 3, 3, 3, 3, 3, 3, 3, 3, 3, 3, 3, 3, 3, 3, 3, 3, 3, 3, 56, 56, 56, 39, 3, 3, 3, 3, 3, 3, 56, 56, 56, 56, 56, 56, 56, 56, 56, 19, 56, 56, 39, 37, 56, 56, 56, 56, 56, 56, 56, 56, 56, 39, 3, 3, 3, 3, 3, 3, 56, 56, 56, 56, 56, 56, 3, 3, 3, 3, 3, 2, 3, 3, 3, 3, 3, 3, 3, 37, 56, 3, 3, 3, 3, 128, 92, 127, 3, 3, 3, 3, 3, 3, 3, 56, 39, 3, 3, 3, 3, 3, 3, 3, 3, 3, 3, 3, 3, 3, 56, 56, 56, 56, 56, 19, 56, 3, 3, 3, 3, 3, 37, 39, 3, 3, 3, 3, 37, 39, 3, 3, 3, 3, 3, 3, 3, 3, 3, 3, 56, 56, 56, 56, 56, 3, 56, 56, 56, 56, 92, 92, 92, 92, 92, 92, 56, 3, 3, 3, 3, 3, 3, 3, 3, 3, 3, 3, 3, 56, 56, 56, 56, 56, 56, 56, 56, 19, 56, 56, 56, 56, 56, 56, 56, 56, 56, 3, 3, 3, 3, 3, 3, 3, 3, 3, 3, 3, 3, 56, 56, 56, 56, 19, 56, 56, 56, 56, 56, 56, 39, 3, 3, 3, 3, 3, 3, 3, 37, 56, 56, 56, 56, 56, 56, 19, 56, 56, 56, 56, 56, 39, 3, 3, 3, 3, 37, 39, 3, 3, 3, 3, 3, 3, 3, 39, 37, 39, 3, 3, 3, 3, 3, 3, 3, 3, 3, 3, 3, 37, 56, 56, 56, 56, 39, 37, 39, 3, 3, 37, 56, 56, 56, 56, 56, 56, 56, 56, 56, 19, 56, 56, 56, 56, 56, 56, 56, 56, 56, 56, 56, 56, 56, 56, 39, 37, 39, 3, 3, 37, 56, 56, 56, 56, 56, 56, 39, 37, 39, 3, 3, 3, 3, 3, 3, 3, 3, 3, 37, 56, 56, 39, 3, 3, 3, 3, 92, 3, 3, 3, 3, 3, 3, 3, 37, 56, 56, 39, 3, 3, 3, 3, 3, 3, 3, 3, 3, 3, 3, 37, 56, 56, 56, 56, 56, 19, 56, 39, 3, 3, 3, 3, 56, 56, 39, 3, 3, 37, 56, 56, 39, 3, 3, 3, 3, 3, 3, 3, 3, 37, 56, 56, 56, 56, 56, 19, 56, 56, 56, 56, 92, 92, 92, 92, 92, 92, 56, 3, 3, 3, 3, 3, 3, 3, 3, 3, 3, 3, 3, 56, 56, 56, 56, 56, 56, 56, 56, 19, 56, 56, 56, 56, 56, 56, 56, 56, 56, 38, 38, 38, 38, 38, 19, 38, 38, 38, 38, 39, 37, 56, 56, 56, 56, 19, 56, 56, 56, 56, 56, 56, 56, 38, 38, 38, 38, 38, 38, 38, 56, 56, 56, 56, 56, 56, 56, 19, 56, 56, 56, 56, 56, 56, 38, 38, 38, 38, 56, 56, 38, 38, 38, 38, 38, 38, 38, 56, 56, 56, 38, 38, 38, 38, 38, 38, 38, 38, 38, 38, 38, 56, 56, 56, 56, 56, 56, 56, 56, 39, 37, 56, 56, 56, 56, 56, 56, 56, 56, 56, 56, 19, 56, 56, 56, 56, 56, 56, 56, 56, 56, 56, 56, 56, 56, 56, 56, 56, 56, 39, 37, 56, 56, 56, 56, 56, 56, 56, 56, 56, 56, 38, 38, 38, 38, 38, 38, 38, 38, 38, 56, 56, 56, 56, 38, 38, 38, 38, 92, 38, 38, 38, 38, 38, 38, 19, 56, 56, 56, 56, 38, 38, 38, 38, 19, 38, 38, 38, 38, 38, 38, 56, 56, 56, 56, 56, 56, 19, 56, 56, 38, 38, 39, 37, 56, 56, 56, 38, 38, 56, 56, 56, 56, 38, 38, 38, 38, 38, 38, 38, 19, 56, 56, 56, 56, 56, 56, 19, 56, 56, 56, 56, 92, 92, 92, 92, 92, 92, 56, 38, 38, 38, 38, 38, 38, 19, 38, 38, 38, 38, 38, 56, 56, 56, 56, 56, 56, 56, 56, 19, 56, 56, 56, 56, 56, 56, 56, 56, 56, 56, 56, 56, 56, 56, 19, 56, 56, 56, 56, 56, 56, 56, 56, 56, 56, 19, 56, 56, 56, 56, 56, 56, 56, 56, 56, 56, 56, 56, 56, 56, 56, 56, 56, 56, 56, 56, 56, 19, 56, 56, 56, 56, 56, 56, 56, 56, 56, 56, 56, 56, 56, 56, 56, 56, 56, 56, 56, 56, 56, 56, 56, 56, 56, 56, 56, 56, 56, 56, 56, 56, 56, 56, 56, 56, 56, 56, 56, 56, 56, 56, 56, 56, 56, 56, 56, 56, 56, 56, 56, 56, 56, 19, 56, 56, 56, 56, 56, 56, 56, 56, 56, 56, 56, 56, 56, 56, 56, 56, 56, 56, 56, 56, 56, 56, 56, 56, 56, 56, 56, 56, 56, 56, 56, 56, 56, 56, 56, 56, 56, 56, 56, 56, 56, 56, 56, 56, 56, 56, 131, 56, 56, 56, 56, 56, 56, 19, 56, 56, 56, 56, 56, 56, 56, 56, 19, 56, 56, 56, 56, 56, 56, 56, 56, 56, 56, 56, 56, 19, 56, 56, 56, 56, 56, 56, 56, 56, 56, 56, 56, 56, 56, 56, 56, 56, 56, 56, 56, 56, 56, 56, 19, 56, 56, 56, 56, 56, 56, 19, 56, 56, 56, 56, 56, 56, 56, 56, 56, 56, 56, 56, 56, 56, 56, 56, 56, 19, 56, 56, 56, 56, 56, 56, 56, 56, 56, 56, 56, 56, 56, 19, 56, 56, 56, 56, 56, 56, 56, 56, 56, 56, 56, 56, 56, 56, 19, 56, 56, 56, 56, 56, 56, 56, 56, 56, 56, 19, 56, 56, 56, 56, 56, 56, 56, 56, 56, 56, 56, 56, 56, 56, 56, 56, 56, 56, 56, 56, 56, 19, 56, 56, 56, 56, 56, 57, 55, 56, 56, 56, 56, 56, 56, 56, 56, 56, 56, 56, 56, 56, 56, 56, 56, 56, 56, 56, 56, 57, 55, 56, 56, 56, 56, 56, 56, 56, 57, 55, 56, 56, 56, 56, 56, 56, 56, 56, 56, 56, 56, 57, 55, 56, 56, 19, 56, 56, 56, 56, 56, 56, 56, 56, 56, 56, 56, 56, 56, 56, 56, 56, 56, 56, 56, 56, 56, 56, 56, 56, 56, 56, 56, 56, 56, 56, 56, 56, 56, 56, 56, 56, 56, 56, 56, 56, 56, 56, 56, 56, 56, 56, 131, 56, 56, 56, 56, 56, 56, 19, 56, 56, 56, 56, 56, 56, 56, 56, 19, 56, 56, 56, 56, 56, 56, 56, 56, 56, 56, 56, 56, 19, 56, 56, 56, 56, 56, 56, 56, 56, 56, 56, 56, 56, 56, 56, 56, 56, 56, 56, 56, 56, 56, 56, 19, 56, 56, 56, 56, 56, 56, 19, 56, 56, 56, 56, 56, 56, 56, 56, 56, 56, 56, 56, 56, 56, 56, 56, 56, 19, 56, 56, 56, 56, 56, 56, 56, 56, 57, 3, 3, 3, 3, 3, 3, 3, 3, 3, 3, 3, 3, 3, 3, 3, 3, 3, 3, 3, 3, 3, 3, 3, 3, 3, 3, 55, 56, 56, 56, 19, 56, 56, 56, 57, 3, 3, 3, 3, 3, 3, 3, 3, 3, 3, 55, 56, 56, 56, 56, 56, 56, 19, 56, 56, 56, 57, 3, 3, 3, 3, 3, 3, 3, 3, 3, 3, 3, 3, 3, 3, 55, 56, 56, 56, 56, 56, 56, 56, 56, 3, 3, 55, 57, 3, 3, 55, 55, 57, 3, 3, 55, 57, 3, 3, 56, 56, 56, 56, 56, 56, 57, 3, 3, 55, 56, 19, 56, 56, 56, 56, 56, 56, 56, 56, 56, 56, 56, 56, 56, 56, 56, 56, 56, 56, 56, 56, 56, 56, 56, 56, 56, 56, 56, 56, 56, 56, 56, 56, 56, 56, 56, 56, 56, 56, 56, 56, 56, 56, 56, 56, 56, 56, 131, 56, 56, 56, 56, 56, 56, 19, 56, 56, 56, 57, 3, 3, 3, 3, 3, 3, 3, 3, 3, 3, 55, 56, 56, 57, 3, 3, 3, 3, 3, 3, 3, 3, 3, 3, 3, 3, 3, 3, 3, 3, 3, 55, 56, 56, 56, 56, 56, 56, 56, 56, 19, 56, 56, 56, 56, 56, 56, 19, 56, 56, 56, 57, 3, 3, 3, 3, 3, 3, 3, 3, 3, 3, 3, 3, 3, 3, 3, 3, 3, 3, 3, 56, 56, 57, 3, 3, 2, 3, 3, 3, 3, 3, 3, 4, 6, 3, 3, 6, 3, 3, 4, 6, 3, 3, 3, 3, 3, 3, 3, 2, 3, 3, 56, 56, 56, 19, 56, 56, 57, 3, 3, 4, 6, 3, 4, 6, 3, 6, 3, 3, 3, 55, 56, 56, 56, 56, 56, 19, 56, 56, 57, 3, 3, 3, 3, 3, 3, 3, 3, 3, 3, 3, 3, 3, 3, 3, 3, 56, 56, 56, 56, 56, 56, 56, 56, 3, 3, 3, 3, 3, 3, 3, 3, 3, 3, 3, 3, 3, 3, 3, 56, 56, 56, 56, 56, 57, 3, 3, 3, 3, 56, 19, 56, 56, 56, 56, 56, 56, 56, 56, 56, 56, 56, 56, 56, 56, 56, 56, 56, 56, 56, 56, 56, 56, 56, 56, 56, 56, 56, 56, 56, 56, 56, 56, 56, 56, 56, 56, 56, 56, 56, 56, 56, 56, 56, 56, 56, 56, 131, 56, 56, 56, 56, 56, 56, 19, 56, 56, 56, 3, 3, 3, 2, 3, 3, 3, 3, 3, 3, 3, 3, 56, 56, 3, 3, 3, 3, 3, 3, 3, 3, 3, 3, 3, 3, 3, 3, 3, 3, 3, 3, 3, 56, 56, 56, 56, 56, 57, 55, 56, 19, 56, 56, 56, 56, 56, 56, 19, 56, 56, 56, 3, 3, 3, 3, 3, 3, 3, 3, 10, 12, 3, 10, 11, 12, 3, 3, 10, 12, 3, 3, 56, 56, 3, 3, 3, 3, 3, 2, 3, 3, 3, 3, 22, 24, 3, 3, 24, 3, 3, 22, 24, 3, 3, 3, 3, 3, 2, 3, 3, 3, 3, 56, 56, 56, 19, 56, 57, 3, 3, 3, 22, 24, 3, 22, 24, 3, 24, 3, 3, 3, 3, 55, 56, 56, 56, 56, 19, 56, 57, 3, 3, 3, 3, 3, 21, 3, 3, 21, 3, 3, 21, 3, 3, 3, 21, 3, 56, 56, 56, 56, 56, 56, 56, 57, 3, 3, 3, 3, 3, 3, 3, 3, 3, 3, 3, 3, 3, 3, 3, 55, 56, 57, 55, 57, 3, 3, 3, 3, 3, 55, 19, 56, 73, 110, 110, 110, 110, 110, 110, 110, 110, 110, 110, 110, 110, 110, 110, 110, 110, 110, 110, 110, 110, 110, 110, 110, 110, 110, 110, 110, 110, 110, 110, 110, 110, 110, 110, 110, 110, 110, 110, 110, 110, 110, 110, 110, 110, 65, 56, 56, 56, 56, 56, 56, 19, 56, 56, 57, 3, 2, 3, 3, 3, 3, 2, 3, 2, 3, 3, 3, 55, 57, 3, 3, 3, 3, 3, 3, 21, 3, 21, 3, 21, 3, 21, 3, 3, 3, 3, 3, 3, 56, 56, 56, 56, 56, 3, 3, 3, 3, 3, 3, 3, 3, 3, 3, 3, 3, 56, 56, 3, 3, 3, 3, 3, 3, 3, 3, 28, 30, 3, 28, 1, 30, 3, 3, 28, 30, 3, 3, 56, 56, 3, 3, 3, 2, 3, 3, 3, 2, 3, 3, 3, 3, 3, 3, 3, 3, 3, 3, 3, 3, 3, 3, 2, 3, 3, 3, 2, 3, 3, 56, 57, 3, 3, 3, 3, 3, 3, 3, 3, 3, 3, 3, 3, 3, 3, 3, 3, 3, 3, 3, 3, 3, 3, 3, 3, 3, 3, 3, 3, 3, 3, 3, 3, 3, 3, 3, 3, 3, 3, 3, 3, 3, 3, 3, 3, 55, 57, 3, 3, 55, 57, 3, 3, 3, 3, 3, 3, 3, 3, 3, 3, 3, 3, 3, 3, 3, 3, 3, 3, 3, 3, 3, 3, 3, 3, 3, 3, 3, 3, 3, 92, 3, 3, 3, 3, 3, 3, 3, 3, 3, 3, 3, 3, 3, 3, 3, 3, 3, 3, 3, 3, 3, 3, 3, 3, 3, 3, 3, 3, 3, 3, 3, 3, 3, 3, 3, 3, 3, 3, 3, 3, 3, 3, 3, 3, 3, 3, 3, 3, 3, 3, 3, 3, 3, 3, 3, 3, 3, 3, 2, 3, 3, 3, 3, 3, 3, 2, 3, 3, 3, 3, 3, 3, 3, 3, 3, 3, 3, 3, 3, 3, 3, 3, 3, 3, 3, 3, 2, 3, 56, 57, 3, 3, 3, 3, 3, 3, 3, 3, 3, 3, 3, 3, 3, 3, 3, 3, 3, 3, 3, 3, 3, 3, 3, 3, 3, 3, 3, 3, 3, 3, 3, 3, 3, 3, 3, 3, 3, 56, 56, 3, 3, 3, 3, 3, 2, 3, 3, 3, 3, 3, 4, 6, 3, 3, 3, 4, 6, 3, 3, 3, 3, 3, 3, 2, 3, 3, 3, 3, 56, 3, 3, 3, 3, 3, 3, 3, 3, 3, 4, 6, 3, 4, 6, 3, 3, 3, 3, 3, 3, 3, 3, 3, 3, 3, 3, 3, 3, 3, 3, 3, 3, 21, 3, 3, 21, 3, 3, 21, 3, 3, 3, 21, 3, 3, 3, 3, 3, 3, 3, 3, 3, 3, 3, 3, 3, 3, 3, 3, 3, 3, 3, 3, 3, 3, 3, 3, 3, 3, 3, 37, 39, 3, 3, 3, 3, 3, 3, 3, 3, 92, 3, 3, 3, 3, 3, 3, 3, 3, 3, 3, 3, 3, 3, 3, 3, 3, 3, 3, 3, 3, 3, 3, 3, 3, 3, 3, 3, 3, 3, 3, 3, 3, 3, 3, 3, 3, 3, 3, 3, 3, 3, 3, 3, 3, 3, 3, 3, 3, 3, 3, 3, 3, 3, 38, 39, 3, 2, 3, 3, 3, 3, 2, 3, 2, 3, 3, 3, 37, 39, 3, 3, 3, 3, 3, 3, 21, 3, 21, 3, 21, 3, 21, 3, 3, 3, 3, 3, 3, 56, 3, 3, 3, 73, 74, 74, 74, 74, 74, 74, 74, 74, 74, 74, 74, 74, 38, 38, 3, 3, 3, 3, 3, 3, 3, 3, 3, 3, 10, 12, 3, 3, 10, 12, 3, 10, 12, 3, 56, 56, 39, 3, 3, 2, 3, 3, 3, 3, 3, 3, 3, 22, 24, 3, 3, 3, 22, 24, 3, 3, 3, 3, 3, 3, 3, 3, 2, 3, 3, 56, 3, 3, 3, 3, 3, 3, 3, 3, 3, 22, 24, 3, 22, 24, 3, 3, 3, 3, 3, 3, 3, 3, 3, 3, 3, 3, 3, 3, 3, 3, 3, 3, 3, 3, 3, 3, 3, 3, 3, 3, 3, 3, 3, 3, 3, 3, 3, 3, 3, 3, 3, 3, 3, 3, 3, 3, 3, 3, 3, 3, 3, 3, 3, 3, 3, 3, 3, 3, 3, 3, 56, 56, 39, 3, 3, 3, 3, 3, 3, 3, 92, 3, 3, 3, 3, 3, 3, 3, 3, 3, 3, 3, 3, 3, 3, 3, 3, 38, 38, 38, 38, 38, 38, 38, 38, 38, 38, 38, 38, 38, 38, 38, 38, 38, 38, 38, 38, 38, 38, 38, 38, 38, 38, 38, 38, 38, 3, 3, 3, 3, 3, 3, 3, 3, 56, 56, 3, 3, 3, 2, 3, 3, 3, 3, 3, 3, 3, 3, 56, 56, 3, 3, 3, 3, 3, 3, 3, 3, 3, 3, 3, 3, 3, 3, 3, 3, 3, 3, 3, 56, 3, 3, 3, 91, 92, 92, 92, 92, 92, 92, 92, 92, 92, 92, 92, 92, 56, 56, 3, 3, 3, 3, 3, 3, 3, 3, 3, 3, 28, 30, 3, 3, 28, 30, 3, 28, 30, 3, 56, 56, 56, 39, 3, 3, 3, 3, 3, 3, 3, 3, 3, 3, 3, 3, 3, 3, 3, 3, 3, 3, 3, 3, 3, 3, 3, 3, 3, 3, 37, 56, 39, 3, 3, 3, 3, 3, 3, 3, 3, 3, 3, 3, 3, 3, 3, 3, 3, 3, 3, 3, 3, 3, 3, 3, 3, 3, 3, 3, 3, 3, 3, 3, 3, 3, 3, 3, 3, 3, 3, 3, 3, 3, 3, 3, 3, 37, 39, 3, 3, 37, 39, 3, 3, 3, 37, 39, 3, 3, 37, 37, 39, 3, 3, 37, 39, 3, 3, 3, 3, 3, 56, 56, 56, 39, 3, 3, 3, 3, 3, 3, 92, 3, 3, 3, 3, 3, 3, 3, 3, 3, 3, 3, 3, 3, 3, 3, 3, 56, 56, 56, 56, 56, 56, 56, 56, 56, 56, 56, 56, 56, 56, 56, 56, 56, 56, 56, 56, 56, 56, 56, 56, 56, 56, 56, 56, 56, 3, 3, 3, 3, 3, 3, 3, 3, 56, 56, 39, 3, 3, 3, 3, 3, 3, 3, 3, 3, 3, 37, 56, 56, 39, 3, 3, 3, 3, 3, 3, 3, 3, 3, 3, 3, 3, 3, 3, 3, 3, 3, 37, 56, 39, 3, 3, 91, 92, 92, 92, 92, 92, 92, 92, 92, 92, 92, 92, 92, 56, 56, 3, 3, 3, 3, 3, 3, 3, 3, 3, 3, 3, 3, 3, 3, 3, 3, 3, 3, 3, 3, 56, 56, 56, 56, 38, 38, 38, 38, 38, 38, 38, 38, 38, 38, 38, 38, 38, 38, 38, 38, 38, 38, 38, 38, 38, 38, 38, 38, 38, 38, 56, 56, 56, 38, 38, 38, 38, 38, 38, 38, 38, 38, 38, 38, 38, 38, 38, 38, 38, 38, 38, 38, 38, 38, 38, 38, 38, 38, 38, 38, 38, 38, 39, 37, 38, 38, 38, 38, 38, 38, 38, 19, 38, 38, 38, 38, 38, 56, 56, 19, 38, 56, 56, 38, 39, 37, 56, 56, 38, 19, 56, 56, 56, 39, 37, 56, 56, 38, 38, 38, 38, 38, 56, 56, 56, 56, 38, 38, 38, 38, 38, 38, 92, 3, 3, 3, 3, 38, 38, 38, 38, 38, 38, 38, 38, 38, 38, 38, 38, 56, 56, 56, 56, 56, 56, 56, 56, 56, 56, 56, 56, 56, 56, 56, 56, 56, 56, 56, 56, 56, 56, 56, 56, 56, 56, 56, 56, 56, 38, 38, 38, 38, 38, 38, 38, 38, 56, 56, 56, 38, 38, 38, 38, 19, 38, 38, 38, 38, 38, 56, 56, 56, 56, 38, 19, 38, 38, 38, 38, 38, 38, 38, 38, 38, 38, 38, 38, 38, 19, 38, 56, 56, 56, 3, 3, 91, 92, 92, 92, 92, 92, 92, 92, 92, 92, 92, 92, 92, 56, 56, 38, 38, 38, 38, 38, 38, 38, 38, 38, 38, 38, 38, 38, 38, 38, 38, 38, 38, 38, 38, 56, 68, 68, 68, 68, 68, 68, 68, 68, 68, 68, 68, 68, 68, 68, 68, 68, 68, 68, 68, 68, 68, 68, 68, 68, 68, 68, 68, 68, 68, 9, 56, 56, 56, 56, 56, 56, 56, 56, 56, 56, 56, 56, 56, 56, 56, 56, 56, 56, 56, 56, 56, 56, 56, 56, 56, 56, 56, 56, 56, 56, 56, 56, 56, 56, 56, 56, 56, 56, 56, 56, 19, 56, 56, 56, 56, 56, 56, 56, 19, 56, 56, 56, 56, 56, 56, 56, 56, 56, 19, 56, 56, 56, 56, 56, 56, 56, 56, 56, 56, 56, 56, 56, 56, 56, 56, 56, 56, 56, 56, 56, 56, 92, 3, 3, 3, 3, 56, 56, 56, 56, 20, 20, 20, 20, 20, 20, 20, 20, 20, 20, 20, 20, 20, 20, 20, 56, 56, 56, 56, 56, 56, 56, 56, 56, 56, 56, 56, 56, 56, 56, 56, 56, 56, 56, 56, 56, 56, 56, 56, 56, 56, 56, 56, 56, 56, 56, 56, 56, 56, 56, 56, 56, 19, 56, 56, 56, 56, 56, 56, 56, 56, 56, 56, 19, 56, 56, 56, 56, 56, 56, 56, 56, 56, 56, 56, 56, 56, 19, 56, 56, 56, 56, 3, 3, 91, 92, 92, 92, 92, 92, 92, 92, 92, 92, 92, 92, 92, 92, 92, 92, 92, 92, 92, 92, 92, 68, 68, 68, 68, 68, 68, 68, 68, 68, 68, 68, 68, 68, 68, 68, 68, 68, 68, 68, 68, 68, 68, 68, 68, 68, 68, 68, 68, 68, 68, 68, 68, 68, 68, 68, 68, 68, 68, 68, 68, 68, 68, 68, 68, 9, 56, 56, 56, 56, 56, 56, 56, 56, 56, 56, 56, 56, 56, 56, 56, 56, 56, 56, 56, 56, 56, 56, 56, 56, 56, 56, 56, 56, 56, 56, 56, 56, 56, 56, 56, 56, 57, 55, 56, 56, 19, 56, 57, 55, 56, 56, 56, 56, 19, 56, 56, 57, 55, 56, 56, 1, 56, 56, 19, 56, 56, 56, 56, 56, 56, 56, 56, 56, 56, 56, 56, 56, 56, 56, 56, 56, 56, 56, 56, 56, 56, 92, 3, 3, 3, 3, 56, 56, 56, 56, 20, 20, 20, 20, 20, 20, 20, 20, 20, 20, 20, 20, 20, 20, 20, 56, 56, 56, 56, 56, 56, 56, 56, 56, 56, 56, 56, 56, 56, 56, 56, 56, 56, 56, 56, 56, 56, 56, 56, 56, 56, 56, 56, 56, 56, 56, 56, 56, 56, 56, 56, 56, 19, 56, 56, 56, 56, 56, 56, 56, 56, 56, 56, 19, 56, 56, 56, 56, 56, 56, 56, 56, 56, 56, 56, 56, 56, 19, 56, 56, 56, 57, 3, 3, 91, 92, 92, 92, 92, 92, 92, 92, 92, 92, 92, 92, 92, 92, 92, 92, 92, 92, 92, 92, 92, 68, 68, 68, 68, 68, 68, 68, 68, 68, 68, 68, 68, 68, 68, 68, 68, 68, 69, 15, 15, 15, 15, 15, 15, 15, 15, 15, 15, 15, 15, 15, 15, 15, 15, 15, 15, 15, 15, 15, 15, 15, 15, 15, 15, 9, 56, 56, 15, 15, 15, 15, 15, 15, 15, 15, 15, 15, 15, 15, 56, 56, 57, 3, 3, 3, 3, 3, 55, 56, 56, 57, 3, 3, 3, 3, 3, 3, 3, 55, 57, 3, 3, 3, 3, 3, 3, 3, 3, 3, 3, 3, 3, 3, 3, 3, 3, 3, 3, 3, 3, 3, 3, 3, 3, 55, 56, 57, 3, 3, 3, 55, 56, 56, 57, 3, 56, 56, 56, 56, 56, 56, 56, 56, 56, 56, 56, 92, 3, 3, 3, 3, 56, 56, 56, 3, 3, 3, 3, 3, 3, 3, 3, 3, 3, 3, 3, 3, 3, 3, 20, 59, 59, 59, 59, 59, 59, 59, 59, 59, 59, 59, 59, 59, 59, 59, 59, 59, 59, 59, 59, 59, 59, 59, 59, 59, 59, 59, 59, 59, 59, 59, 59, 59, 59, 59, 59, 59, 59, 59, 59, 59, 59, 59, 59, 59, 3, 3, 3, 3, 3, 3, 3, 3, 3, 3, 3, 3, 56, 56, 56, 56, 56, 19, 56, 3, 3, 3, 3, 3, 91, 92, 92, 92, 92, 92, 92, 92, 92, 92, 92, 92, 92, 92, 92, 92, 92, 92, 92, 92, 92, 68, 15, 15, 15, 15, 15, 15, 15, 15, 15, 15, 15, 15, 68, 68, 68, 68, 15, 32, 15, 15, 32, 15, 15, 32, 15, 15, 32, 15, 15, 15, 15, 15, 32, 15, 15, 32, 15, 15, 32, 15, 15, 32, 15, 9, 56, 56, 15, 15, 15, 15, 52, 53, 53, 54, 15, 15, 15, 15, 56, 56, 3, 3, 3, 3, 3, 3, 3, 56, 56, 3, 3, 3, 3, 3, 3, 3, 3, 3, 3, 3, 3, 3, 3, 3, 3, 3, 3, 3, 3, 3, 3, 3, 3, 3, 3, 3, 3, 3, 3, 3, 3, 3, 3, 3, 56, 3, 3, 3, 3, 3, 55, 57, 3, 3, 55, 56, 57, 55, 56, 55, 56, 57, 55, 56, 57, 92, 3, 3, 3, 3, 55, 56, 57, 3, 3, 3, 3, 3, 3, 3, 3, 3, 3, 3, 3, 26, 3, 3, 3, 59, 59, 59, 59, 59, 59, 59, 59, 59, 59, 59, 59, 59, 59, 59, 59, 59, 59, 59, 59, 59, 59, 59, 59, 59, 59, 59, 59, 59, 59, 59, 59, 59, 59, 59, 59, 59, 59, 59, 59, 59, 59, 59, 59, 59, 3, 3, 3, 3, 3, 3, 37, 56, 56, 39, 3, 3, 56, 56, 56, 56, 56, 19, 56, 3, 3, 3, 3, 3, 91, 92, 92, 92, 92, 92, 92, 92, 92, 92, 92, 92, 92, 92, 92, 92, 92, 92, 92, 92, 92, 68, 15, 52, 54, 15, 52, 137, 54, 15, 52, 54, 15, 15, 68, 68, 68, 68, 15, 15, 15, 15, 15, 15, 15, 15, 15, 15, 15, 15, 15, 15, 15, 15, 15, 15, 15, 15, 15, 15, 15, 15, 15, 15, 15, 9, 56, 56, 15, 33, 33, 33, 70, 1, 1, 72, 33, 33, 33, 15, 56, 56, 3, 3, 3, 2, 3, 3, 3, 56, 56, 3, 3, 3, 3, 3, 3, 3, 21, 3, 3, 21, 3, 3, 21, 3, 3, 21, 3, 3, 21, 3, 3, 21, 3, 3, 21, 3, 3, 21, 3, 3, 21, 3, 3, 3, 56, 3, 3, 3, 3, 3, 3, 3, 3, 3, 3, 3, 3, 3, 3, 3, 3, 3, 3, 3, 3, 92, 3, 3, 3, 3, 3, 3, 3, 3, 3, 3, 3, 3, 3, 3, 3, 3, 3, 3, 3, 3, 3, 26, 3, 59, 59, 59, 59, 59, 59, 59, 59, 59, 59, 59, 59, 59, 59, 59, 59, 59, 59, 59, 59, 59, 59, 59, 59, 59, 59, 59, 59, 59, 59, 59, 59, 59, 59, 59, 59, 59, 59, 59, 59, 59, 59, 59, 59, 59, 3, 3, 3, 3, 3, 37, 56, 56, 56, 56, 39, 3, 55, 56, 56, 56, 56, 19, 57, 3, 3, 3, 3, 3, 109, 110, 110, 110, 110, 110, 110, 110, 110, 110, 110, 110, 110, 110, 92, 92, 92, 92, 92, 92, 92, 68, 15, 70, 72, 15, 70, 1, 72, 15, 70, 72, 15, 15, 68, 68, 68, 68, 15, 32, 15, 15, 32, 15, 15, 32, 15, 15, 32, 15, 15, 15, 15, 15, 32, 15, 15, 32, 15, 15, 32, 15, 15, 32, 15, 9, 56, 56, 15, 15, 15, 15, 15, 15, 15, 15, 15, 15, 15, 15, 56, 56, 3, 3, 2, 3, 2, 3, 3, 56, 56, 3, 3, 3, 3, 3, 3, 3, 3, 3, 3, 3, 3, 3, 3, 3, 3, 3, 3, 3, 3, 3, 3, 3, 3, 3, 3, 3, 3, 3, 3, 3, 3, 3, 3, 3, 56, 3, 3, 3, 3, 3, 3, 3, 3, 3, 3, 3, 3, 3, 3, 3, 3, 3, 3, 3, 3, 92, 129, 3, 3, 3, 3, 3, 3, 3, 3, 3, 3, 3, 3, 3, 3, 3, 3, 3, 3, 26, 3, 3, 3, 59, 59, 59, 59, 59, 59, 59, 59, 59, 59, 59, 59, 59, 59, 59, 59, 59, 59, 59, 59, 59, 59, 59, 59, 59, 59, 59, 59, 59, 59, 59, 59, 59, 59, 59, 59, 59, 59, 59, 59, 59, 59, 59, 59, 59, 3, 3, 3, 3, 3, 56, 56, 56, 56, 56, 56, 3, 3, 3, 3, 3, 3, 3, 3, 3, 3, 3, 3, 3, 3, 3, 3, 3, 3, 3, 3, 3, 3, 3, 3, 3, 3, 3, 128, 92, 92, 92, 92, 92, 92, 68, 15, 15, 15, 15, 15, 15, 15, 15, 15, 15, 15, 15, 68, 68, 68, 68, 15, 15, 15, 15, 15, 15, 15, 15, 15, 15, 15, 15, 15, 15, 15, 15, 15, 15, 15, 15, 15, 15, 15, 15, 15, 15, 15, 9, 56, 56, 15, 33, 33, 33, 15, 15, 15, 15, 33, 33, 33, 15, 56, 56, 3, 3, 3, 2, 3, 3, 3, 56, 56, 3, 3, 3, 3, 3, 3, 3, 21, 3, 3, 21, 3, 3, 21, 3, 3, 21, 3, 3, 21, 3, 3, 21, 3, 3, 21, 3, 3, 21, 3, 3, 21, 3, 3, 3, 56, 3, 3, 3, 3, 3, 3, 3, 3, 73, 74, 74, 74, 74, 74, 74, 74, 74, 74, 74, 74, 92, 92, 74, 74, 74, 74, 74, 74, 74, 74, 74, 80, 80, 80, 80, 81, 3, 3, 3, 3, 3, 3, 26, 3, 59, 59, 59, 59, 59, 59, 59, 59, 59, 59, 59, 59, 59, 59, 59, 59, 59, 59, 59, 59, 59, 59, 59, 59, 59, 59, 59, 59, 59, 59, 59, 59, 59, 59, 59, 59, 59, 59, 59, 59, 59, 59, 59, 59, 59, 3, 3, 3, 3, 3, 55, 56, 56, 56, 56, 57, 3, 3, 3, 3, 3, 3, 3, 3, 3, 3, 3, 3, 3, 3, 3, 3, 3, 3, 3, 3, 3, 3, 3, 3, 3, 3, 3, 3, 91, 92, 92, 92, 92, 92, 68, 15, 15, 15, 15, 15, 15, 15, 15, 15, 15, 15, 15, 68, 68, 68, 68, 15, 32, 15, 15, 32, 15, 15, 32, 15, 15, 32, 15, 15, 15, 15, 15, 32, 15, 15, 32, 15, 15, 32, 15, 15, 32, 15, 9, 56, 56, 15, 15, 15, 15, 15, 15, 15, 15, 15, 15, 15, 15, 56, 56, 3, 3, 3, 3, 3, 3, 3, 56, 56, 3, 3, 3, 3, 3, 3, 3, 3, 3, 3, 3, 3, 3, 3, 3, 3, 3, 3, 3, 3, 3, 3, 3, 3, 3, 3, 3, 3, 3, 3, 3, 3, 3, 3, 3, 56, 3, 3, 3, 3, 3, 37, 39, 3, 91, 92, 92, 92, 92, 92, 92, 92, 92, 92, 92, 92, 92, 92, 92, 92, 92, 92, 92, 92, 92, 92, 92, 98, 98, 98, 98, 99, 3, 3, 3, 3, 26, 3, 3, 3, 59, 59, 59, 59, 59, 59, 59, 59, 59, 59, 59, 59, 59, 59, 59, 59, 59, 59, 59, 59, 59, 59, 59, 59, 59, 59, 59, 59, 59, 59, 59, 59, 59, 59, 59, 59, 59, 59, 59, 59, 59, 59, 59, 59, 59, 3, 3, 3, 3, 3, 3, 3, 3, 3, 3, 3, 3, 3, 3, 3, 3, 3, 3, 3, 3, 3, 3, 3, 3, 3, 3, 3, 3, 3, 3, 3, 3, 3, 3, 3, 3, 3, 3, 3, 91, 92, 92, 92, 92, 92, 68, 15, 15, 15, 15, 15, 15, 15, 15, 15, 15, 15, 15, 68, 68, 68, 68, 15, 15, 15, 15, 15, 15, 15, 15, 15, 15, 15, 15, 15, 15, 15, 15, 15, 15, 15, 15, 15, 15, 15, 15, 15, 15, 15, 9, 56, 56, 15, 15, 15, 15, 15, 15, 15, 15, 15, 15, 15, 15, 56, 56, 39, 3, 3, 3, 3, 3, 37, 56, 56, 39, 3, 3, 3, 3, 3, 3, 3, 37, 39, 3, 3, 3, 3, 3, 3, 3, 3, 3, 3, 3, 3, 3, 3, 3, 3, 3, 3, 3, 3, 3, 3, 3, 3, 37, 56, 39, 3, 3, 3, 37, 56, 56, 39, 91, 92, 92, 92, 92, 92, 92, 92, 92, 92, 92, 92, 92, 92, 92, 92, 92, 92, 92, 92, 92, 92, 92, 98, 98, 98, 98, 99, 3, 3, 3, 3, 3, 3, 3, 20, 59, 59, 59, 59, 59, 59, 59, 59, 59, 59, 59, 59, 59, 59, 59, 59, 59, 59, 59, 59, 59, 59, 59, 59, 59, 59, 59, 59, 59, 59, 59, 59, 59, 59, 59, 59, 59, 59, 59, 59, 59, 59, 59, 59, 59, 3, 3, 3, 3, 3, 3, 3, 3, 3, 3, 3, 3, 3, 3, 3, 3, 3, 3, 3, 3, 3, 3, 3, 3, 3, 3, 3, 3, 3, 3, 3, 3, 3, 3, 3, 3, 3, 3, 3, 91, 92, 92, 92, 92, 92, 68, 15, 15, 15, 15, 15, 15, 15, 15, 15, 15, 15, 15, 68, 68, 68, 68, 15, 15, 15, 15, 15, 15, 15, 15, 15, 15, 15, 15, 50, 50, 50, 15, 15, 15, 15, 15, 15, 15, 15, 15, 15, 15, 15, 9, 56, 56, 38, 38, 38, 38, 38, 19, 38, 38, 38, 38, 38, 38, 56, 56, 56, 38, 38, 38, 38, 19, 56, 56, 56, 56, 38, 38, 19, 38, 38, 38, 38, 56, 56, 38, 39, 37, 38, 38, 38, 38, 39, 37, 38, 38, 38, 38, 38, 19, 38, 39, 37, 38, 38, 38, 38, 38, 38, 56, 56, 56, 3, 3, 38, 56, 56, 56, 56, 91, 92, 92, 92, 92, 92, 92, 92, 92, 92, 92, 92, 92, 92, 92, 92, 92, 92, 92, 92, 92, 92, 92, 92, 92, 92, 92, 93, 3, 3, 20, 20, 20, 20, 20, 20, 38, 38, 38, 38, 38, 38, 38, 38, 38, 38, 38, 38, 38, 38, 38, 38, 38, 59, 59, 59, 59, 59, 59, 59, 59, 59, 59, 59, 59, 59, 38, 59, 59, 59, 59, 59, 59, 59, 59, 59, 59, 59, 59, 59, 38, 38, 38, 38, 38, 38, 38, 38, 38, 38, 38, 38, 38, 38, 38, 38, 38, 38, 38, 38, 38, 38, 39, 3, 3, 38, 38, 38, 38, 38, 38, 38, 38, 3, 3, 3, 3, 3, 3, 3, 91, 92, 92, 92, 92, 92, 68, 50, 50, 50, 50, 50, 31, 50, 50, 50, 50, 50, 50, 68, 68, 68, 68, 15, 15, 15, 15, 15, 15, 15, 15, 15, 15, 15, 15, 68, 68, 68, 15, 15, 15, 15, 15, 15, 15, 15, 15, 15, 15, 15, 9, 56, 56, 56, 56, 56, 56, 56, 19, 56, 56, 56, 56, 56, 56, 56, 56, 56, 56, 56, 56, 56, 19, 56, 56, 56, 56, 56, 56, 19, 56, 56, 56, 56, 56, 56, 56, 56, 56, 56, 56, 56, 56, 56, 56, 56, 56, 56, 56, 56, 19, 56, 56, 56, 56, 56, 56, 56, 56, 56, 56, 56, 56, 3, 3, 56, 56, 56, 56, 56, 92, 92, 92, 92, 92, 92, 92, 56, 56, 56, 56, 56, 56, 56, 56, 56, 56, 56, 56, 56, 56, 92, 92, 92, 92, 92, 92, 93, 3, 3, 20, 20, 20, 20, 20, 20, 56, 56, 56, 56, 56, 56, 56, 56, 56, 56, 56, 56, 56, 56, 56, 56, 56, 59, 59, 59, 59, 59, 59, 59, 59, 59, 59, 59, 59, 59, 56, 59, 59, 59, 59, 59, 59, 59, 59, 59, 59, 59, 59, 59, 56, 62, 62, 62, 62, 62, 62, 62, 62, 62, 62, 62, 62, 62, 62, 62, 26, 26, 26, 26, 26, 26, 26, 3, 3, 26, 26, 26, 26, 26, 26, 56, 56, 3, 3, 3, 3, 3, 3, 3, 91, 92, 92, 92, 92, 92, 92, 92, 92, 92, 92, 92, 92, 92, 92, 92, 92, 92, 92, 92, 92, 68, 68, 15, 15, 15, 15, 15, 15, 15, 15, 15, 15, 15, 15, 67, 68, 69, 15, 15, 15, 15, 15, 15, 15, 15, 15, 15, 15, 15, 9, 56, 56, 56, 56, 56, 56, 56, 19, 56, 57, 55, 56, 56, 56, 56, 56, 56, 56, 56, 56, 56, 19, 56, 56, 56, 56, 56, 56, 19, 56, 56, 56, 56, 56, 56, 56, 56, 56, 56, 56, 56, 56, 56, 56, 56, 56, 56, 56, 56, 19, 56, 56, 56, 56, 56, 56, 56, 56, 56, 56, 56, 56, 3, 3, 56, 56, 56, 56, 56, 92, 92, 92, 92, 92, 92, 92, 56, 56, 56, 56, 56, 56, 56, 56, 56, 56, 56, 56, 56, 56, 92, 92, 92, 92, 92, 92, 93, 3, 3, 20, 20, 20, 20, 20, 20, 56, 56, 56, 56, 56, 56, 56, 56, 56, 56, 56, 56, 56, 56, 56, 56, 56, 59, 59, 59, 59, 59, 59, 59, 59, 59, 59, 59, 59, 59, 56, 59, 59, 59, 59, 59, 59, 59, 59, 59, 59, 59, 59, 59, 56, 62, 62, 62, 62, 62, 62, 62, 62, 62, 62, 62, 62, 63, 61, 62, 26, 26, 26, 26, 26, 26, 26, 3, 3, 26, 26, 26, 26, 26, 26, 56, 56, 3, 3, 3, 3, 3, 3, 3, 91, 92, 92, 92, 92, 92, 92, 92, 92, 92, 92, 92, 92, 92, 92, 92, 92, 92, 92, 92, 92, 68, 68, 15, 15, 15, 15, 15, 15, 15, 15, 15, 15, 15, 15, 15, 15, 15, 15, 15, 15, 15, 15, 15, 15, 15, 15, 15, 15, 15, 9, 56, 56, 57, 55, 56, 56, 56, 19, 56, 3, 3, 55, 56, 56, 56, 56, 56, 15, 15, 15, 15, 15, 15, 15, 15, 15, 15, 15, 15, 56, 56, 57, 3, 3, 3, 3, 3, 3, 3, 3, 3, 3, 3, 3, 56, 56, 56, 56, 56, 19, 56, 56, 56, 56, 56, 56, 56, 56, 56, 56, 56, 56, 3, 3, 56, 56, 56, 56, 56, 92, 92, 92, 92, 92, 92, 92, 56, 3, 3, 3, 3, 3, 3, 3, 3, 3, 3, 3, 3, 56, 92, 92, 92, 92, 92, 92, 93, 3, 3, 3, 20, 3, 3, 3, 3, 56, 57, 3, 3, 3, 3, 3, 3, 3, 3, 3, 3, 3, 3, 55, 56, 56, 59, 59, 59, 59, 59, 59, 59, 59, 59, 59, 59, 59, 59, 59, 59, 59, 59, 59, 59, 59, 59, 59, 59, 59, 59, 59, 59, 56, 62, 62, 63, 3, 3, 3, 3, 3, 3, 3, 3, 3, 3, 3, 61, 26, 3, 3, 3, 3, 3, 3, 3, 3, 3, 3, 3, 3, 3, 3, 56, 56, 3, 3, 3, 3, 3, 3, 3, 91, 92, 92, 92, 92, 92, 92, 92, 92, 92, 92, 92, 92, 92, 92, 92, 92, 92, 92, 92, 92, 68, 68, 15, 32, 15, 15, 32, 15, 15, 32, 15, 15, 32, 15, 15, 15, 15, 15, 32, 15, 15, 32, 15, 15, 32, 15, 15, 32, 15, 9, 55, 57, 3, 3, 55, 56, 56, 19, 56, 3, 3, 3, 55, 56, 56, 56, 56, 15, 15, 15, 15, 15, 15, 15, 15, 15, 15, 15, 15, 56, 56, 3, 3, 3, 3, 3, 3, 3, 3, 3, 3, 3, 3, 3, 55, 56, 56, 56, 56, 19, 56, 57, 55, 56, 56, 56, 57, 55, 56, 56, 55, 57, 3, 3, 55, 56, 57, 55, 57, 92, 92, 92, 92, 92, 92, 92, 56, 3, 4, 6, 3, 4, 5, 6, 3, 4, 6, 3, 3, 56, 92, 92, 92, 92, 92, 92, 93, 3, 3, 3, 3, 3, 3, 3, 3, 56, 3, 3, 3, 3, 79, 80, 80, 80, 80, 81, 3, 3, 3, 3, 56, 56, 59, 59, 59, 59, 59, 59, 59, 59, 59, 59, 59, 59, 59, 59, 59, 59, 59, 59, 59, 59, 59, 59, 59, 59, 59, 59, 59, 56, 62, 63, 3, 3, 3, 3, 46, 47, 48, 3, 3, 3, 3, 3, 3, 26, 3, 26, 3, 26, 3, 3, 3, 3, 3, 3, 26, 3, 3, 3, 56, 56, 3, 3, 3, 3, 3, 3, 3, 91, 92, 92, 92, 92, 92, 92, 92, 92, 92, 92, 92, 92, 92, 92, 92, 92, 92, 92, 92, 92, 68, 68, 15, 15, 15, 15, 15, 15, 15, 15, 15, 15, 15, 15, 15, 15, 15, 15, 15, 15, 15, 15, 15, 15, 15, 15, 15, 15, 15, 15, 3, 3, 3, 3, 3, 55, 56, 19, 57, 3, 3, 3, 3, 55, 56, 56, 57, 15, 33, 15, 33, 15, 33, 15, 33, 15, 33, 15, 15, 56, 56, 3, 21, 3, 21, 3, 21, 3, 3, 3, 3, 3, 3, 3, 3, 56, 56, 56, 56, 3, 3, 3, 3, 3, 3, 3, 3, 3, 3, 3, 3, 3, 3, 3, 3, 3, 3, 3, 3, 92, 92, 92, 92, 92, 92, 92, 56, 3, 22, 24, 3, 22, 1, 24, 3, 22, 24, 3, 3, 56, 92, 92, 92, 92, 92, 92, 93, 3, 3, 3, 3, 3, 20, 3, 3, 56, 3, 3, 26, 3, 97, 98, 98, 98, 98, 99, 3, 26, 3, 3, 56, 56, 59, 59, 59, 59, 59, 59, 59, 59, 59, 59, 59, 59, 59, 59, 59, 59, 59, 59, 59, 59, 59, 59, 59, 59, 59, 59, 59, 56, 62, 3, 3, 27, 3, 27, 64, 1, 66, 27, 3, 27, 3, 3, 3, 26, 3, 3, 3, 3, 3, 27, 3, 3, 27, 3, 3, 3, 26, 3, 56, 56, 3, 3, 3, 3, 3, 3, 3, 109, 110, 110, 110, 110, 110, 110, 110, 110, 110, 110, 110, 132, 110, 92, 92, 92, 92, 92, 92, 92, 68, 68, 15, 32, 15, 15, 32, 15, 15, 32, 15, 15, 32, 15, 15, 15, 15, 15, 32, 15, 15, 32, 15, 15, 32, 15, 15, 32, 15, 15, 3, 3, 3, 3, 3, 3, 3, 3, 3, 3, 3, 3, 3, 3, 3, 3, 3, 15, 15, 15, 15, 15, 15, 15, 15, 15, 15, 15, 15, 56, 56, 3, 3, 3, 3, 3, 3, 3, 3, 3, 3, 3, 3, 3, 3, 56, 56, 56, 56, 3, 3, 3, 3, 3, 3, 3, 3, 3, 3, 3, 3, 3, 3, 3, 3, 3, 3, 3, 3, 92, 92, 92, 92, 92, 92, 92, 56, 3, 3, 3, 3, 3, 3, 3, 3, 3, 3, 3, 3, 3, 132, 132, 132, 132, 132, 132, 132, 3, 3, 3, 3, 3, 3, 3, 3, 56, 3, 3, 3, 3, 97, 98, 98, 98, 98, 99, 3, 3, 3, 3, 56, 56, 59, 59, 59, 59, 59, 59, 59, 59, 59, 59, 59, 59, 59, 59, 59, 59, 59, 59, 59, 59, 59, 59, 59, 59, 59, 59, 59, 56, 62, 3, 3, 3, 3, 3, 3, 3, 3, 3, 3, 3, 3, 3, 3, 26, 3, 26, 3, 26, 3, 3, 3, 3, 3, 3, 26, 3, 3, 3, 56, 56, 3, 3, 3, 3, 3, 3, 3, 3, 3, 3, 3, 3, 3, 3, 3, 3, 3, 3, 3, 3, 3, 128, 92, 92, 92, 92, 92, 92, 68, 68, 15, 15, 15, 15, 15, 15, 15, 15, 15, 15, 15, 15, 15, 15, 15, 15, 15, 15, 15, 15, 15, 15, 15, 15, 15, 15, 15, 15, 3, 3, 3, 3, 3, 3, 3, 3, 3, 3, 3, 3, 3, 37, 38, 38, 39, 15, 33, 15, 33, 15, 33, 15, 33, 15, 33, 15, 15, 56, 56, 3, 21, 3, 21, 3, 21, 3, 3, 73, 74, 74, 74, 74, 74, 92, 92, 92, 92, 74, 74, 74, 74, 74, 74, 74, 74, 74, 74, 74, 74, 74, 74, 74, 74, 74, 74, 74, 74, 92, 92, 92, 92, 92, 92, 92, 56, 3, 3, 4, 6, 3, 3, 3, 4, 6, 3, 3, 3, 38, 92, 92, 92, 92, 92, 92, 93, 3, 3, 3, 3, 3, 20, 3, 3, 56, 3, 3, 26, 3, 115, 116, 116, 116, 116, 117, 3, 26, 3, 3, 56, 56, 59, 59, 59, 59, 59, 59, 59, 59, 59, 59, 59, 59, 59, 59, 59, 59, 59, 59, 59, 59, 59, 59, 59, 59, 59, 59, 59, 56, 62, 3, 3, 27, 3, 27, 3, 3, 3, 27, 3, 27, 3, 3, 3, 26, 3, 3, 3, 3, 3, 3, 3, 3, 3, 3, 3, 3, 26, 3, 56, 56, 3, 3, 3, 3, 3, 3, 3, 3, 3, 3, 3, 3, 3, 3, 3, 3, 3, 3, 3, 3, 3, 3, 91, 92, 92, 92, 92, 92, 68, 68, 15, 32, 15, 15, 32, 15, 15, 32, 15, 15, 32, 15, 15, 15, 15, 15, 32, 15, 15, 32, 15, 15, 32, 15, 15, 32, 15, 9, 37, 39, 3, 3, 3, 3, 3, 3, 3, 3, 3, 3, 3, 56, 56, 56, 56, 15, 15, 15, 15, 15, 15, 15, 15, 15, 15, 15, 15, 56, 56, 3, 3, 3, 3, 3, 3, 3, 3, 91, 92, 92, 92, 92, 92, 92, 92, 92, 92, 92, 92, 92, 92, 92, 92, 92, 92, 92, 92, 92, 92, 92, 92, 92, 92, 92, 92, 92, 92, 92, 92, 92, 92, 92, 92, 92, 56, 3, 3, 22, 24, 3, 3, 3, 22, 24, 3, 3, 3, 56, 92, 92, 92, 92, 92, 92, 93, 3, 3, 3, 3, 3, 3, 3, 3, 56, 3, 3, 3, 3, 3, 3, 3, 3, 3, 3, 3, 3, 3, 3, 56, 56, 59, 59, 59, 59, 59, 59, 59, 59, 59, 59, 59, 59, 59, 59, 59, 59, 59, 59, 59, 59, 59, 59, 59, 59, 59, 59, 59, 56, 62, 45, 3, 3, 3, 3, 3, 3, 3, 3, 3, 3, 3, 3, 3, 26, 3, 26, 3, 26, 3, 3, 3, 3, 3, 3, 26, 3, 3, 3, 56, 56, 3, 3, 3, 3, 3, 3, 3, 3, 3, 3, 3, 3, 3, 3, 3, 3, 3, 3, 3, 3, 3, 3, 91, 92, 92, 92, 92, 92, 68, 68, 15, 15, 15, 15, 15, 15, 15, 15, 15, 15, 15, 15, 15, 15, 15, 15, 15, 15, 15, 15, 15, 15, 15, 15, 15, 15, 15, 9, 56, 56, 39, 3, 3, 3, 3, 3, 3, 3, 3, 3, 3, 56, 56, 56, 56, 15, 15, 15, 15, 15, 15, 15, 15, 15, 15, 15, 15, 56, 56, 39, 3, 3, 3, 3, 3, 3, 3, 91, 92, 92, 92, 92, 92, 92, 92, 92, 92, 92, 92, 92, 92, 92, 92, 92, 92, 92, 92, 92, 92, 92, 92, 92, 92, 92, 92, 92, 92, 92, 92, 92, 92, 92, 92, 92, 56, 3, 3, 3, 3, 3, 3, 3, 3, 3, 3, 3, 3, 56, 92, 92, 92, 92, 92, 92, 93, 3, 3, 3, 20, 3, 3, 3, 3, 56, 39, 3, 3, 3, 3, 3, 3, 3, 3, 3, 3, 3, 3, 37, 56, 56, 59, 59, 59, 59, 59, 59, 59, 59, 59, 59, 59, 59, 59, 59, 59, 59, 59, 59, 59, 59, 59, 59, 59, 59, 59, 59, 59, 56, 62, 62, 45, 3, 3, 3, 3, 3, 3, 3, 3, 3, 3, 3, 43, 26, 3, 3, 3, 3, 3, 3, 3, 3, 3, 3, 3, 3, 3, 3, 56, 56, 39, 3, 3, 3, 3, 3, 3, 3, 3, 3, 3, 3, 3, 3, 3, 3, 3, 3, 3, 3, 3, 3, 91, 92, 92, 92, 92, 92, 68, 68, 15, 15, 15, 15, 15, 15, 15, 15, 15, 15, 15, 15, 49, 50, 51, 15, 15, 15, 15, 15, 15, 15, 15, 15, 15, 15, 15, 9, 56, 56, 56, 38, 38, 38, 38, 38, 38, 38, 38, 38, 38, 56, 56, 56, 56, 38, 38, 38, 38, 38, 38, 38, 38, 38, 38, 38, 38, 56, 56, 56, 38, 38, 38, 38, 38, 38, 3, 91, 92, 92, 92, 92, 92, 92, 92, 92, 92, 92, 92, 92, 92, 92, 92, 92, 92, 92, 92, 92, 92, 92, 92, 92, 92, 92, 92, 92, 92, 92, 92, 92, 92, 92, 92, 92, 56, 38, 38, 38, 38, 38, 38, 38, 38, 38, 38, 38, 38, 56, 92, 92, 92, 92, 92, 92, 93, 3, 3, 20, 20, 20, 20, 20, 20, 56, 56, 38, 38, 38, 38, 38, 3, 3, 38, 38, 38, 38, 38, 56, 56, 56, 38, 38, 38, 38, 38, 59, 59, 38, 38, 38, 38, 38, 38, 38, 38, 38, 38, 38, 38, 38, 38, 38, 38, 38, 38, 59, 59, 56, 62, 62, 62, 44, 44, 44, 44, 25, 44, 44, 44, 44, 44, 44, 62, 26, 3, 26, 3, 26, 3, 26, 3, 3, 26, 3, 26, 3, 26, 3, 56, 56, 56, 38, 38, 38, 38, 38, 38, 38, 38, 38, 38, 38, 38, 38, 38, 38, 38, 38, 3, 3, 3, 3, 91, 92, 92, 92, 92, 92, 68, 68, 15, 15, 15, 15, 15, 15, 15, 15, 15, 15, 15, 15, 68, 68, 68, 15, 15, 15, 15, 15, 15, 15, 15, 15, 15, 15, 15, 9, 56, 56, 56, 56, 56, 56, 56, 56, 56, 56, 56, 56, 56, 56, 56, 56, 56, 56, 56, 56, 56, 56, 56, 56, 56, 56, 56, 56, 56, 56, 56, 56, 56, 56, 56, 56, 56, 56, 3, 91, 92, 92, 92, 92, 92, 92, 56, 56, 56, 56, 56, 56, 56, 56, 56, 56, 56, 56, 56, 56, 98, 98, 98, 98, 98, 98, 98, 98, 98, 98, 98, 98, 98, 98, 98, 98, 98, 98, 98, 98, 98, 98, 98, 98, 98, 98, 98, 98, 98, 98, 98, 98, 98, 98, 98, 98, 99, 3, 3, 26, 26, 26, 26, 26, 26, 26, 26, 26, 26, 26, 26, 26, 3, 3, 26, 26, 26, 26, 26, 26, 62, 62, 62, 62, 62, 62, 62, 3, 3, 62, 62, 62, 62, 62, 62, 26, 26, 26, 26, 26, 26, 26, 26, 26, 26, 26, 26, 3, 3, 26, 62, 62, 62, 62, 62, 62, 62, 25, 62, 62, 62, 62, 62, 62, 62, 26, 3, 26, 3, 26, 3, 26, 3, 3, 26, 3, 26, 3, 26, 3, 26, 26, 26, 26, 26, 26, 26, 26, 26, 26, 26, 26, 26, 26, 26, 56, 56, 56, 56, 56, 3, 3, 3, 3, 91, 92, 92, 92, 92, 92, 68, 68, 15, 15, 15, 15, 15, 15, 15, 15, 15, 15, 15, 15, 68, 68, 68, 15, 15, 15, 15, 15, 15, 15, 15, 15, 15, 15, 15, 9, 56, 56, 56, 56, 56, 56, 56, 56, 56, 56, 56, 56, 56, 56, 56, 56, 56, 56, 56, 56, 56, 56, 56, 56, 56, 56, 56, 56, 56, 56, 56, 56, 56, 56, 1, 56, 56, 56, 3, 91, 92, 92, 92, 92, 92, 92, 56, 56, 56, 56, 56, 56, 56, 56, 56, 56, 56, 56, 56, 56, 98, 98, 98, 98, 98, 98, 98, 98, 98, 98, 98, 98, 98, 98, 98, 98, 98, 98, 98, 98, 98, 98, 98, 98, 98, 98, 98, 98, 98, 98, 98, 98, 98, 98, 98, 98, 99, 3, 3, 26, 26, 26, 26, 26, 26, 26, 26, 26, 26, 26, 26, 26, 3, 3, 26, 26, 26, 26, 26, 26, 62, 62, 62, 63, 61, 62, 62, 3, 3, 62, 62, 1, 62, 62, 62, 26, 26, 26, 26, 26, 26, 26, 26, 26, 26, 26, 26, 3, 3, 26, 62, 62, 63, 61, 63, 61, 62, 25, 62, 62, 62, 63, 61, 62, 62, 26, 3, 26, 3, 26, 3, 26, 3, 3, 26, 3, 26, 3, 26, 3, 26, 26, 26, 26, 26, 26, 26, 26, 26, 26, 26, 26, 26, 26, 26, 56, 56, 56, 56, 57, 3, 3, 3, 3, 91, 92, 92, 92, 92, 92, 68, 68, 15, 15, 15, 15, 15, 15, 15, 15, 15, 15, 15, 15, 15, 15, 15, 15, 15, 15, 15, 15, 15, 15, 15, 15, 15, 15, 15, 9, 56, 57, 3, 3, 3, 3, 3, 3, 3, 3, 3, 3, 3, 3, 55, 56, 57, 3, 3, 3, 3, 3, 3, 3, 3, 3, 3, 3, 3, 55, 56, 57, 3, 3, 3, 3, 3, 3, 3, 97, 98, 98, 98, 98, 92, 92, 56, 3, 3, 3, 3, 3, 3, 3, 3, 3, 3, 3, 3, 56, 98, 98, 98, 98, 98, 98, 98, 98, 98, 98, 98, 98, 98, 98, 98, 98, 98, 98, 98, 98, 98, 98, 98, 98, 98, 98, 98, 98, 98, 98, 98, 98, 98, 98, 98, 98, 99, 3, 3, 3, 3, 3, 3, 26, 26, 26, 26, 3, 3, 3, 26, 26, 3, 3, 26, 26, 26, 26, 26, 26, 62, 62, 63, 3, 3, 3, 3, 3, 3, 3, 3, 3, 3, 61, 62, 26, 3, 3, 3, 3, 3, 3, 3, 3, 3, 26, 26, 3, 3, 26, 62, 62, 3, 3, 3, 3, 62, 25, 62, 62, 62, 3, 3, 62, 62, 26, 3, 3, 3, 3, 3, 3, 3, 3, 3, 3, 3, 3, 3, 3, 26, 26, 3, 3, 3, 3, 3, 3, 3, 3, 3, 3, 3, 3, 26, 56, 56, 56, 56, 3, 3, 3, 3, 3, 91, 92, 92, 92, 92, 92, 68, 68, 15, 32, 15, 15, 32, 15, 15, 32, 15, 15, 32, 15, 15, 15, 15, 15, 32, 15, 15, 32, 15, 15, 32, 15, 15, 32, 15, 9, 56, 3, 3, 3, 3, 73, 74, 74, 74, 74, 75, 3, 3, 3, 3, 56, 3, 3, 3, 3, 79, 80, 80, 80, 80, 81, 3, 3, 3, 3, 56, 3, 3, 3, 3, 3, 3, 3, 3, 97, 98, 98, 98, 98, 92, 92, 56, 3, 3, 46, 48, 3, 46, 29, 48, 3, 46, 48, 3, 56, 98, 98, 98, 98, 98, 98, 98, 98, 98, 98, 98, 98, 98, 98, 98, 98, 98, 98, 98, 98, 98, 98, 98, 98, 98, 98, 98, 98, 98, 98, 98, 98, 98, 98, 98, 98, 99, 3, 3, 3, 3, 3, 3, 26, 26, 26, 26, 3, 3, 3, 26, 26, 3, 3, 26, 26, 26, 26, 26, 26, 61, 63, 3, 3, 3, 3, 3, 3, 3, 3, 3, 3, 3, 3, 61, 26, 3, 3, 3, 3, 3, 26, 3, 3, 3, 26, 26, 3, 3, 26, 62, 63, 3, 3, 3, 3, 62, 25, 62, 62, 62, 3, 3, 62, 62, 26, 3, 3, 3, 3, 3, 26, 3, 3, 3, 3, 26, 3, 3, 3, 26, 3, 3, 3, 3, 3, 3, 3, 3, 3, 3, 3, 3, 3, 3, 56, 56, 56, 56, 3, 3, 3, 3, 3, 91, 92, 92, 92, 92, 92, 68, 68, 15, 15, 15, 15, 15, 15, 15, 15, 15, 15, 15, 15, 15, 15, 15, 15, 15, 15, 15, 15, 15, 15, 15, 15, 15, 15, 15, 9, 56, 3, 3, 20, 3, 91, 92, 92, 92, 92, 93, 3, 20, 3, 3, 56, 3, 3, 26, 3, 97, 98, 98, 98, 98, 99, 3, 26, 3, 3, 56, 3, 3, 26, 3, 26, 3, 3, 3, 97, 98, 98, 98, 98, 92, 92, 56, 3, 3, 64, 66, 3, 64, 1, 66, 3, 64, 66, 3, 56, 98, 98, 98, 98, 98, 98, 98, 98, 116, 116, 116, 116, 116, 116, 116, 116, 116, 116, 116, 116, 116, 116, 116, 116, 116, 116, 116, 116, 116, 116, 116, 116, 116, 116, 116, 116, 117, 3, 3, 3, 3, 3, 3, 26, 26, 26, 26, 3, 3, 3, 3, 3, 3, 3, 3, 3, 3, 3, 3, 3, 3, 3, 3, 3, 3, 26, 3, 3, 3, 3, 26, 3, 3, 3, 3, 3, 3, 3, 3, 3, 3, 3, 3, 26, 3, 26, 26, 3, 3, 26, 62, 3, 3, 3, 3, 3, 61, 25, 62, 62, 63, 3, 3, 61, 62, 3, 3, 26, 3, 26, 3, 3, 3, 3, 26, 3, 3, 3, 26, 3, 3, 3, 3, 3, 3, 27, 3, 3, 3, 3, 27, 3, 3, 3, 3, 56, 56, 56, 57, 3, 3, 3, 3, 3, 91, 92, 92, 92, 92, 92, 68, 68, 15, 32, 15, 15, 32, 15, 15, 32, 15, 15, 32, 15, 15, 15, 15, 15, 32, 15, 15, 32, 15, 15, 32, 15, 15, 32, 15, 9, 56, 3, 3, 3, 3, 91, 92, 92, 92, 92, 93, 3, 3, 3, 3, 56, 3, 3, 3, 3, 97, 98, 98, 98, 98, 99, 3, 3, 3, 3, 56, 3, 3, 3, 3, 3, 3, 3, 3, 97, 98, 98, 98, 98, 92, 92, 56, 3, 3, 3, 3, 3, 3, 3, 3, 3, 3, 3, 3, 56, 98, 98, 98, 98, 98, 98, 98, 133, 3, 3, 3, 3, 3, 3, 3, 3, 3, 3, 3, 3, 3, 3, 3, 3, 3, 3, 3, 3, 3, 3, 3, 3, 3, 3, 3, 3, 3, 3, 3, 3, 3, 3, 3, 26, 26, 26, 26, 3, 8, 3, 3, 3, 3, 3, 3, 3, 3, 3, 3, 3, 3, 3, 3, 3, 3, 3, 3, 3, 3, 3, 3, 3, 3, 3, 3, 3, 3, 26, 3, 3, 3, 26, 3, 3, 3, 26, 26, 3, 3, 26, 62, 3, 3, 3, 3, 3, 3, 3, 3, 3, 3, 3, 3, 3, 3, 3, 3, 3, 3, 3, 3, 26, 3, 3, 3, 3, 26, 3, 3, 3, 3, 3, 3, 3, 3, 3, 3, 3, 3, 3, 3, 3, 3, 3, 3, 56, 56, 57, 3, 3, 3, 3, 3, 3, 91, 132, 92, 132, 92, 92, 68, 68, 15, 15, 15, 15, 15, 15, 15, 15, 15, 15, 15, 15, 15, 15, 15, 15, 15, 15, 15, 15, 15, 15, 15, 15, 15, 15, 15, 9, 56, 3, 3, 20, 3, 109, 110, 110, 110, 110, 111, 3, 20, 3, 3, 56, 3, 3, 26, 3, 115, 116, 116, 116, 116, 117, 3, 26, 3, 3, 56, 3, 3, 26, 3, 26, 3, 3, 3, 97, 98, 98, 98, 98, 92, 92, 56, 3, 3, 3, 3, 3, 3, 3, 3, 3, 3, 3, 3, 56, 98, 98, 98, 98, 98, 98, 99, 3, 3, 3, 3, 3, 3, 3, 3, 3, 3, 3, 3, 3, 3, 3, 3, 3, 3, 3, 3, 3, 3, 3, 3, 3, 3, 3, 3, 3, 3, 3, 3, 3, 3, 3, 3, 26, 26, 26, 26, 3, 3, 3, 3, 3, 3, 3, 3, 3, 3, 3, 3, 3, 3, 3, 3, 3, 3, 26, 3, 3, 3, 3, 26, 3, 3, 3, 3, 3, 3, 3, 3, 3, 3, 3, 3, 26, 3, 26, 26, 3, 3, 26, 62, 3, 3, 3, 3, 3, 3, 3, 3, 3, 3, 3, 3, 43, 44, 3, 3, 26, 3, 26, 3, 3, 3, 3, 26, 3, 3, 3, 26, 3, 3, 3, 3, 3, 3, 3, 3, 3, 3, 3, 3, 3, 3, 3, 3, 56, 56, 3, 3, 3, 3, 3, 3, 3, 91, 92, 92, 92, 92, 92, 68, 68, 15, 32, 15, 15, 32, 15, 15, 32, 15, 15, 32, 15, 15, 15, 15, 15, 32, 15, 15, 32, 15, 15, 32, 15, 15, 32, 15, 9, 56, 3, 3, 3, 3, 3, 3, 3, 3, 3, 3, 3, 3, 3, 3, 56, 3, 3, 3, 3, 3, 3, 3, 3, 3, 3, 3, 3, 3, 3, 56, 3, 3, 3, 3, 3, 3, 3, 3, 97, 98, 98, 98, 98, 92, 92, 56, 3, 3, 3, 3, 3, 3, 3, 3, 3, 3, 3, 3, 56, 98, 98, 98, 98, 98, 98, 99, 3, 3, 26, 26, 26, 26, 26, 26, 26, 26, 26, 26, 26, 26, 26, 26, 26, 26, 26, 26, 26, 26, 26, 26, 26, 26, 3, 3, 3, 3, 3, 3, 3, 3, 3, 3, 26, 26, 26, 26, 3, 3, 3, 26, 26, 3, 3, 26, 26, 26, 26, 26, 26, 43, 45, 3, 3, 3, 3, 3, 3, 3, 3, 3, 3, 3, 3, 43, 26, 3, 3, 3, 3, 3, 26, 3, 3, 3, 26, 26, 3, 3, 26, 62, 45, 3, 3, 3, 3, 3, 3, 3, 3, 3, 3, 3, 62, 62, 26, 3, 3, 3, 3, 3, 26, 3, 3, 3, 3, 26, 3, 3, 3, 26, 3, 3, 3, 3, 3, 3, 3, 3, 3, 3, 3, 3, 3, 3, 56, 56, 3, 3, 3, 3, 3, 3, 3, 91, 92, 92, 92, 92, 92, 68, 68, 51, 15, 15, 15, 15, 15, 15, 15, 15, 15, 15, 15, 15, 15, 15, 15, 15, 15, 15, 15, 15, 15, 15, 15, 15, 15, 15, 9, 56, 39, 3, 3, 3, 3, 3, 3, 3, 3, 3, 3, 3, 3, 37, 56, 39, 3, 3, 3, 3, 3, 3, 3, 3, 3, 3, 3, 3, 37, 56, 39, 3, 3, 3, 3, 3, 3, 3, 97, 98, 98, 98, 98, 92, 92, 56, 3, 3, 3, 3, 3, 3, 3, 3, 3, 3, 3, 3, 56, 98, 98, 98, 98, 98, 98, 99, 3, 3, 26, 26, 26, 26, 26, 26, 26, 26, 26, 26, 26, 26, 26, 26, 26, 26, 26, 26, 26, 26, 26, 26, 26, 26, 3, 3, 3, 3, 3, 3, 3, 3, 3, 3, 26, 26, 26, 26, 3, 3, 3, 26, 26, 3, 3, 26, 26, 26, 26, 26, 26, 62, 62, 45, 3, 3, 3, 3, 3, 3, 3, 3, 3, 3, 43, 62, 26, 3, 3, 3, 3, 3, 3, 3, 3, 3, 26, 26, 3, 3, 26, 62, 62, 3, 3, 3, 3, 3, 3, 3, 3, 3, 3, 3, 62, 62, 26, 3, 3, 3, 3, 3, 3, 3, 3, 3, 3, 3, 3, 3, 3, 26, 26, 3, 3, 3, 3, 3, 3, 3, 3, 3, 3, 3, 3, 26, 56, 56, 39, 3, 3, 3, 3, 3, 3, 91, 92, 92, 92, 92, 92, 68, 68, 68, 50, 50, 50, 50, 50, 50, 50, 50, 50, 50, 50, 31, 50, 50, 50, 50, 50, 50, 50, 50, 50, 50, 50, 50, 50, 50, 9, 56, 56, 38, 38, 38, 38, 38, 3, 3, 38, 38, 38, 38, 38, 56, 56, 56, 38, 38, 38, 38, 38, 3, 3, 38, 38, 38, 38, 38, 56, 56, 56, 38, 38, 38, 38, 38, 3, 3, 91, 92, 92, 92, 92, 92, 92, 56, 38, 38, 38, 38, 38, 38, 19, 38, 38, 38, 38, 38, 56, 98, 98, 98, 98, 98, 98, 99, 3, 3, 26, 26, 26, 26, 26, 26, 26, 26, 26, 26, 26, 26, 26, 26, 26, 26, 26, 26, 26, 26, 26, 26, 26, 26, 26, 26, 26, 26, 3, 3, 26, 26, 26, 26, 26, 26, 26, 26, 26, 26, 26, 26, 26, 3, 3, 26, 26, 26, 26, 26, 26, 62, 62, 62, 45, 43, 44, 44, 44, 44, 44, 44, 44, 44, 62, 62, 26, 3, 26, 3, 3, 3, 26, 3, 26, 3, 26, 26, 3, 3, 26, 62, 62, 45, 43, 45, 43, 44, 44, 44, 44, 44, 45, 43, 62, 62, 26, 26, 26, 3, 26, 26, 26, 26, 26, 26, 26, 26, 3, 26, 26, 26, 26, 26, 26, 26, 26, 26, 26, 26, 26, 26, 26, 26, 26, 26, 56, 56, 56, 38, 39, 3, 3, 3, 3, 91, 92, 92, 92, 92, 92, 68, 68, 68, 68, 68, 68, 68, 68, 68, 68, 68, 68, 68, 68, 31, 20, 20, 20, 20, 20, 20, 20, 20, 20, 20, 20, 20, 20, 20, 20, 20, 20, 20, 20, 20, 20, 20, 3, 3, 20, 20, 20, 20, 20, 20, 20, 20, 20, 20, 20, 20, 20, 3, 3, 20, 20, 20, 20, 20, 20, 26, 26, 26, 26, 26, 26, 26, 3, 3, 97, 98, 98, 98, 98, 98, 98, 98, 98, 98, 98, 98, 98, 98, 98, 98, 98, 98, 98, 98, 98, 98, 98, 98, 98, 98, 98, 99, 3, 3, 26, 26, 26, 26, 26, 26, 26, 26, 26, 26, 26, 26, 26, 26, 26, 26, 26, 26, 26, 26, 26, 26, 26, 26, 26, 26, 26, 26, 3, 3, 26, 26, 26, 26, 26, 26, 26, 26, 26, 26, 26, 26, 26, 3, 3, 26, 26, 26, 26, 26, 26, 26, 26, 26, 26, 26, 26, 26, 26, 26, 26, 26, 26, 26, 26, 26, 26, 3, 26, 3, 3, 3, 26, 3, 26, 3, 26, 26, 3, 3, 26, 26, 26, 26, 26, 26, 26, 26, 26, 26, 26, 26, 26, 26, 26, 26, 26, 26, 26, 3, 26, 26, 26, 26, 26, 26, 26, 26, 3, 26, 26, 62, 62, 62, 62, 62, 62, 62, 62, 62, 62, 62, 62, 62, 62, 62, 56, 56, 56, 56, 56, 3, 3, 3, 3, 91, 92, 92, 92, 92, 92, 68, 68, 68, 68, 68, 68, 68, 68, 68, 68, 68, 68, 68, 68, 31, 20, 20, 20, 20, 20, 20, 20, 20, 20, 20, 20, 20, 20, 20, 20, 20, 20, 20, 20, 20, 20, 20, 3, 3, 20, 20, 20, 20, 20, 20, 20, 20, 20, 20, 20, 20, 20, 3, 3, 20, 20, 20, 20, 20, 20, 26, 26, 26, 26, 26, 26, 26, 3, 3, 97, 98, 98, 98, 98, 98, 98, 98, 98, 98, 98, 98, 98, 98, 98, 98, 98, 98, 98, 98, 98, 98, 98, 98, 98, 98, 98, 99, 3, 3, 26, 26, 26, 26, 26, 26, 26, 26, 26, 26, 26, 26, 26, 26, 26, 26, 26, 26, 26, 26, 26, 26, 26, 26, 26, 26, 26, 26, 3, 3, 26, 26, 26, 26, 26, 26, 26, 26, 26, 26, 26, 26, 26, 3, 3, 26, 26, 26, 26, 26, 26, 26, 26, 26, 26, 26, 26, 26, 26, 26, 26, 26, 26, 26, 26, 26, 26, 3, 26, 3, 3, 3, 26, 3, 26, 3, 26, 26, 3, 3, 26, 26, 26, 26, 26, 26, 26, 26, 26, 26, 26, 26, 26, 26, 26, 26, 26, 26, 26, 3, 26, 26, 26, 26, 26, 26, 26, 26, 3, 26, 26, 62, 62, 62, 62, 62, 63, 61, 1, 62, 62, 62, 62, 62, 62, 62, 56, 56, 56, 56, 57, 3, 3, 3, 3, 91, 92, 92, 92, 92, 92, 68, 68, 68, 68, 68, 68, 68, 68, 68, 68, 68, 68, 68, 68, 31, 20, 20, 3, 3, 3, 3, 3, 3, 3, 3, 3, 3, 20, 20, 20, 20, 20, 3, 3, 3, 3, 3, 3, 3, 3, 3, 3, 3, 3, 3, 3, 3, 3, 3, 3, 3, 3, 3, 3, 3, 3, 3, 3, 3, 20, 26, 26, 3, 3, 3, 3, 3, 3, 3, 97, 98, 98, 98, 98, 98, 98, 98, 98, 98, 98, 98, 98, 98, 98, 98, 98, 98, 98, 98, 98, 98, 98, 98, 98, 98, 98, 99, 3, 3, 3, 3, 3, 3, 3, 3, 3, 3, 3, 3, 3, 3, 3, 3, 3, 3, 3, 3, 3, 3, 3, 3, 3, 3, 3, 3, 3, 3, 3, 3, 3, 3, 3, 3, 3, 3, 26, 26, 26, 26, 26, 26, 26, 3, 3, 26, 26, 26, 26, 26, 26, 26, 26, 26, 3, 3, 3, 3, 3, 3, 3, 3, 3, 3, 3, 3, 3, 3, 3, 3, 3, 3, 3, 3, 3, 3, 3, 3, 3, 3, 3, 3, 3, 3, 3, 3, 3, 3, 3, 3, 3, 3, 3, 3, 26, 26, 26, 26, 26, 3, 26, 26, 26, 26, 26, 26, 26, 26, 3, 26, 26, 62, 63, 3, 3, 3, 3, 3, 3, 61, 62, 62, 63, 3, 3, 61, 56, 56, 56, 56, 3, 3, 3, 3, 3, 91, 92, 92, 92, 92, 92, 68, 68, 68, 68, 68, 68, 68, 68, 68, 68, 68, 68, 68, 68, 31, 20, 3, 3, 3, 3, 3, 3, 3, 3, 3, 3, 3, 20, 20, 20, 20, 20, 3, 3, 20, 20, 20, 20, 20, 20, 20, 20, 20, 20, 20, 20, 20, 3, 3, 3, 3, 3, 3, 3, 3, 3, 3, 3, 3, 3, 26, 26, 3, 3, 3, 26, 3, 3, 3, 97, 98, 98, 98, 98, 98, 98, 98, 98, 98, 98, 98, 98, 98, 98, 98, 98, 98, 98, 98, 98, 98, 98, 98, 98, 98, 98, 99, 3, 3, 3, 3, 3, 3, 3, 3, 3, 3, 3, 3, 3, 3, 3, 26, 3, 26, 3, 3, 3, 26, 3, 26, 3, 26, 3, 3, 3, 26, 3, 3, 26, 3, 26, 3, 3, 3, 26, 26, 26, 26, 26, 26, 26, 3, 3, 26, 26, 26, 26, 26, 26, 26, 26, 26, 3, 3, 3, 3, 3, 3, 3, 3, 3, 3, 3, 3, 3, 3, 3, 3, 3, 3, 3, 3, 3, 3, 26, 3, 3, 3, 3, 26, 26, 26, 26, 26, 26, 26, 26, 26, 26, 26, 26, 3, 26, 26, 26, 26, 26, 3, 26, 26, 26, 26, 26, 26, 26, 26, 3, 26, 26, 63, 3, 3, 3, 3, 3, 3, 3, 3, 61, 63, 3, 3, 3, 3, 56, 56, 56, 56, 3, 3, 3, 3, 3, 91, 92, 92, 92, 92, 92, 68, 68, 68, 68, 68, 68, 68, 68, 68, 68, 68, 68, 68, 68, 31, 20, 3, 3, 20, 3, 20, 3, 20, 3, 20, 3, 3, 3, 3, 3, 3, 3, 3, 3, 20, 20, 20, 20, 20, 20, 20, 20, 20, 20, 20, 20, 20, 3, 3, 3, 3, 26, 3, 3, 3, 3, 3, 3, 3, 3, 3, 3, 3, 3, 3, 3, 3, 3, 3, 115, 116, 116, 116, 116, 116, 116, 116, 116, 116, 98, 98, 98, 98, 138, 116, 116, 116, 116, 116, 116, 116, 116, 116, 116, 116, 116, 117, 3, 3, 3, 26, 3, 26, 26, 3, 3, 3, 3, 3, 3, 3, 3, 3, 3, 3, 3, 3, 3, 3, 3, 3, 3, 3, 3, 3, 3, 3, 3, 3, 3, 3, 3, 3, 3, 3, 3, 3, 3, 3, 3, 3, 3, 3, 3, 3, 3, 3, 3, 3, 3, 3, 3, 3, 3, 3, 3, 3, 3, 3, 3, 3, 3, 3, 26, 3, 3, 3, 26, 3, 3, 3, 26, 3, 26, 3, 3, 3, 3, 3, 3, 26, 26, 26, 26, 26, 26, 26, 26, 26, 26, 26, 26, 3, 3, 3, 3, 3, 3, 3, 3, 3, 3, 3, 3, 3, 3, 3, 3, 3, 3, 3, 3, 3, 3, 26, 3, 3, 3, 3, 3, 3, 3, 26, 3, 3, 56, 56, 56, 57, 3, 3, 3, 3, 3, 91, 92, 92, 92, 92, 92, 68, 68, 15, 15, 15, 15, 15, 15, 15, 15, 15, 15, 15, 15, 15, 20, 3, 3, 3, 3, 3, 3, 3, 3, 3, 3, 3, 3, 3, 3, 3, 3, 3, 3, 20, 20, 20, 20, 20, 20, 20, 20, 20, 20, 20, 20, 20, 3, 3, 3, 3, 3, 3, 3, 3, 26, 3, 3, 3, 3, 3, 3, 3, 3, 3, 26, 3, 3, 3, 3, 3, 3, 3, 3, 3, 3, 3, 3, 3, 134, 98, 98, 133, 3, 3, 3, 3, 3, 3, 3, 3, 3, 3, 3, 3, 3, 3, 3, 3, 3, 3, 3, 3, 3, 3, 3, 3, 3, 26, 3, 26, 3, 26, 3, 26, 3, 26, 3, 26, 3, 26, 3, 26, 3, 26, 3, 26, 3, 3, 26, 3, 26, 3, 26, 3, 3, 3, 3, 3, 3, 3, 3, 3, 3, 3, 3, 3, 3, 3, 3, 3, 3, 3, 3, 3, 3, 3, 3, 3, 3, 3, 3, 3, 3, 3, 3, 3, 3, 3, 3, 3, 3, 3, 3, 3, 26, 3, 3, 3, 3, 26, 26, 26, 26, 26, 26, 26, 26, 26, 26, 26, 26, 3, 3, 3, 3, 3, 3, 3, 3, 3, 3, 3, 3, 3, 3, 3, 3, 3, 3, 3, 3, 3, 3, 3, 3, 3, 3, 3, 3, 3, 3, 3, 3, 3, 56, 56, 57, 3, 3, 3, 3, 3, 3, 91, 132, 92, 132, 92, 92, 68, 68, 15, 15, 15, 15, 15, 15, 15, 15, 15, 15, 15, 15, 15, 20, 3, 3, 20, 3, 20, 3, 20, 3, 20, 3, 3, 3, 3, 3, 3, 3, 3, 3, 20, 20, 20, 20, 20, 20, 20, 20, 20, 20, 20, 20, 20, 3, 3, 3, 3, 26, 3, 3, 3, 3, 3, 3, 3, 3, 3, 3, 3, 3, 3, 3, 3, 3, 3, 3, 3, 3, 3, 3, 44, 44, 44, 3, 3, 3, 98, 98, 3, 3, 3, 3, 3, 3, 3, 44, 44, 44, 44, 3, 3, 3, 3, 3, 3, 3, 26, 3, 26, 26, 3, 3, 3, 3, 3, 3, 3, 3, 3, 3, 3, 3, 3, 3, 3, 3, 3, 3, 3, 3, 3, 3, 3, 3, 3, 3, 3, 3, 3, 3, 3, 3, 3, 3, 3, 3, 3, 3, 3, 3, 79, 80, 80, 80, 80, 80, 80, 80, 80, 80, 80, 80, 81, 3, 3, 3, 3, 3, 3, 26, 3, 3, 3, 26, 3, 3, 3, 26, 3, 26, 3, 3, 3, 3, 3, 3, 26, 26, 26, 26, 26, 26, 26, 26, 26, 26, 26, 26, 3, 3, 3, 3, 3, 3, 3, 3, 3, 3, 3, 3, 3, 3, 3, 3, 3, 3, 3, 3, 3, 3, 26, 3, 3, 3, 3, 3, 3, 3, 26, 3, 3, 56, 56, 3, 3, 3, 3, 3, 3, 3, 91, 92, 92, 92, 92, 92, 68, 68, 15, 15, 15, 15, 15, 15, 15, 15, 15, 15, 15, 15, 15, 20, 3, 3, 3, 3, 3, 3, 3, 3, 3, 3, 3, 20, 20, 20, 20, 20, 3, 3, 20, 20, 20, 20, 20, 20, 20, 20, 20, 20, 20, 20, 20, 3, 3, 3, 3, 3, 3, 3, 3, 3, 3, 3, 3, 3, 26, 26, 3, 3, 3, 26, 3, 3, 3, 3, 3, 3, 3, 3, 62, 62, 62, 3, 3, 3, 98, 98, 3, 3, 3, 3, 3, 3, 3, 62, 62, 62, 62, 3, 3, 3, 3, 3, 3, 3, 3, 3, 3, 3, 3, 3, 3, 3, 3, 3, 3, 3, 26, 3, 26, 3, 3, 3, 26, 3, 26, 3, 26, 3, 3, 3, 26, 3, 3, 26, 3, 26, 3, 3, 3, 26, 26, 26, 26, 26, 26, 26, 3, 3, 97, 98, 98, 98, 98, 98, 98, 98, 98, 98, 98, 98, 99, 3, 3, 3, 3, 3, 3, 3, 3, 3, 3, 3, 3, 3, 3, 3, 3, 3, 3, 26, 3, 3, 3, 3, 26, 26, 26, 26, 26, 26, 26, 26, 26, 26, 26, 26, 3, 26, 26, 26, 26, 26, 3, 26, 26, 26, 26, 26, 26, 26, 26, 3, 26, 26, 45, 3, 3, 3, 3, 3, 3, 3, 3, 43, 45, 3, 3, 3, 3, 56, 56, 3, 3, 3, 3, 3, 3, 3, 91, 92, 92, 92, 92, 92, 68, 68, 15, 15, 15, 15, 15, 15, 15, 15, 15, 15, 15, 15, 15, 20, 20, 3, 3, 3, 3, 3, 3, 3, 3, 3, 3, 20, 20, 20, 20, 20, 3, 3, 3, 3, 3, 3, 3, 3, 3, 3, 3, 3, 3, 3, 3, 3, 3, 3, 3, 3, 3, 3, 3, 3, 3, 3, 3, 20, 26, 26, 3, 3, 3, 3, 3, 3, 3, 3, 3, 3, 3, 3, 62, 62, 62, 3, 3, 3, 98, 98, 3, 3, 3, 3, 3, 3, 3, 62, 62, 62, 62, 3, 3, 3, 3, 3, 3, 3, 3, 3, 3, 3, 3, 3, 3, 3, 3, 3, 3, 3, 3, 3, 3, 3, 3, 3, 3, 3, 3, 3, 3, 3, 3, 3, 3, 3, 3, 3, 3, 3, 3, 3, 3, 26, 26, 26, 26, 26, 26, 26, 3, 3, 97, 98, 98, 98, 98, 98, 98, 98, 98, 98, 98, 98, 99, 3, 3, 3, 3, 3, 3, 3, 3, 3, 3, 3, 3, 3, 3, 3, 3, 3, 3, 3, 3, 3, 3, 3, 3, 3, 3, 3, 3, 26, 26, 26, 26, 26, 26, 26, 3, 26, 26, 26, 26, 26, 3, 26, 26, 26, 26, 26, 26, 26, 26, 3, 26, 26, 62, 45, 3, 3, 3, 3, 3, 3, 43, 62, 62, 45, 3, 3, 43, 56, 56, 39, 3, 3, 3, 3, 3, 3, 91, 92, 92, 92, 92, 92, 68, 68, 15, 15, 15, 15, 15, 15, 15, 15, 15, 15, 15, 15, 50, 20, 20, 20, 20, 20, 20, 20, 20, 20, 20, 3, 3, 20, 20, 20, 20, 20, 20, 20, 20, 3, 3, 20, 20, 3, 3, 3, 3, 3, 20, 20, 20, 20, 20, 3, 3, 20, 3, 3, 3, 20, 3, 20, 3, 20, 26, 26, 26, 3, 3, 26, 26, 26, 26, 3, 3, 26, 26, 3, 62, 62, 62, 3, 3, 3, 98, 98, 3, 3, 3, 44, 3, 44, 3, 62, 62, 62, 62, 26, 26, 26, 26, 26, 26, 26, 26, 26, 26, 26, 26, 26, 26, 26, 26, 26, 26, 26, 26, 26, 26, 26, 26, 26, 26, 26, 26, 26, 26, 3, 26, 3, 26, 3, 3, 26, 3, 26, 3, 26, 3, 26, 26, 26, 26, 26, 26, 26, 3, 3, 97, 98, 98, 98, 98, 98, 98, 98, 98, 98, 98, 98, 99, 3, 3, 3, 3, 26, 26, 26, 3, 26, 3, 26, 3, 3, 3, 26, 3, 26, 3, 26, 26, 3, 26, 26, 26, 26, 26, 26, 3, 26, 26, 26, 26, 26, 26, 26, 3, 26, 26, 26, 26, 26, 3, 26, 26, 26, 26, 26, 26, 26, 26, 3, 26, 26, 62, 62, 44, 44, 44, 45, 43, 44, 62, 62, 62, 62, 44, 44, 62, 56, 56, 56, 38, 39, 3, 3, 3, 3, 91, 92, 92, 92, 92, 92, 20, 20, 3, 3, 3, 3, 3, 3, 3, 3, 3, 3, 3, 3, 20, 20, 20, 20, 20, 20, 20, 20, 20, 20, 20, 3, 3, 20, 20, 20, 20, 20, 20, 20, 20, 3, 3, 20, 20, 3, 3, 3, 3, 3, 20, 20, 20, 20, 20, 3, 3, 20, 3, 3, 3, 20, 3, 20, 3, 20, 62, 62, 62, 3, 3, 62, 62, 62, 62, 3, 3, 62, 62, 3, 62, 62, 62, 3, 3, 3, 98, 98, 3, 3, 3, 62, 3, 62, 3, 62, 62, 62, 62, 62, 62, 62, 62, 62, 62, 62, 62, 62, 62, 62, 62, 62, 62, 62, 62, 62, 62, 62, 62, 62, 62, 62, 62, 62, 62, 62, 62, 62, 26, 3, 26, 3, 26, 3, 3, 26, 3, 26, 3, 26, 3, 26, 26, 26, 26, 26, 26, 26, 3, 3, 97, 98, 98, 98, 98, 98, 98, 98, 98, 98, 98, 98, 99, 3, 3, 3, 3, 26, 26, 26, 3, 26, 3, 26, 3, 3, 3, 26, 3, 26, 3, 26, 26, 3, 26, 26, 26, 26, 26, 26, 3, 26, 26, 26, 26, 26, 26, 26, 3, 26, 26, 26, 26, 26, 3, 26, 26, 26, 26, 26, 26, 26, 26, 3, 26, 26, 26, 26, 26, 26, 26, 26, 26, 26, 26, 26, 26, 26, 26, 26, 26, 56, 56, 56, 56, 56, 3, 3, 3, 3, 91, 92, 92, 92, 92, 92, 20, 20, 3, 3, 3, 3, 3, 3, 3, 3, 3, 3, 3, 3, 20, 20, 20, 20, 20, 20, 20, 20, 20, 20, 20, 3, 3, 20, 20, 20, 20, 20, 20, 20, 20, 3, 3, 20, 20, 3, 3, 3, 3, 3, 20, 20, 20, 20, 20, 3, 3, 20, 3, 3, 3, 20, 3, 20, 3, 20, 62, 62, 62, 3, 3, 61, 62, 1, 63, 3, 3, 61, 63, 3, 61, 62, 63, 3, 3, 3, 98, 98, 3, 3, 3, 62, 3, 62, 3, 61, 62, 62, 62, 62, 62, 62, 62, 1, 62, 62, 62, 62, 62, 62, 62, 62, 62, 62, 62, 62, 62, 62, 62, 62, 62, 62, 62, 62, 62, 62, 62, 62, 26, 3, 26, 3, 26, 3, 3, 26, 3, 26, 3, 26, 3, 26, 26, 26, 26, 26, 26, 26, 3, 3, 97, 98, 98, 98, 98, 98, 98, 98, 98, 98, 98, 98, 99, 3, 3, 3, 3, 26, 26, 26, 3, 26, 3, 26, 3, 3, 3, 26, 3, 26, 3, 26, 26, 3, 26, 26, 26, 26, 26, 26, 3, 26, 26, 26, 26, 26, 26, 26, 3, 26, 26, 26, 26, 26, 3, 26, 26, 26, 26, 26, 26, 26, 26, 3, 26, 26, 26, 26, 26, 26, 26, 26, 26, 26, 26, 26, 26, 26, 26, 26, 26, 55, 56, 56, 1, 57, 3, 3, 3, 3, 91, 92, 92, 92, 92, 92, 20, 20, 3, 3, 3, 3, 3, 3, 3, 3, 3, 3, 3, 3, 20, 20, 20, 20, 20, 20, 20, 20, 20, 20, 20, 3, 3, 20, 20, 20, 20, 20, 20, 20, 20, 3, 3, 3, 20, 3, 3, 3, 3, 3, 20, 20, 20, 3, 3, 3, 3, 3, 3, 3, 3, 3, 3, 3, 3, 20, 62, 62, 63, 3, 3, 3, 3, 3, 3, 3, 3, 3, 3, 3, 3, 3, 3, 3, 3, 3, 92, 92, 3, 3, 3, 3, 3, 3, 3, 3, 3, 3, 3, 3, 3, 3, 3, 3, 3, 3, 3, 3, 3, 3, 61, 62, 63, 3, 3, 3, 3, 3, 3, 3, 61, 63, 3, 3, 3, 61, 62, 63, 3, 3, 3, 3, 3, 3, 3, 3, 3, 3, 3, 3, 3, 26, 26, 3, 3, 3, 3, 3, 3, 3, 97, 98, 98, 98, 98, 98, 98, 98, 98, 98, 98, 98, 99, 3, 3, 3, 3, 3, 3, 3, 3, 3, 3, 3, 3, 3, 3, 3, 3, 3, 3, 3, 3, 3, 3, 26, 26, 26, 26, 26, 3, 26, 26, 3, 3, 3, 3, 3, 3, 3, 3, 3, 3, 3, 3, 3, 3, 3, 3, 3, 3, 26, 3, 3, 26, 26, 26, 26, 3, 3, 3, 3, 3, 3, 3, 3, 3, 3, 3, 3, 3, 3, 3, 3, 3, 3, 3, 3, 3, 3, 91, 92, 92, 92, 92, 92, 20, 20, 3, 3, 3, 3, 3, 3, 3, 3, 3, 3, 3, 3, 3, 20, 20, 20, 20, 20, 20, 20, 20, 20, 20, 3, 3, 20, 20, 20, 20, 20, 20, 20, 20, 3, 3, 3, 20, 3, 3, 3, 3, 3, 3, 3, 3, 3, 20, 3, 3, 3, 3, 3, 3, 20, 3, 3, 3, 3, 61, 63, 3, 3, 3, 3, 3, 3, 3, 3, 3, 3, 3, 3, 3, 3, 3, 3, 3, 3, 92, 92, 3, 3, 3, 2, 3, 3, 3, 3, 3, 3, 3, 2, 2, 2, 2, 3, 3, 3, 3, 3, 3, 3, 3, 63, 3, 3, 8, 3, 8, 3, 3, 3, 3, 3, 3, 8, 3, 3, 63, 3, 3, 3, 26, 3, 3, 3, 3, 26, 3, 3, 3, 26, 3, 26, 3, 3, 3, 3, 26, 3, 3, 3, 97, 98, 98, 98, 98, 98, 98, 98, 98, 98, 98, 98, 99, 3, 3, 3, 3, 3, 3, 3, 3, 3, 3, 3, 3, 3, 3, 3, 3, 3, 3, 26, 3, 3, 3, 3, 26, 26, 26, 26, 3, 26, 3, 3, 3, 3, 3, 3, 3, 26, 26, 26, 26, 3, 3, 26, 26, 26, 26, 26, 26, 26, 26, 3, 26, 26, 26, 3, 3, 26, 26, 26, 3, 3, 3, 3, 3, 3, 3, 3, 3, 3, 3, 3, 3, 3, 3, 3, 3, 3, 91, 92, 92, 92, 92, 92, 20, 20, 3, 3, 3, 3, 3, 3, 3, 3, 3, 3, 3, 3, 3, 3, 3, 3, 3, 3, 3, 3, 3, 3, 3, 3, 3, 3, 3, 3, 3, 3, 3, 3, 3, 3, 3, 3, 20, 3, 3, 3, 3, 3, 3, 3, 3, 3, 3, 3, 3, 20, 3, 3, 3, 3, 3, 3, 3, 3, 3, 3, 3, 3, 3, 3, 26, 3, 3, 3, 3, 3, 3, 3, 3, 3, 3, 3, 3, 3, 92, 92, 3, 3, 3, 3, 3, 2, 3, 3, 3, 3, 3, 3, 3, 3, 3, 3, 2, 2, 2, 3, 3, 3, 3, 3, 3, 3, 3, 3, 3, 3, 3, 3, 3, 3, 3, 3, 3, 3, 3, 3, 26, 3, 3, 3, 3, 3, 3, 3, 3, 3, 3, 3, 3, 3, 3, 26, 3, 3, 3, 3, 3, 3, 115, 116, 116, 116, 116, 116, 116, 116, 116, 116, 116, 116, 117, 3, 3, 3, 3, 3, 26, 3, 3, 3, 3, 26, 3, 3, 3, 26, 3, 26, 3, 3, 3, 3, 3, 3, 3, 3, 3, 3, 3, 26, 3, 3, 3, 3, 3, 3, 3, 26, 26, 26, 26, 3, 3, 26, 26, 26, 26, 26, 26, 26, 26, 3, 3, 3, 3, 3, 3, 3, 3, 3, 3, 3, 3, 3, 26, 26, 26, 26, 3, 3, 3, 3, 3, 3, 3, 3, 3, 3, 91, 92, 92, 92, 92, 92, 20, 20, 3, 3, 3, 3, 3, 3, 3, 3, 3, 3, 3, 3, 3, 3, 3, 3, 3, 3, 3, 3, 3, 3, 3, 3, 3, 3, 3, 3, 3, 3, 3, 3, 3, 3, 3, 3, 20, 3, 3, 3, 3, 3, 3, 3, 3, 3, 20, 3, 3, 3, 3, 3, 3, 20, 3, 20, 3, 3, 3, 3, 3, 3, 3, 3, 3, 3, 3, 3, 3, 3, 3, 3, 3, 3, 3, 3, 3, 3, 132, 132, 3, 3, 3, 2, 3, 3, 3, 3, 3, 3, 3, 2, 2, 2, 2, 3, 3, 3, 3, 3, 3, 3, 3, 3, 3, 3, 8, 3, 8, 3, 3, 3, 3, 3, 3, 8, 3, 3, 3, 3, 3, 3, 26, 3, 26, 3, 3, 26, 3, 26, 3, 26, 3, 3, 3, 3, 3, 3, 26, 3, 3, 3, 3, 3, 3, 3, 3, 3, 3, 3, 3, 3, 3, 3, 3, 3, 3, 3, 3, 3, 3, 3, 3, 3, 3, 3, 3, 3, 3, 3, 3, 3, 3, 26, 3, 3, 3, 3, 3, 3, 3, 3, 3, 26, 3, 3, 3, 3, 3, 3, 3, 26, 26, 26, 26, 3, 3, 26, 26, 26, 26, 26, 26, 26, 26, 3, 3, 3, 3, 3, 3, 26, 26, 26, 3, 26, 26, 3, 3, 3, 3, 3, 3, 3, 3, 3, 3, 3, 3, 3, 3, 3, 91, 92, 92, 92, 92, 92, 20, 20, 3, 3, 3, 3, 3, 3, 3, 3, 3, 3, 3, 3, 3, 3, 3, 3, 3, 3, 3, 3, 3, 3, 3, 3, 3, 3, 3, 3, 3, 3, 3, 3, 3, 3, 3, 3, 20, 3, 3, 3, 3, 3, 3, 3, 3, 3, 3, 3, 3, 20, 3, 3, 3, 3, 3, 3, 3, 3, 3, 3, 3, 3, 3, 3, 26, 3, 3, 3, 3, 3, 3, 3, 3, 3, 3, 3, 3, 3, 92, 92, 3, 3, 3, 3, 3, 2, 3, 3, 3, 3, 3, 3, 3, 3, 3, 3, 2, 2, 2, 3, 3, 3, 3, 3, 3, 3, 3, 3, 3, 3, 3, 3, 3, 3, 3, 3, 3, 3, 3, 3, 26, 3, 3, 3, 3, 3, 3, 3, 3, 3, 3, 3, 3, 3, 3, 26, 3, 3, 3, 3, 3, 3, 3, 3, 3, 3, 3, 3, 3, 3, 3, 3, 3, 3, 3, 3, 3, 3, 3, 3, 26, 3, 3, 3, 3, 26, 3, 3, 3, 26, 3, 26, 3, 3, 3, 3, 3, 3, 3, 3, 3, 3, 3, 26, 3, 3, 3, 3, 3, 3, 3, 26, 26, 26, 26, 3, 3, 26, 26, 26, 26, 26, 26, 26, 26, 3, 3, 3, 3, 3, 3, 3, 3, 3, 3, 3, 3, 3, 26, 26, 26, 26, 3, 3, 3, 3, 3, 3, 3, 3, 3, 3, 91, 92, 92, 92, 92, 92, 20, 20, 3, 3, 3, 3, 3, 3, 3, 3, 3, 3, 3, 3, 3, 20, 20, 20, 20, 20, 20, 20, 20, 20, 20, 3, 3, 20, 20, 20, 20, 20, 20, 20, 20, 20, 3, 3, 20, 20, 20, 20, 20, 20, 3, 3, 3, 3, 20, 3, 3, 3, 3, 3, 3, 20, 3, 3, 3, 3, 43, 45, 3, 3, 3, 3, 3, 3, 3, 3, 3, 3, 3, 3, 3, 3, 3, 3, 3, 3, 92, 92, 3, 3, 3, 2, 3, 3, 3, 3, 3, 3, 3, 2, 2, 2, 2, 3, 3, 3, 3, 3, 3, 3, 3, 45, 3, 3, 8, 3, 8, 3, 3, 3, 3, 3, 3, 8, 3, 3, 45, 3, 3, 3, 26, 3, 3, 3, 3, 26, 3, 3, 3, 26, 3, 26, 3, 3, 3, 3, 26, 3, 3, 3, 3, 3, 3, 3, 3, 3, 3, 3, 3, 3, 3, 3, 3, 3, 3, 3, 3, 3, 3, 3, 3, 3, 3, 3, 3, 3, 3, 3, 3, 3, 3, 26, 3, 3, 3, 3, 26, 26, 26, 26, 26, 26, 3, 3, 3, 3, 3, 3, 3, 26, 26, 26, 26, 3, 3, 26, 26, 26, 26, 26, 26, 26, 26, 26, 26, 26, 26, 3, 3, 26, 26, 26, 3, 3, 3, 3, 3, 3, 3, 3, 3, 3, 3, 3, 3, 3, 3, 3, 3, 3, 91, 92, 92, 92, 92, 92, 20, 20, 3, 3, 3, 3, 3, 3, 3, 3, 3, 3, 3, 3, 20, 20, 20, 20, 20, 20, 20, 20, 20, 20, 20, 3, 3, 20, 20, 20, 20, 20, 20, 20, 20, 20, 3, 3, 20, 20, 20, 20, 20, 20, 20, 20, 20, 3, 3, 3, 3, 3, 3, 3, 3, 3, 3, 3, 3, 20, 62, 62, 45, 3, 3, 3, 3, 3, 3, 3, 3, 3, 3, 3, 3, 3, 3, 3, 3, 3, 92, 92, 3, 3, 3, 3, 3, 3, 3, 3, 3, 3, 3, 3, 3, 3, 3, 3, 3, 3, 3, 3, 3, 3, 43, 62, 45, 3, 3, 3, 3, 3, 3, 3, 43, 45, 3, 3, 3, 43, 62, 45, 3, 3, 3, 3, 3, 3, 3, 3, 3, 3, 3, 3, 3, 26, 26, 3, 3, 3, 3, 3, 3, 3, 3, 3, 3, 3, 3, 3, 3, 3, 3, 3, 3, 3, 3, 3, 3, 3, 3, 3, 3, 3, 3, 3, 3, 3, 3, 3, 3, 3, 3, 3, 3, 3, 3, 3, 3, 26, 26, 26, 26, 26, 26, 26, 26, 3, 3, 3, 3, 3, 3, 3, 3, 3, 3, 3, 3, 26, 26, 26, 26, 26, 26, 26, 26, 26, 26, 26, 26, 26, 3, 3, 3, 3, 3, 3, 3, 3, 3, 3, 3, 3, 3, 3, 3, 3, 3, 3, 3, 3, 3, 3, 91, 92, 92, 92, 92, 92, 20, 20, 20, 20, 20, 20, 20, 20, 20, 20, 20, 20, 20, 20, 20, 20, 20, 20, 20, 20, 20, 20, 20, 20, 20, 3, 3, 20, 20, 20, 20, 20, 20, 20, 20, 20, 3, 3, 20, 20, 20, 20, 20, 20, 20, 20, 20, 20, 20, 20, 20, 20, 3, 3, 3, 20, 3, 20, 3, 20, 62, 62, 62, 44, 44, 44, 44, 44, 44, 44, 44, 44, 44, 44, 44, 44, 44, 44, 45, 3, 98, 98, 44, 44, 44, 44, 44, 44, 44, 44, 44, 44, 44, 44, 44, 44, 44, 44, 44, 44, 44, 45, 3, 3, 62, 62, 62, 44, 44, 44, 44, 44, 3, 3, 62, 62, 44, 44, 44, 62, 62, 62, 26, 3, 26, 3, 26, 3, 3, 26, 3, 26, 3, 26, 3, 26, 26, 26, 26, 26, 26, 26, 26, 26, 26, 26, 26, 26, 26, 26, 26, 26, 26, 26, 26, 26, 26, 26, 26, 26, 26, 26, 26, 26, 26, 26, 26, 26, 26, 26, 26, 26, 26, 26, 26, 26, 3, 3, 3, 26, 26, 26, 26, 26, 26, 26, 26, 26, 26, 26, 26, 26, 26, 26, 26, 26, 26, 26, 26, 26, 26, 26, 26, 26, 26, 26, 26, 26, 26, 26, 26, 26, 26, 26, 26, 26, 26, 26, 26, 26, 26, 26, 26, 26, 26, 37, 38, 38, 38, 39, 3, 3, 3, 3, 91, 92, 92, 92, 92, 92, 56, 56, 56, 56, 56, 56, 56, 56, 56, 56, 56, 56, 56, 56, 56, 56, 56, 56, 56, 56, 56, 56, 56, 56, 56, 3, 3, 56, 56, 56, 20, 20, 20, 20, 20, 20, 3, 3, 20, 20, 20, 20, 20, 20, 20, 20, 20, 20, 20, 20, 20, 20, 3, 3, 3, 20, 3, 20, 3, 20, 62, 62, 62, 62, 62, 62, 62, 62, 62, 62, 62, 62, 62, 62, 62, 62, 62, 62, 62, 3, 98, 98, 62, 62, 62, 62, 62, 62, 62, 62, 62, 62, 62, 62, 62, 62, 62, 62, 62, 62, 62, 62, 3, 3, 62, 62, 62, 62, 62, 62, 62, 62, 3, 3, 62, 62, 62, 62, 62, 62, 62, 62, 26, 3, 26, 3, 26, 3, 3, 26, 3, 26, 3, 26, 3, 56, 56, 56, 56, 56, 56, 56, 56, 56, 56, 56, 56, 56, 56, 56, 56, 56, 56, 56, 56, 56, 56, 56, 56, 56, 56, 56, 56, 56, 56, 56, 56, 56, 56, 56, 56, 56, 56, 56, 56, 56, 3, 3, 3, 56, 56, 56, 56, 56, 56, 56, 56, 56, 56, 56, 56, 56, 56, 56, 56, 56, 56, 56, 56, 56, 56, 56, 56, 56, 56, 56, 56, 56, 56, 56, 56, 56, 56, 56, 56, 56, 56, 56, 56, 56, 56, 56, 56, 56, 56, 56, 56, 56, 56, 56, 3, 3, 3, 3, 91, 92, 92, 92, 92, 92, 56, 56, 56, 56, 56, 56, 56, 56, 56, 56, 56, 1, 56, 56, 56, 56, 56, 56, 57, 55, 56, 56, 56, 56, 57, 3, 3, 55, 56, 56, 20, 20, 20, 20, 20, 20, 3, 3, 20, 20, 20, 20, 20, 20, 20, 20, 20, 20, 20, 20, 20, 20, 3, 3, 3, 20, 3, 20, 3, 20, 62, 62, 62, 62, 62, 62, 62, 62, 62, 62, 62, 62, 62, 62, 62, 62, 62, 1, 63, 3, 98, 98, 61, 62, 62, 62, 62, 62, 62, 62, 62, 62, 62, 62, 62, 62, 62, 62, 62, 62, 62, 63, 3, 3, 62, 62, 62, 62, 62, 1, 62, 63, 3, 3, 62, 62, 62, 62, 62, 62, 62, 62, 26, 3, 26, 3, 26, 3, 3, 26, 3, 26, 3, 26, 3, 55, 56, 56, 56, 56, 56, 57, 55, 56, 56, 56, 56, 56, 56, 56, 56, 56, 56, 56, 56, 56, 56, 57, 55, 56, 56, 56, 56, 56, 56, 56, 56, 56, 56, 56, 56, 56, 56, 56, 56, 56, 3, 3, 3, 56, 56, 56, 56, 56, 56, 56, 56, 56, 56, 56, 56, 56, 56, 56, 56, 56, 56, 56, 56, 56, 56, 56, 56, 56, 56, 56, 56, 56, 56, 56, 56, 56, 56, 56, 56, 56, 56, 56, 56, 56, 56, 56, 56, 56, 56, 56, 56, 56, 56, 56, 3, 3, 3, 3, 91, 92, 92, 92, 92, 92, 56, 56, 56, 57, 3, 3, 3, 3, 3, 3, 3, 3, 3, 3, 3, 3, 3, 3, 3, 3, 3, 3, 3, 3, 3, 3, 3, 3, 55, 56, 20, 20, 20, 20, 20, 20, 3, 3, 3, 3, 3, 3, 3, 3, 3, 3, 3, 3, 3, 3, 3, 3, 3, 3, 3, 3, 3, 3, 3, 20, 62, 63, 3, 3, 3, 3, 3, 3, 3, 3, 3, 3, 3, 3, 61, 62, 63, 3, 3, 3, 98, 98, 3, 3, 3, 3, 3, 3, 3, 3, 3, 3, 3, 3, 3, 3, 3, 3, 3, 3, 3, 3, 3, 3, 62, 62, 62, 62, 63, 3, 3, 3, 3, 3, 62, 62, 62, 62, 62, 62, 62, 62, 3, 3, 3, 3, 3, 3, 3, 3, 3, 3, 3, 3, 3, 3, 55, 56, 56, 56, 56, 3, 3, 3, 3, 3, 3, 55, 56, 56, 56, 56, 56, 56, 57, 55, 57, 3, 3, 55, 56, 56, 56, 56, 56, 56, 56, 56, 56, 56, 56, 57, 3, 3, 3, 3, 3, 3, 3, 3, 3, 3, 3, 3, 3, 3, 3, 3, 3, 3, 3, 3, 3, 3, 3, 3, 3, 3, 3, 3, 3, 3, 3, 3, 3, 3, 3, 3, 3, 3, 3, 3, 56, 56, 56, 56, 56, 56, 56, 56, 56, 56, 56, 56, 56, 56, 56, 56, 56, 56, 3, 3, 3, 3, 91, 92, 92, 92, 92, 92, 56, 56, 57, 3, 3, 4, 6, 3, 4, 6, 3, 3, 3, 3, 3, 3, 3, 3, 3, 3, 3, 3, 3, 3, 3, 3, 3, 3, 3, 55, 20, 20, 20, 20, 20, 20, 20, 20, 20, 20, 20, 20, 20, 20, 20, 20, 20, 20, 20, 20, 20, 20, 3, 3, 3, 3, 3, 3, 3, 3, 63, 3, 3, 3, 3, 3, 3, 40, 143, 42, 3, 3, 3, 3, 3, 62, 3, 3, 3, 3, 98, 98, 3, 8, 3, 3, 3, 8, 3, 3, 3, 3, 3, 3, 3, 3, 3, 3, 8, 3, 3, 3, 3, 3, 61, 62, 62, 63, 3, 3, 3, 3, 3, 3, 62, 62, 62, 62, 62, 62, 62, 63, 3, 3, 3, 3, 26, 3, 3, 26, 3, 26, 3, 26, 3, 3, 3, 55, 56, 56, 56, 3, 3, 3, 3, 3, 3, 3, 56, 56, 56, 56, 56, 57, 3, 3, 3, 3, 3, 3, 56, 56, 56, 56, 56, 56, 56, 56, 56, 56, 57, 3, 3, 3, 3, 3, 3, 3, 3, 3, 3, 3, 3, 3, 3, 3, 3, 3, 3, 3, 3, 3, 3, 3, 3, 3, 3, 3, 3, 3, 3, 3, 3, 3, 3, 3, 3, 3, 3, 3, 3, 3, 55, 56, 57, 55, 56, 56, 56, 57, 55, 56, 57, 55, 57, 57, 55, 56, 56, 57, 3, 3, 3, 3, 91, 92, 92, 92, 92, 92, 56, 57, 3, 3, 3, 22, 24, 3, 22, 24, 3, 3, 3, 3, 3, 3, 3, 3, 3, 3, 3, 3, 3, 3, 3, 3, 3, 3, 3, 3, 3, 3, 20, 20, 20, 20, 20, 20, 20, 20, 20, 20, 20, 20, 20, 20, 20, 20, 20, 20, 20, 20, 3, 3, 3, 3, 3, 3, 3, 3, 3, 3, 3, 3, 21, 3, 21, 58, 1, 60, 21, 3, 21, 3, 3, 62, 3, 3, 3, 3, 98, 98, 3, 3, 3, 8, 3, 3, 3, 3, 3, 3, 3, 3, 3, 3, 3, 3, 3, 3, 8, 3, 3, 3, 3, 62, 63, 3, 3, 3, 3, 3, 3, 3, 61, 62, 62, 62, 62, 62, 63, 3, 26, 3, 26, 3, 3, 3, 3, 3, 3, 3, 3, 3, 3, 3, 3, 3, 55, 56, 56, 3, 3, 3, 2, 3, 3, 3, 55, 56, 57, 55, 57, 3, 3, 3, 3, 3, 3, 3, 55, 57, 55, 57, 55, 56, 57, 55, 56, 57, 3, 3, 3, 3, 3, 3, 3, 3, 3, 3, 3, 3, 3, 3, 3, 3, 3, 3, 3, 3, 3, 3, 3, 3, 3, 3, 3, 3, 3, 3, 3, 3, 3, 3, 3, 3, 3, 3, 3, 3, 3, 3, 3, 3, 3, 3, 3, 3, 3, 3, 3, 3, 3, 3, 3, 3, 3, 3, 3, 3, 3, 3, 3, 3, 91, 92, 92, 92, 92, 92, 56, 3, 3, 3, 3, 3, 3, 3, 3, 3, 3, 3, 3, 3, 3, 3, 3, 3, 3, 3, 3, 3, 3, 3, 3, 3, 3, 3, 3, 3, 3, 3, 3, 3, 3, 3, 20, 20, 20, 20, 20, 20, 20, 20, 20, 20, 20, 20, 20, 20, 20, 20, 3, 3, 3, 20, 3, 3, 3, 3, 3, 3, 3, 3, 3, 3, 3, 3, 3, 3, 3, 3, 3, 3, 3, 62, 3, 3, 8, 3, 98, 98, 3, 8, 3, 3, 3, 8, 3, 3, 3, 3, 8, 3, 3, 8, 3, 3, 8, 3, 3, 3, 3, 3, 3, 3, 3, 3, 3, 3, 3, 3, 3, 3, 3, 3, 3, 3, 3, 3, 3, 3, 3, 3, 3, 3, 26, 3, 3, 26, 3, 26, 3, 26, 3, 3, 3, 3, 3, 55, 57, 3, 3, 2, 3, 2, 3, 3, 3, 3, 3, 3, 3, 3, 3, 3, 3, 3, 3, 3, 3, 3, 3, 3, 3, 3, 3, 3, 3, 3, 3, 3, 3, 3, 3, 3, 3, 3, 3, 3, 3, 3, 3, 3, 3, 3, 3, 3, 3, 3, 3, 3, 3, 3, 3, 3, 3, 3, 3, 3, 3, 3, 3, 3, 3, 3, 3, 3, 3, 3, 3, 3, 3, 3, 3, 3, 3, 3, 3, 3, 3, 3, 3, 3, 3, 3, 3, 3, 3, 3, 3, 3, 3, 130, 92, 92, 92, 92, 92, 92, 56, 39, 3, 3, 3, 3, 4, 6, 3, 4, 6, 3, 3, 3, 3, 3, 3, 3, 3, 3, 3, 3, 3, 3, 3, 3, 3, 3, 3, 3, 3, 3, 3, 3, 3, 3, 20, 20, 20, 20, 20, 20, 20, 20, 20, 20, 20, 20, 20, 20, 20, 20, 3, 3, 3, 3, 3, 3, 3, 3, 3, 3, 3, 3, 21, 3, 21, 3, 3, 3, 21, 3, 21, 3, 3, 62, 3, 3, 3, 3, 98, 98, 3, 3, 3, 8, 3, 3, 3, 3, 3, 3, 3, 3, 3, 3, 3, 3, 3, 3, 8, 3, 3, 3, 3, 44, 45, 3, 3, 3, 3, 3, 3, 3, 3, 3, 3, 3, 3, 44, 45, 3, 26, 3, 26, 3, 3, 3, 3, 3, 3, 3, 3, 3, 3, 3, 3, 3, 3, 3, 3, 3, 3, 3, 2, 3, 3, 3, 37, 38, 39, 37, 39, 3, 3, 3, 3, 3, 3, 3, 37, 39, 37, 39, 37, 38, 39, 37, 38, 39, 3, 3, 73, 74, 74, 74, 74, 74, 74, 74, 74, 74, 74, 74, 74, 74, 74, 74, 74, 74, 74, 74, 74, 74, 74, 74, 74, 74, 74, 74, 74, 74, 74, 74, 74, 74, 74, 74, 74, 74, 74, 74, 74, 74, 74, 74, 74, 74, 74, 74, 74, 74, 74, 74, 74, 74, 74, 74, 74, 74, 74, 74, 74, 92, 92, 92, 92, 92, 92, 92, 56, 56, 39, 3, 3, 3, 22, 24, 3, 22, 24, 3, 3, 3, 3, 3, 3, 3, 3, 3, 3, 3, 3, 3, 3, 3, 3, 3, 3, 37, 20, 20, 3, 3, 3, 3, 20, 20, 20, 20, 20, 20, 20, 20, 20, 20, 20, 20, 20, 20, 20, 20, 3, 3, 3, 3, 3, 3, 3, 3, 45, 3, 3, 3, 3, 3, 3, 3, 3, 3, 3, 3, 3, 3, 3, 62, 3, 3, 3, 3, 98, 98, 3, 8, 3, 3, 3, 8, 3, 3, 3, 3, 3, 3, 3, 3, 3, 3, 8, 3, 3, 3, 3, 3, 43, 62, 62, 3, 3, 3, 3, 3, 3, 3, 3, 3, 3, 3, 3, 62, 62, 45, 3, 3, 3, 3, 26, 3, 3, 26, 3, 26, 3, 26, 3, 3, 3, 3, 3, 3, 3, 3, 3, 3, 3, 3, 3, 3, 56, 56, 56, 56, 56, 39, 3, 3, 3, 3, 3, 3, 56, 56, 56, 56, 56, 56, 56, 56, 56, 56, 39, 3, 91, 92, 92, 92, 92, 92, 92, 92, 92, 92, 92, 92, 92, 92, 92, 92, 92, 92, 92, 92, 92, 92, 92, 92, 92, 92, 92, 92, 92, 92, 92, 92, 92, 92, 92, 92, 92, 92, 92, 92, 92, 92, 92, 92, 92, 92, 92, 92, 92, 92, 92, 92, 92, 92, 92, 92, 92, 92, 92, 92, 92, 92, 92, 92, 92, 92, 92, 92, 56, 56, 56, 39, 3, 3, 3, 3, 3, 3, 3, 3, 3, 3, 3, 3, 3, 3, 3, 3, 3, 3, 3, 3, 3, 3, 3, 3, 37, 56, 20, 20, 3, 3, 3, 3, 3, 3, 3, 3, 3, 3, 3, 3, 3, 3, 3, 3, 3, 3, 3, 3, 3, 3, 3, 3, 3, 3, 3, 20, 62, 45, 3, 3, 3, 3, 3, 3, 3, 3, 3, 3, 3, 3, 43, 62, 45, 3, 3, 3, 98, 98, 3, 3, 3, 3, 3, 3, 3, 3, 3, 3, 3, 3, 3, 3, 3, 3, 3, 3, 3, 3, 3, 3, 62, 62, 62, 3, 3, 3, 3, 3, 3, 3, 3, 3, 3, 3, 3, 62, 62, 62, 3, 3, 3, 3, 3, 3, 3, 3, 3, 3, 3, 3, 3, 3, 3, 3, 3, 37, 39, 3, 3, 3, 3, 3, 3, 37, 56, 56, 56, 56, 56, 56, 39, 37, 39, 3, 3, 37, 56, 56, 56, 56, 56, 56, 56, 56, 56, 56, 56, 39, 91, 92, 92, 92, 92, 92, 92, 92, 92, 92, 92, 92, 92, 92, 92, 92, 92, 92, 92, 92, 92, 92, 92, 92, 92, 92, 92, 92, 92, 92, 92, 92, 92, 92, 92, 92, 92, 92, 92, 92, 92, 92, 92, 92, 92, 92, 92, 92, 92, 92, 92, 92, 92, 92, 92, 92, 92, 92, 92, 92, 92, 92, 92, 92, 92, 92, 92, 92, 56, 56, 56, 56, 38, 38, 38, 38, 38, 38, 38, 38, 38, 38, 38, 38, 38, 38, 38, 38, 38, 38, 38, 38, 38, 38, 38, 38, 56, 56, 20, 20, 20, 20, 20, 20, 20, 20, 20, 20, 20, 20, 20, 20, 20, 20, 20, 20, 20, 20, 20, 20, 20, 20, 20, 20, 20, 20, 20, 20, 62, 62, 44, 44, 44, 44, 44, 44, 44, 44, 44, 44, 44, 44, 62, 62, 62, 44, 44, 45, 98, 98, 43, 44, 44, 44, 44, 44, 44, 44, 44, 44, 44, 44, 44, 44, 44, 44, 44, 44, 44, 44, 44, 44, 62, 62, 62, 44, 44, 44, 44, 44, 44, 44, 44, 44, 44, 44, 44, 62, 62, 62, 26, 26, 26, 26, 26, 26, 26, 26, 26, 26, 26, 26, 26, 37, 38, 38, 38, 56, 56, 39, 37, 38, 38, 38, 38, 56, 56, 56, 56, 56, 56, 56, 56, 56, 56, 39, 37, 56, 56, 56, 56, 56, 56, 56, 56, 56, 56, 56, 56, 56, 91, 92, 92, 92, 92, 92, 92, 92, 92, 92, 92, 92, 92, 92, 92, 92, 92, 92, 92, 92, 92, 92, 92, 92, 92, 92, 92, 92, 92, 92, 92, 92, 92, 92, 92, 92, 92, 92, 92, 92, 92, 92, 92, 92, 92, 92, 92, 92, 92, 92, 92, 92, 92, 92, 92, 92, 92, 92, 92, 92, 92, 92, 92, 92, 92, 92, 92, 92]}, {"type": "tilelayer", "name": "Collision", "id": 2, "width": 240, "height": 80, "x": 0, "y": 0, "opacity": 1, "visible": false, "data": [1, 1, 1, 1, 1, 1, 1, 1, 1, 1, 1, 1, 1, 1, 1, 1, 1, 1, 1, 1, 1, 1, 1, 1, 1, 1, 1, 1, 1, 1, 1, 1, 1, 1, 1, 1, 1, 1, 1, 1, 1, 1, 1, 1, 1, 1, 1, 1, 1, 1, 1, 1, 1, 1, 1, 1, 1, 1, 1, 1, 1, 1, 1, 1, 1, 1, 1, 1, 1, 1, 1, 1, 1, 1, 1, 1, 1, 1, 1, 1, 1, 1, 1, 1, 1, 1, 1, 1, 1, 1, 1, 1, 1, 1, 1, 1, 1, 1, 1, 1, 1, 1, 1, 1, 1, 1, 1, 1, 1, 1, 1, 1, 1, 1, 1, 1, 1, 1, 1, 1, 1, 1, 1, 1, 1, 1, 1, 1, 1, 1, 1, 1, 1, 1, 1, 1, 1, 1, 1, 1, 1, 1, 1, 1, 1, 1, 1, 1, 1, 1, 1, 1, 1, 1, 1, 1, 1, 1, 1, 1, 1, 1, 1, 1, 1, 1, 1, 1, 1, 1, 1, 1, 1, 1, 1, 1, 1, 1, 1, 1, 1, 1, 1, 1, 1, 1, 1, 1, 1, 1, 1, 1, 1, 1, 1, 1, 1, 1, 1, 1, 1, 1, 1, 1, 1, 1, 1, 1, 1, 1, 1, 1, 1, 1, 1, 1, 1, 1, 1, 1, 1, 1, 1, 1, 1, 1, 1, 1, 1, 1, 1, 1, 1, 1, 1, 1, 1, 1, 1, 1, 1, 1, 1, 1, 1, 1, 1, 1, 1, 1, 1, 1, 1, 1, 1, 1, 1, 1, 1, 1, 1, 1, 1, 1, 1, 1, 1, 1, 1, 1, 1, 1, 1, 1, 1, 1, 1, 1, 1, 1, 1, 1, 1, 1, 1, 1, 1, 1, 1, 1, 1, 1, 1, 1, 1, 1, 1, 1, 1, 1, 1, 1, 1, 1, 1, 1, 1, 1, 1, 1, 1, 1, 0, 1, 1, 1, 1, 1, 1, 1, 1, 1, 1, 1, 1, 1, 1, 1, 1, 1, 1, 1, 1, 1, 1, 1, 1, 1, 1, 1, 1, 1, 1, 1, 1, 1, 1, 1, 1, 1, 1, 1, 1, 1, 1, 1, 1, 1, 1, 1, 1, 1, 1, 1, 1, 1, 1, 1, 1, 1, 1, 1, 1, 1, 1, 1, 1, 1, 1, 1, 1, 1, 1, 1, 1, 1, 1, 1, 1, 1, 1, 1, 0, 1, 1, 1, 1, 1, 1, 1, 1, 1, 1, 1, 1, 1, 1, 1, 1, 1, 1, 1, 1, 1, 1, 1, 1, 1, 1, 1, 1, 1, 1, 1, 1, 1, 1, 1, 0, 1, 1, 1, 1, 1, 1, 1, 1, 1, 1, 1, 1, 1, 1, 1, 1, 1, 1, 1, 1, 1, 1, 1, 1, 1, 1, 1, 1, 1, 1, 1, 1, 1, 1, 1, 1, 1, 1, 1, 1, 1, 1, 1, 1, 1, 1, 1, 1, 1, 1, 1, 1, 1, 1, 1, 1, 1, 1, 1, 1, 1, 1, 1, 1, 1, 1, 1, 1, 1, 1, 1, 1, 1, 1, 1, 0, 0, 0, 0, 0, 1, 1, 1, 1, 1, 1, 1, 1, 1, 1, 1, 1, 1, 1, 1, 1, 1, 0, 0, 1, 1, 1, 1, 1, 1, 1, 1, 1, 1, 1, 1, 1, 1, 1, 1, 1, 1, 1, 1, 1, 1, 1, 0, 0, 0, 0, 1, 1, 1, 0, 0, 0, 0, 0, 0, 0, 0, 0, 0, 0, 1, 1, 1, 1, 1, 1, 1, 1, 0, 0, 1, 1, 1, 1, 1, 1, 1, 1, 1, 1, 1, 1, 1, 1, 1, 1, 1, 1, 1, 1, 1, 1, 1, 1, 1, 1, 1, 1, 0, 0, 1, 1, 1, 1, 1, 1, 1, 1, 1, 1, 0, 0, 0, 0, 0, 0, 0, 0, 0, 1, 1, 1, 1, 0, 0, 0, 0, 0, 0, 0, 0, 0, 0, 0, 0, 1, 1, 1, 1, 0, 0, 0, 0, 0, 0, 0, 0, 0, 0, 0, 1, 1, 1, 1, 1, 1, 1, 1, 1, 0, 0, 0, 0, 1, 1, 1, 0, 0, 1, 1, 1, 1, 0, 0, 0, 0, 1, 1, 1, 1, 1, 1, 1, 1, 1, 1, 1, 1, 1, 1, 1, 1, 1, 1, 1, 1, 1, 1, 0, 0, 0, 0, 0, 0, 0, 0, 0, 0, 0, 0, 1, 1, 1, 1, 1, 1, 1, 1, 1, 1, 1, 1, 1, 1, 1, 1, 1, 1, 0, 1, 1, 1, 1, 1, 1, 0, 0, 0, 0, 0, 1, 1, 1, 1, 1, 1, 1, 1, 1, 1, 1, 0, 0, 1, 1, 1, 1, 0, 0, 0, 1, 1, 1, 1, 1, 1, 1, 1, 1, 1, 1, 1, 1, 1, 1, 1, 1, 1, 1, 1, 1, 0, 0, 0, 0, 0, 0, 0, 0, 0, 1, 1, 0, 0, 0, 0, 1, 1, 0, 0, 0, 1, 1, 1, 1, 0, 0, 0, 0, 0, 0, 1, 1, 1, 1, 1, 1, 1, 1, 1, 1, 1, 1, 1, 1, 1, 1, 1, 1, 1, 1, 1, 1, 1, 1, 0, 0, 0, 0, 0, 0, 1, 1, 1, 1, 1, 1, 0, 0, 0, 0, 0, 1, 0, 0, 0, 0, 0, 0, 0, 1, 1, 0, 0, 1, 1, 1, 1, 1, 1, 1, 1, 1, 0, 0, 0, 1, 1, 0, 0, 0, 0, 1, 1, 1, 0, 0, 0, 0, 0, 0, 1, 1, 1, 1, 1, 1, 1, 0, 0, 0, 0, 0, 1, 1, 0, 0, 0, 0, 1, 1, 0, 0, 0, 0, 0, 0, 1, 1, 1, 1, 1, 1, 1, 1, 1, 1, 1, 1, 1, 1, 1, 1, 1, 1, 1, 1, 1, 0, 0, 1, 1, 0, 1, 1, 1, 0, 1, 1, 0, 1, 1, 1, 1, 1, 1, 1, 1, 1, 1, 1, 1, 1, 1, 1, 1, 1, 0, 0, 1, 1, 1, 1, 1, 1, 0, 0, 0, 0, 0, 0, 1, 1, 1, 1, 1, 1, 1, 1, 1, 1, 0, 0, 0, 1, 1, 1, 0, 0, 0, 0, 1, 1, 1, 1, 1, 1, 1, 1, 1, 1, 1, 1, 1, 1, 1, 1, 1, 1, 1, 0, 0, 0, 0, 0, 0, 0, 0, 0, 1, 1, 1, 1, 0, 0, 1, 1, 1, 1, 0, 0, 1, 1, 1, 0, 0, 0, 0, 0, 0, 0, 1, 1, 1, 1, 1, 1, 1, 1, 1, 1, 1, 1, 0, 0, 1, 1, 1, 1, 1, 1, 1, 1, 1, 0, 0, 0, 0, 0, 0, 0, 1, 1, 1, 1, 1, 1, 0, 0, 0, 0, 1, 0, 0, 0, 0, 0, 0, 0, 0, 0, 1, 0, 0, 1, 1, 1, 1, 1, 1, 1, 1, 1, 0, 0, 0, 1, 0, 0, 1, 0, 1, 1, 0, 1, 1, 0, 1, 0, 0, 0, 1, 1, 1, 1, 1, 1, 1, 0, 0, 0, 0, 0, 0, 0, 0, 0, 0, 0, 0, 0, 0, 0, 0, 0, 0, 0, 0, 1, 1, 1, 1, 1, 1, 1, 1, 0, 1, 1, 1, 1, 1, 1, 1, 1, 1, 1, 1, 0, 0, 1, 1, 0, 1, 0, 1, 0, 1, 1, 0, 1, 1, 1, 1, 1, 1, 1, 1, 0, 0, 0, 0, 0, 0, 0, 0, 0, 0, 0, 0, 0, 0, 0, 0, 0, 0, 0, 0, 0, 0, 0, 0, 0, 0, 0, 0, 0, 0, 0, 0, 0, 0, 0, 0, 0, 0, 0, 0, 0, 0, 0, 0, 0, 0, 0, 0, 0, 1, 1, 1, 1, 1, 1, 0, 0, 0, 0, 1, 1, 0, 0, 0, 0, 0, 0, 0, 0, 0, 0, 1, 1, 1, 1, 0, 0, 1, 1, 1, 1, 0, 0, 0, 0, 0, 0, 0, 0, 0, 0, 0, 0, 0, 0, 0, 0, 0, 0, 0, 0, 0, 0, 0, 0, 0, 0, 0, 0, 0, 0, 0, 0, 0, 0, 0, 0, 0, 0, 0, 0, 0, 0, 0, 0, 0, 0, 0, 0, 0, 0, 0, 1, 0, 1, 0, 1, 0, 1, 0, 1, 0, 0, 1, 0, 0, 1, 1, 1, 1, 1, 1, 1, 1, 1, 0, 0, 0, 1, 0, 0, 0, 0, 0, 0, 0, 0, 0, 0, 0, 0, 0, 0, 1, 1, 1, 1, 1, 0, 0, 0, 0, 0, 0, 0, 0, 0, 0, 0, 0, 0, 0, 0, 0, 0, 0, 0, 0, 0, 0, 0, 0, 1, 1, 1, 1, 1, 1, 0, 1, 1, 1, 1, 1, 1, 1, 1, 1, 1, 1, 0, 0, 0, 0, 0, 0, 0, 0, 0, 0, 0, 0, 1, 1, 1, 1, 1, 1, 1, 1, 0, 1, 1, 1, 1, 1, 1, 1, 1, 0, 0, 0, 0, 0, 0, 0, 0, 0, 0, 0, 0, 0, 0, 1, 1, 1, 0, 1, 1, 1, 1, 1, 1, 0, 0, 0, 0, 0, 0, 0, 0, 0, 0, 1, 1, 1, 1, 1, 0, 1, 1, 1, 1, 1, 0, 0, 0, 0, 0, 0, 0, 0, 0, 0, 0, 0, 0, 0, 0, 0, 0, 1, 1, 1, 1, 0, 0, 1, 1, 1, 1, 0, 0, 1, 1, 1, 0, 0, 0, 0, 0, 0, 0, 1, 1, 1, 1, 1, 1, 1, 1, 1, 0, 1, 1, 0, 0, 1, 1, 1, 1, 1, 1, 1, 1, 1, 0, 0, 0, 0, 0, 0, 0, 1, 1, 1, 1, 1, 1, 0, 0, 0, 0, 1, 0, 0, 0, 0, 0, 0, 0, 0, 0, 1, 0, 0, 1, 1, 1, 1, 1, 1, 1, 1, 1, 0, 0, 0, 1, 0, 0, 1, 0, 1, 0, 0, 0, 1, 0, 1, 0, 0, 0, 1, 1, 1, 1, 1, 0, 1, 0, 0, 0, 0, 0, 0, 0, 0, 0, 0, 0, 0, 0, 0, 0, 0, 0, 0, 0, 0, 0, 0, 0, 1, 1, 1, 1, 1, 0, 1, 1, 1, 1, 1, 1, 1, 1, 1, 1, 1, 0, 0, 0, 0, 0, 0, 0, 0, 0, 0, 0, 0, 1, 1, 1, 1, 1, 1, 1, 1, 0, 1, 1, 1, 1, 1, 1, 1, 1, 1, 0, 0, 0, 0, 0, 0, 0, 0, 0, 0, 0, 0, 1, 1, 1, 1, 0, 1, 1, 1, 1, 1, 1, 0, 0, 0, 0, 0, 0, 0, 0, 0, 1, 1, 1, 1, 1, 1, 0, 1, 1, 1, 1, 1, 0, 0, 0, 0, 0, 0, 0, 0, 0, 0, 0, 0, 0, 0, 0, 0, 0, 0, 0, 0, 0, 0, 0, 0, 0, 0, 0, 0, 0, 1, 1, 1, 1, 0, 0, 0, 0, 0, 0, 1, 1, 1, 1, 1, 1, 1, 1, 1, 0, 1, 1, 1, 1, 1, 1, 1, 1, 1, 1, 1, 1, 1, 1, 0, 0, 0, 0, 0, 0, 1, 1, 1, 1, 1, 1, 0, 0, 0, 0, 0, 1, 0, 0, 0, 0, 0, 0, 0, 1, 1, 0, 0, 0, 0, 0, 1, 0, 0, 0, 0, 0, 0, 0, 0, 1, 1, 0, 0, 0, 0, 0, 0, 0, 0, 0, 0, 0, 0, 0, 1, 1, 1, 1, 1, 0, 1, 0, 0, 0, 0, 0, 1, 1, 0, 0, 0, 0, 1, 1, 0, 0, 0, 0, 0, 0, 0, 0, 0, 0, 1, 1, 1, 1, 1, 0, 1, 1, 1, 1, 1, 1, 1, 1, 1, 1, 1, 0, 0, 0, 0, 0, 0, 0, 0, 0, 0, 0, 0, 1, 1, 1, 1, 1, 1, 1, 1, 0, 1, 1, 1, 1, 1, 1, 1, 1, 1, 0, 0, 0, 0, 0, 0, 0, 0, 0, 0, 0, 0, 1, 1, 1, 1, 0, 1, 1, 1, 1, 1, 1, 1, 0, 0, 0, 0, 0, 0, 0, 1, 1, 1, 1, 1, 1, 1, 0, 1, 1, 1, 1, 1, 1, 0, 0, 0, 0, 1, 1, 0, 0, 0, 0, 0, 0, 0, 1, 1, 1, 0, 0, 0, 0, 0, 0, 0, 0, 0, 0, 0, 1, 1, 1, 1, 1, 1, 1, 1, 0, 0, 1, 1, 1, 1, 1, 1, 1, 1, 1, 1, 0, 1, 1, 1, 1, 1, 1, 1, 1, 1, 1, 1, 1, 1, 1, 1, 1, 1, 0, 0, 1, 1, 1, 1, 1, 1, 1, 1, 1, 1, 0, 0, 0, 0, 0, 0, 0, 0, 0, 1, 1, 1, 1, 0, 0, 0, 0, 1, 0, 0, 0, 0, 0, 0, 0, 1, 1, 1, 1, 0, 0, 0, 0, 0, 0, 0, 0, 0, 0, 0, 1, 1, 1, 1, 1, 1, 0, 1, 1, 0, 0, 0, 0, 1, 1, 1, 0, 0, 1, 1, 1, 1, 0, 0, 0, 0, 0, 0, 0, 0, 1, 1, 1, 1, 1, 1, 0, 1, 1, 1, 1, 1, 1, 1, 1, 1, 1, 1, 0, 0, 0, 0, 0, 0, 0, 0, 0, 0, 0, 0, 1, 1, 1, 1, 1, 1, 1, 1, 0, 1, 1, 1, 1, 1, 1, 1, 1, 1, 1, 1, 1, 1, 1, 0, 1, 1, 1, 1, 1, 1, 1, 1, 1, 1, 0, 1, 1, 1, 1, 1, 1, 1, 1, 1, 1, 1, 1, 1, 1, 1, 1, 1, 1, 1, 1, 1, 0, 1, 1, 1, 1, 1, 1, 1, 1, 1, 1, 1, 1, 1, 1, 1, 1, 1, 1, 1, 1, 1, 1, 1, 1, 1, 1, 1, 1, 1, 1, 1, 1, 1, 1, 1, 1, 1, 1, 1, 1, 1, 1, 1, 1, 1, 1, 1, 1, 1, 1, 1, 1, 1, 0, 1, 1, 1, 1, 1, 1, 1, 1, 1, 1, 1, 1, 1, 1, 1, 1, 1, 1, 1, 1, 1, 1, 1, 1, 1, 1, 1, 1, 1, 1, 1, 1, 1, 1, 1, 1, 1, 1, 1, 1, 1, 1, 1, 1, 1, 1, 1, 1, 1, 1, 1, 1, 1, 0, 1, 1, 1, 1, 1, 1, 1, 1, 0, 1, 1, 1, 1, 1, 1, 1, 1, 1, 1, 1, 1, 0, 1, 1, 1, 1, 1, 1, 1, 1, 1, 1, 1, 1, 1, 1, 1, 1, 1, 1, 1, 1, 1, 1, 0, 1, 1, 1, 1, 1, 1, 0, 1, 1, 1, 1, 1, 1, 1, 1, 1, 1, 1, 1, 1, 1, 1, 1, 1, 0, 1, 1, 1, 1, 1, 1, 1, 1, 1, 1, 1, 1, 1, 0, 1, 1, 1, 1, 1, 1, 1, 1, 1, 1, 1, 1, 1, 1, 0, 1, 1, 1, 1, 1, 1, 1, 1, 1, 1, 0, 1, 1, 1, 1, 1, 1, 1, 1, 1, 1, 1, 1, 1, 1, 1, 1, 1, 1, 1, 1, 1, 0, 1, 1, 1, 1, 1, 1, 1, 1, 1, 1, 1, 1, 1, 1, 1, 1, 1, 1, 1, 1, 1, 1, 1, 1, 1, 1, 1, 1, 1, 1, 1, 1, 1, 1, 1, 1, 1, 1, 1, 1, 1, 1, 1, 1, 1, 1, 1, 1, 1, 1, 1, 1, 1, 0, 1, 1, 1, 1, 1, 1, 1, 1, 1, 1, 1, 1, 1, 1, 1, 1, 1, 1, 1, 1, 1, 1, 1, 1, 1, 1, 1, 1, 1, 1, 1, 1, 1, 1, 1, 1, 1, 1, 1, 1, 1, 1, 1, 1, 1, 1, 1, 1, 1, 1, 1, 1, 1, 0, 1, 1, 1, 1, 1, 1, 1, 1, 0, 1, 1, 1, 1, 1, 1, 1, 1, 1, 1, 1, 1, 0, 1, 1, 1, 1, 1, 1, 1, 1, 1, 1, 1, 1, 1, 1, 1, 1, 1, 1, 1, 1, 1, 1, 0, 1, 1, 1, 1, 1, 1, 0, 1, 1, 1, 1, 1, 1, 1, 1, 1, 1, 1, 1, 1, 1, 1, 1, 1, 0, 1, 1, 1, 1, 1, 1, 1, 1, 1, 1, 1, 1, 1, 0, 1, 1, 1, 1, 1, 1, 1, 1, 1, 1, 1, 1, 1, 1, 0, 1, 1, 1, 1, 1, 1, 1, 1, 1, 1, 0, 1, 1, 1, 1, 1, 1, 1, 1, 1, 1, 1, 1, 1, 1, 1, 1, 1, 1, 1, 1, 1, 0, 1, 1, 1, 1, 1, 1, 1, 1, 1, 1, 1, 1, 1, 1, 1, 1, 1, 1, 1, 1, 1, 1, 1, 1, 1, 1, 1, 1, 1, 1, 1, 1, 1, 1, 1, 1, 1, 1, 1, 1, 1, 1, 1, 1, 1, 1, 1, 1, 1, 1, 1, 1, 1, 0, 1, 1, 1, 1, 1, 1, 1, 1, 1, 1, 1, 1, 1, 1, 1, 1, 1, 1, 1, 1, 1, 1, 1, 1, 1, 1, 1, 1, 1, 1, 1, 1, 1, 1, 1, 1, 1, 1, 1, 1, 1, 1, 1, 1, 1, 1, 1, 1, 1, 1, 1, 1, 1, 0, 1, 1, 1, 1, 1, 1, 1, 1, 0, 1, 1, 1, 1, 1, 1, 1, 1, 1, 1, 1, 1, 0, 1, 1, 1, 1, 1, 1, 1, 1, 1, 1, 1, 1, 1, 1, 1, 1, 1, 1, 1, 1, 1, 1, 0, 1, 1, 1, 1, 1, 1, 0, 1, 1, 1, 1, 1, 1, 1, 1, 1, 1, 1, 1, 1, 1, 1, 1, 1, 0, 1, 1, 1, 1, 1, 1, 1, 1, 1, 0, 0, 0, 0, 0, 0, 0, 0, 0, 0, 0, 0, 0, 0, 0, 0, 0, 0, 0, 0, 0, 0, 0, 0, 0, 0, 1, 1, 1, 1, 0, 1, 1, 1, 1, 0, 0, 0, 0, 0, 0, 0, 0, 0, 0, 1, 1, 1, 1, 1, 1, 1, 0, 1, 1, 1, 1, 0, 0, 0, 0, 0, 0, 0, 0, 0, 0, 0, 0, 0, 0, 1, 1, 1, 1, 1, 1, 1, 1, 1, 0, 0, 1, 1, 0, 0, 1, 1, 1, 0, 0, 1, 1, 0, 0, 1, 1, 1, 1, 1, 1, 1, 0, 0, 1, 1, 0, 1, 1, 1, 1, 1, 1, 1, 1, 1, 1, 1, 1, 1, 1, 1, 1, 1, 1, 1, 1, 1, 1, 1, 1, 1, 1, 1, 1, 1, 1, 1, 1, 1, 1, 1, 1, 1, 1, 1, 1, 1, 1, 1, 1, 1, 1, 1, 1, 1, 1, 1, 1, 1, 0, 1, 1, 1, 1, 0, 0, 0, 0, 0, 0, 0, 0, 0, 0, 1, 1, 1, 1, 0, 0, 0, 0, 0, 0, 0, 0, 0, 0, 0, 0, 0, 0, 0, 0, 0, 1, 1, 1, 1, 1, 1, 1, 1, 1, 0, 1, 1, 1, 1, 1, 1, 0, 1, 1, 1, 1, 0, 0, 0, 0, 0, 0, 0, 0, 0, 0, 0, 0, 0, 0, 0, 0, 0, 0, 0, 1, 1, 1, 0, 0, 1, 0, 0, 0, 0, 0, 0, 1, 1, 0, 0, 1, 0, 0, 1, 1, 0, 0, 0, 0, 0, 0, 0, 1, 0, 0, 1, 1, 1, 0, 1, 1, 1, 0, 0, 1, 1, 0, 1, 1, 0, 1, 0, 0, 0, 1, 1, 1, 1, 1, 1, 0, 1, 1, 1, 0, 0, 0, 0, 0, 0, 0, 0, 0, 0, 0, 0, 0, 0, 0, 0, 1, 1, 1, 1, 1, 1, 1, 1, 0, 0, 0, 0, 0, 0, 0, 0, 0, 0, 0, 0, 0, 0, 0, 1, 1, 1, 1, 1, 1, 0, 0, 0, 0, 1, 0, 1, 1, 1, 1, 1, 1, 1, 1, 1, 1, 1, 1, 1, 1, 1, 1, 1, 1, 1, 1, 1, 1, 1, 1, 1, 1, 1, 1, 1, 1, 1, 1, 1, 1, 1, 1, 1, 1, 1, 1, 1, 1, 1, 1, 1, 1, 1, 1, 1, 1, 1, 1, 1, 0, 1, 1, 1, 0, 0, 0, 1, 0, 0, 0, 0, 0, 0, 0, 0, 1, 1, 0, 0, 0, 0, 0, 0, 0, 0, 0, 0, 0, 0, 0, 0, 0, 0, 0, 0, 0, 1, 1, 1, 1, 1, 1, 1, 1, 0, 1, 1, 1, 1, 1, 1, 0, 1, 1, 1, 0, 0, 0, 0, 0, 0, 0, 0, 1, 1, 0, 1, 1, 1, 0, 0, 1, 1, 0, 0, 1, 1, 0, 0, 0, 0, 0, 1, 0, 0, 0, 0, 1, 1, 0, 0, 1, 0, 0, 1, 1, 0, 0, 0, 0, 0, 1, 0, 0, 0, 0, 1, 1, 1, 0, 1, 1, 0, 0, 0, 1, 1, 0, 1, 1, 0, 1, 0, 0, 0, 0, 1, 1, 1, 1, 1, 0, 1, 1, 0, 0, 0, 0, 0, 1, 0, 0, 1, 0, 0, 1, 0, 0, 0, 1, 0, 1, 1, 1, 1, 1, 1, 1, 1, 0, 0, 0, 0, 0, 0, 0, 0, 0, 0, 0, 0, 0, 0, 0, 1, 1, 1, 1, 1, 0, 0, 0, 0, 0, 1, 0, 1, 1, 1, 1, 1, 1, 1, 1, 1, 1, 1, 1, 1, 1, 1, 1, 1, 1, 1, 1, 1, 1, 1, 1, 1, 1, 1, 1, 1, 1, 1, 1, 1, 1, 1, 1, 1, 1, 1, 1, 1, 1, 1, 1, 1, 1, 1, 1, 1, 1, 1, 1, 1, 0, 1, 1, 1, 0, 1, 0, 0, 0, 0, 1, 0, 1, 0, 0, 0, 1, 1, 0, 0, 0, 0, 0, 0, 1, 0, 1, 0, 1, 0, 1, 0, 0, 0, 0, 0, 0, 1, 1, 1, 1, 1, 0, 0, 0, 0, 0, 0, 0, 0, 0, 0, 0, 0, 1, 1, 0, 0, 0, 0, 0, 0, 0, 0, 1, 1, 0, 1, 0, 1, 0, 0, 1, 1, 0, 0, 1, 1, 0, 0, 0, 1, 0, 0, 0, 1, 0, 0, 0, 0, 0, 0, 0, 0, 0, 0, 0, 0, 0, 0, 1, 0, 0, 0, 1, 0, 0, 1, 1, 0, 0, 0, 0, 0, 0, 0, 0, 0, 0, 0, 0, 0, 0, 0, 0, 0, 0, 0, 0, 0, 0, 0, 0, 0, 0, 0, 0, 0, 0, 0, 0, 0, 0, 0, 0, 0, 0, 0, 0, 0, 0, 0, 0, 1, 1, 0, 0, 1, 1, 0, 0, 0, 0, 0, 0, 0, 0, 0, 0, 0, 0, 0, 0, 0, 0, 0, 0, 0, 0, 0, 0, 0, 0, 0, 0, 0, 0, 0, 1, 0, 0, 0, 0, 0, 0, 0, 0, 0, 0, 0, 0, 0, 0, 0, 0, 0, 0, 0, 0, 0, 0, 0, 0, 0, 0, 0, 0, 0, 0, 0, 0, 0, 0, 0, 0, 0, 0, 0, 0, 0, 0, 0, 0, 0, 0, 0, 0, 0, 0, 0, 0, 0, 0, 0, 0, 0, 0, 1, 0, 0, 0, 0, 0, 0, 1, 0, 0, 0, 0, 0, 0, 0, 0, 0, 0, 0, 0, 0, 0, 0, 0, 0, 0, 0, 0, 1, 0, 1, 1, 0, 0, 0, 0, 0, 0, 0, 0, 0, 0, 0, 0, 0, 0, 0, 0, 0, 0, 0, 0, 0, 0, 0, 0, 0, 0, 0, 0, 0, 0, 0, 0, 0, 0, 0, 0, 0, 1, 1, 0, 0, 0, 0, 0, 1, 0, 0, 0, 0, 0, 1, 1, 0, 0, 0, 1, 1, 0, 0, 0, 0, 0, 0, 1, 0, 0, 0, 0, 1, 0, 0, 0, 0, 0, 0, 0, 0, 0, 1, 1, 0, 1, 1, 0, 0, 0, 0, 0, 0, 0, 0, 0, 0, 0, 0, 0, 0, 0, 0, 0, 0, 1, 0, 0, 1, 0, 0, 1, 0, 0, 0, 1, 0, 0, 0, 0, 0, 0, 0, 0, 0, 0, 0, 0, 0, 0, 0, 0, 0, 0, 0, 0, 0, 0, 0, 0, 0, 0, 0, 1, 1, 0, 0, 0, 0, 0, 0, 0, 0, 1, 0, 0, 0, 0, 0, 0, 0, 0, 0, 0, 0, 0, 0, 0, 0, 0, 0, 0, 0, 0, 0, 0, 0, 0, 0, 0, 0, 0, 0, 0, 0, 0, 0, 0, 0, 0, 0, 0, 0, 0, 0, 0, 0, 0, 0, 0, 0, 0, 0, 0, 0, 0, 0, 1, 1, 0, 1, 0, 0, 0, 0, 1, 0, 1, 0, 0, 0, 1, 1, 0, 0, 0, 0, 0, 0, 1, 0, 1, 0, 1, 0, 1, 0, 0, 0, 0, 0, 0, 1, 0, 0, 0, 1, 1, 1, 1, 1, 1, 1, 1, 1, 1, 1, 1, 1, 1, 1, 0, 0, 0, 0, 0, 0, 0, 0, 0, 0, 1, 1, 0, 0, 1, 1, 0, 1, 1, 0, 1, 1, 1, 0, 0, 1, 0, 0, 0, 0, 0, 0, 0, 1, 1, 0, 0, 0, 1, 1, 0, 0, 0, 0, 0, 0, 0, 0, 1, 0, 0, 1, 0, 0, 0, 0, 0, 0, 0, 0, 0, 1, 1, 0, 1, 1, 0, 0, 0, 0, 0, 0, 0, 0, 0, 0, 0, 0, 0, 0, 0, 0, 0, 0, 0, 0, 0, 0, 0, 0, 0, 0, 0, 0, 0, 0, 0, 0, 0, 0, 0, 0, 0, 0, 0, 0, 0, 0, 0, 0, 0, 0, 0, 0, 0, 0, 0, 0, 0, 0, 0, 0, 1, 1, 1, 0, 0, 0, 0, 0, 0, 0, 1, 0, 0, 0, 0, 0, 0, 0, 0, 0, 0, 0, 0, 0, 0, 0, 0, 1, 1, 1, 1, 1, 1, 1, 1, 1, 1, 1, 1, 1, 1, 1, 1, 1, 1, 1, 1, 1, 1, 1, 1, 1, 1, 1, 1, 1, 0, 0, 0, 0, 0, 0, 0, 0, 1, 1, 0, 0, 0, 1, 0, 0, 0, 0, 0, 0, 0, 0, 1, 1, 0, 0, 0, 0, 0, 0, 0, 0, 0, 0, 0, 0, 0, 0, 0, 0, 0, 0, 0, 1, 0, 0, 0, 1, 1, 1, 1, 1, 1, 1, 1, 1, 1, 1, 1, 1, 1, 1, 0, 0, 0, 0, 0, 0, 0, 0, 0, 0, 1, 1, 0, 0, 1, 1, 0, 1, 1, 0, 1, 1, 1, 1, 0, 0, 0, 0, 0, 0, 0, 0, 0, 0, 0, 0, 0, 0, 0, 0, 0, 0, 0, 0, 0, 0, 0, 0, 0, 0, 1, 1, 1, 0, 0, 0, 0, 0, 0, 0, 0, 0, 0, 0, 0, 0, 0, 0, 0, 0, 0, 0, 0, 0, 0, 0, 0, 0, 0, 0, 0, 0, 0, 0, 0, 0, 0, 0, 0, 0, 0, 0, 0, 0, 0, 0, 0, 1, 1, 0, 0, 1, 1, 0, 0, 0, 1, 1, 0, 0, 1, 1, 1, 0, 0, 1, 1, 0, 0, 0, 0, 0, 1, 1, 1, 1, 0, 0, 0, 0, 0, 0, 1, 0, 0, 0, 0, 0, 0, 0, 0, 0, 0, 0, 0, 0, 0, 0, 0, 1, 1, 1, 1, 1, 1, 1, 1, 1, 1, 1, 1, 1, 1, 1, 1, 1, 1, 1, 1, 1, 1, 1, 1, 1, 1, 1, 1, 1, 0, 0, 0, 0, 0, 0, 0, 0, 1, 1, 1, 0, 0, 0, 0, 0, 0, 0, 0, 0, 0, 1, 1, 1, 1, 0, 0, 0, 0, 0, 0, 0, 0, 0, 0, 0, 0, 0, 0, 0, 0, 0, 1, 1, 1, 0, 0, 1, 1, 1, 1, 1, 1, 1, 1, 1, 1, 1, 1, 1, 1, 1, 0, 0, 0, 0, 0, 0, 0, 0, 0, 0, 0, 0, 0, 0, 0, 0, 0, 0, 0, 0, 1, 1, 1, 1, 1, 1, 1, 1, 1, 1, 1, 1, 1, 1, 1, 1, 1, 1, 1, 1, 1, 1, 1, 1, 1, 1, 1, 1, 1, 1, 1, 1, 1, 1, 1, 1, 1, 1, 1, 1, 1, 1, 1, 1, 1, 1, 1, 1, 1, 1, 1, 1, 1, 1, 1, 1, 1, 1, 1, 1, 1, 1, 1, 1, 1, 1, 1, 1, 1, 1, 1, 0, 1, 1, 1, 1, 1, 1, 1, 0, 1, 1, 1, 1, 1, 1, 1, 1, 1, 0, 1, 1, 1, 1, 1, 1, 1, 1, 1, 1, 1, 1, 1, 1, 1, 1, 1, 1, 1, 1, 1, 1, 1, 0, 0, 0, 0, 1, 1, 1, 1, 1, 1, 1, 1, 1, 1, 1, 1, 1, 1, 1, 1, 1, 1, 1, 1, 1, 1, 1, 1, 1, 1, 1, 1, 1, 1, 1, 1, 1, 1, 1, 1, 1, 1, 1, 1, 1, 1, 1, 1, 1, 1, 1, 1, 1, 1, 1, 1, 1, 1, 1, 1, 0, 1, 1, 1, 1, 1, 1, 1, 1, 1, 1, 0, 1, 1, 1, 1, 1, 1, 1, 1, 1, 1, 1, 1, 1, 0, 1, 1, 1, 1, 0, 0, 1, 1, 1, 1, 1, 1, 1, 1, 1, 1, 1, 1, 1, 1, 1, 1, 1, 1, 1, 1, 1, 1, 1, 1, 1, 1, 1, 1, 1, 1, 1, 1, 1, 1, 1, 1, 1, 1, 1, 1, 1, 1, 1, 1, 1, 1, 1, 1, 1, 1, 1, 1, 1, 1, 1, 1, 1, 1, 1, 1, 1, 1, 1, 1, 1, 1, 1, 1, 1, 1, 1, 1, 1, 1, 1, 1, 1, 1, 1, 1, 1, 1, 1, 1, 1, 1, 1, 1, 1, 1, 1, 1, 1, 1, 1, 1, 1, 1, 1, 1, 1, 1, 1, 1, 1, 1, 0, 1, 1, 1, 1, 1, 1, 1, 0, 1, 1, 1, 1, 1, 1, 1, 1, 1, 0, 1, 1, 1, 1, 1, 1, 1, 1, 1, 1, 1, 1, 1, 1, 1, 1, 1, 1, 1, 1, 1, 1, 1, 0, 0, 0, 0, 1, 1, 1, 1, 1, 1, 1, 1, 1, 1, 1, 1, 1, 1, 1, 1, 1, 1, 1, 1, 1, 1, 1, 1, 1, 1, 1, 1, 1, 1, 1, 1, 1, 1, 1, 1, 1, 1, 1, 1, 1, 1, 1, 1, 1, 1, 1, 1, 1, 1, 1, 1, 1, 1, 1, 1, 0, 1, 1, 1, 1, 1, 1, 1, 1, 1, 1, 0, 1, 1, 1, 1, 1, 1, 1, 1, 1, 1, 1, 1, 1, 0, 1, 1, 1, 1, 0, 0, 1, 1, 1, 1, 1, 1, 1, 1, 1, 1, 1, 1, 1, 1, 1, 1, 1, 1, 1, 1, 1, 1, 1, 1, 1, 1, 1, 1, 1, 1, 1, 1, 1, 1, 1, 1, 1, 1, 1, 1, 1, 1, 1, 1, 1, 1, 1, 1, 1, 1, 1, 1, 1, 1, 1, 1, 1, 1, 1, 1, 1, 1, 1, 1, 1, 1, 1, 1, 1, 1, 1, 1, 1, 1, 1, 1, 1, 1, 1, 1, 1, 1, 1, 1, 1, 1, 1, 1, 1, 1, 1, 1, 1, 1, 1, 1, 1, 1, 1, 1, 1, 1, 1, 1, 1, 1, 0, 1, 1, 1, 1, 1, 1, 1, 0, 1, 1, 1, 1, 1, 1, 0, 1, 1, 0, 1, 1, 1, 1, 1, 1, 1, 1, 1, 1, 1, 1, 1, 1, 1, 1, 1, 1, 1, 1, 1, 1, 1, 0, 0, 0, 0, 1, 1, 1, 1, 1, 1, 1, 1, 1, 1, 1, 1, 1, 1, 1, 1, 1, 1, 1, 1, 1, 1, 1, 1, 1, 1, 1, 1, 1, 1, 1, 1, 1, 1, 1, 1, 1, 1, 1, 1, 1, 1, 1, 1, 1, 1, 1, 1, 1, 1, 1, 1, 1, 1, 1, 1, 0, 1, 1, 1, 1, 1, 1, 1, 1, 1, 1, 0, 1, 1, 1, 1, 1, 1, 1, 1, 1, 1, 1, 1, 1, 0, 1, 1, 1, 1, 0, 0, 1, 1, 1, 1, 1, 1, 1, 1, 1, 1, 1, 1, 1, 1, 1, 1, 1, 1, 1, 1, 1, 1, 1, 1, 1, 1, 1, 1, 1, 1, 1, 1, 1, 1, 1, 1, 1, 1, 1, 0, 0, 0, 0, 0, 0, 0, 0, 0, 0, 0, 0, 0, 0, 0, 0, 0, 0, 0, 0, 0, 0, 0, 0, 0, 0, 1, 1, 1, 0, 0, 0, 0, 0, 0, 0, 0, 0, 0, 0, 0, 1, 1, 1, 0, 0, 0, 0, 0, 1, 1, 1, 1, 0, 0, 0, 0, 0, 0, 0, 1, 1, 0, 0, 0, 0, 0, 0, 0, 0, 0, 0, 0, 0, 0, 0, 0, 0, 0, 0, 0, 0, 0, 0, 0, 0, 1, 1, 1, 0, 0, 0, 1, 1, 1, 1, 0, 1, 1, 1, 1, 1, 1, 1, 1, 1, 1, 1, 1, 0, 0, 0, 0, 1, 1, 1, 0, 0, 0, 0, 0, 0, 0, 0, 0, 0, 0, 0, 0, 0, 0, 1, 0, 0, 0, 0, 0, 0, 0, 0, 0, 0, 0, 0, 0, 0, 0, 0, 0, 0, 0, 0, 0, 0, 0, 0, 0, 0, 0, 0, 0, 0, 0, 0, 0, 0, 0, 0, 0, 0, 0, 0, 0, 0, 0, 0, 0, 0, 0, 0, 0, 0, 0, 0, 0, 0, 0, 0, 0, 1, 1, 1, 1, 1, 0, 1, 0, 0, 0, 0, 0, 1, 1, 1, 1, 1, 1, 1, 1, 1, 1, 1, 1, 1, 1, 1, 1, 1, 1, 1, 1, 1, 1, 0, 0, 0, 0, 0, 0, 0, 0, 0, 0, 0, 0, 1, 1, 1, 1, 0, 1, 0, 0, 1, 0, 0, 1, 0, 0, 1, 0, 0, 0, 0, 0, 1, 0, 0, 1, 0, 0, 1, 0, 0, 1, 0, 1, 1, 1, 0, 0, 0, 0, 1, 1, 1, 1, 0, 0, 0, 0, 1, 1, 0, 0, 0, 0, 0, 0, 0, 1, 1, 0, 0, 0, 0, 0, 0, 0, 0, 0, 0, 0, 0, 0, 0, 0, 0, 0, 0, 0, 0, 0, 0, 0, 0, 0, 0, 0, 0, 0, 0, 0, 0, 0, 0, 0, 1, 0, 0, 0, 0, 0, 1, 1, 0, 0, 1, 1, 1, 1, 1, 1, 1, 1, 1, 1, 1, 1, 0, 0, 0, 0, 1, 1, 1, 0, 0, 0, 0, 0, 0, 0, 0, 0, 0, 0, 0, 1, 0, 0, 0, 0, 0, 0, 0, 0, 0, 0, 0, 0, 0, 0, 0, 0, 0, 0, 0, 0, 0, 0, 0, 0, 0, 0, 0, 0, 0, 0, 0, 0, 0, 0, 0, 0, 0, 0, 0, 0, 0, 0, 0, 0, 0, 0, 0, 0, 0, 0, 0, 0, 0, 0, 1, 1, 1, 1, 0, 0, 1, 1, 1, 1, 1, 0, 1, 0, 0, 0, 0, 0, 1, 1, 1, 1, 1, 1, 1, 1, 1, 1, 1, 1, 1, 1, 1, 1, 1, 1, 1, 1, 1, 1, 0, 1, 1, 0, 1, 1, 1, 0, 1, 1, 0, 0, 1, 1, 1, 1, 0, 0, 0, 0, 0, 0, 0, 0, 0, 0, 0, 0, 0, 0, 0, 0, 0, 0, 0, 0, 0, 0, 0, 0, 0, 0, 0, 1, 1, 1, 0, 1, 1, 1, 1, 0, 0, 1, 1, 1, 1, 0, 1, 1, 0, 0, 0, 1, 0, 0, 0, 1, 1, 0, 0, 0, 0, 0, 0, 0, 1, 0, 0, 1, 0, 0, 1, 0, 0, 1, 0, 0, 1, 0, 0, 1, 0, 0, 1, 0, 0, 1, 0, 0, 1, 0, 0, 0, 1, 0, 0, 0, 0, 0, 0, 0, 0, 0, 0, 0, 0, 0, 0, 0, 0, 0, 0, 0, 0, 1, 0, 0, 0, 0, 0, 0, 0, 0, 0, 0, 0, 0, 0, 0, 0, 0, 0, 0, 0, 0, 0, 1, 0, 0, 0, 0, 0, 0, 0, 0, 0, 0, 0, 0, 0, 0, 0, 0, 0, 0, 0, 0, 0, 0, 0, 0, 0, 0, 0, 0, 0, 0, 0, 0, 0, 0, 0, 0, 0, 0, 0, 0, 0, 0, 0, 0, 0, 0, 0, 0, 0, 0, 0, 1, 1, 1, 1, 1, 1, 0, 1, 1, 1, 1, 1, 0, 1, 0, 0, 0, 0, 0, 1, 1, 1, 1, 1, 1, 1, 1, 1, 1, 1, 1, 1, 1, 1, 1, 1, 1, 1, 1, 1, 1, 0, 1, 1, 0, 1, 0, 1, 0, 1, 1, 0, 0, 1, 1, 1, 1, 0, 1, 0, 0, 1, 0, 0, 1, 0, 0, 1, 0, 0, 0, 0, 0, 1, 0, 0, 1, 0, 0, 1, 0, 0, 1, 0, 1, 1, 1, 0, 0, 0, 0, 0, 0, 0, 0, 0, 0, 0, 0, 1, 1, 0, 0, 1, 0, 1, 0, 0, 1, 1, 0, 0, 0, 0, 0, 0, 0, 0, 0, 0, 0, 0, 0, 0, 0, 0, 0, 0, 0, 0, 0, 0, 0, 0, 0, 0, 0, 0, 0, 0, 0, 0, 0, 0, 0, 1, 0, 0, 0, 0, 0, 0, 0, 0, 0, 0, 0, 0, 0, 0, 0, 0, 0, 0, 0, 0, 1, 0, 0, 0, 0, 0, 0, 0, 0, 0, 0, 0, 0, 0, 0, 0, 0, 0, 0, 0, 1, 0, 0, 0, 0, 0, 0, 0, 0, 0, 0, 0, 0, 0, 0, 0, 0, 0, 0, 0, 0, 0, 0, 0, 0, 0, 0, 0, 0, 0, 0, 0, 0, 0, 0, 0, 0, 0, 0, 0, 0, 0, 0, 0, 0, 0, 0, 0, 0, 0, 0, 0, 0, 0, 1, 1, 1, 1, 1, 1, 0, 0, 0, 0, 0, 0, 0, 0, 0, 0, 0, 0, 0, 0, 0, 0, 0, 0, 0, 0, 0, 0, 0, 0, 0, 0, 0, 0, 1, 1, 1, 1, 1, 1, 1, 0, 0, 0, 0, 0, 0, 0, 0, 0, 0, 0, 0, 1, 1, 1, 1, 0, 0, 0, 0, 0, 0, 0, 0, 0, 0, 0, 0, 0, 0, 0, 0, 0, 0, 0, 0, 0, 0, 0, 0, 0, 0, 0, 1, 1, 1, 0, 1, 1, 1, 0, 0, 0, 0, 1, 1, 1, 0, 1, 1, 0, 0, 0, 1, 0, 0, 0, 1, 1, 0, 0, 0, 0, 0, 0, 0, 1, 0, 0, 1, 0, 0, 1, 0, 0, 1, 0, 0, 1, 0, 0, 1, 0, 0, 1, 0, 0, 1, 0, 0, 1, 0, 0, 0, 1, 0, 0, 0, 0, 0, 0, 0, 0, 1, 1, 1, 1, 1, 1, 1, 1, 1, 1, 1, 1, 1, 1, 1, 1, 1, 1, 1, 1, 1, 1, 1, 1, 1, 1, 1, 1, 0, 0, 0, 0, 0, 0, 1, 0, 0, 0, 0, 0, 0, 0, 0, 0, 0, 0, 0, 0, 0, 0, 0, 0, 0, 0, 0, 0, 0, 0, 0, 0, 0, 0, 0, 0, 0, 0, 0, 0, 0, 0, 0, 0, 0, 0, 0, 0, 0, 0, 0, 0, 0, 0, 0, 0, 0, 0, 1, 1, 1, 1, 1, 1, 0, 0, 0, 0, 0, 0, 0, 0, 0, 0, 0, 0, 0, 0, 0, 0, 0, 0, 0, 0, 0, 0, 0, 0, 0, 0, 0, 0, 1, 1, 1, 1, 1, 1, 1, 0, 0, 0, 0, 0, 0, 0, 0, 0, 0, 0, 0, 1, 1, 1, 1, 0, 1, 0, 0, 1, 0, 0, 1, 0, 0, 1, 0, 0, 0, 0, 0, 1, 0, 0, 1, 0, 0, 1, 0, 0, 1, 0, 1, 1, 1, 0, 0, 0, 0, 0, 0, 0, 0, 0, 0, 0, 0, 1, 1, 0, 0, 0, 0, 0, 0, 0, 1, 1, 0, 0, 0, 0, 0, 0, 0, 0, 0, 0, 0, 0, 0, 0, 0, 0, 0, 0, 0, 0, 0, 0, 0, 0, 0, 0, 0, 0, 0, 0, 0, 0, 0, 0, 0, 1, 0, 0, 0, 0, 0, 1, 1, 0, 1, 1, 1, 1, 1, 1, 1, 1, 1, 1, 1, 1, 1, 1, 1, 1, 1, 1, 1, 1, 1, 1, 1, 1, 1, 1, 1, 1, 0, 0, 0, 0, 1, 0, 0, 0, 0, 0, 0, 0, 0, 0, 0, 0, 0, 0, 0, 0, 0, 0, 0, 0, 0, 0, 0, 0, 0, 0, 0, 0, 0, 0, 0, 0, 0, 0, 0, 0, 0, 0, 0, 0, 0, 0, 0, 0, 0, 0, 0, 0, 0, 0, 0, 0, 0, 0, 0, 0, 0, 0, 0, 0, 0, 0, 0, 0, 0, 0, 0, 0, 0, 0, 0, 0, 0, 0, 0, 0, 0, 0, 0, 0, 0, 0, 0, 0, 0, 0, 0, 0, 1, 1, 1, 1, 1, 1, 1, 0, 0, 0, 0, 0, 0, 0, 0, 0, 0, 0, 0, 1, 1, 1, 1, 0, 0, 0, 0, 0, 0, 0, 0, 0, 0, 0, 0, 0, 0, 0, 0, 0, 0, 0, 0, 0, 0, 0, 0, 0, 0, 0, 1, 1, 1, 0, 0, 0, 0, 0, 0, 0, 0, 0, 0, 0, 0, 1, 1, 1, 0, 0, 0, 0, 0, 1, 1, 1, 1, 0, 0, 0, 0, 0, 0, 0, 1, 1, 0, 0, 0, 0, 0, 0, 0, 0, 0, 0, 0, 0, 0, 0, 0, 0, 0, 0, 0, 0, 0, 0, 0, 0, 1, 1, 1, 0, 0, 0, 1, 1, 1, 1, 1, 1, 1, 1, 1, 1, 1, 1, 1, 1, 1, 1, 1, 1, 1, 1, 1, 1, 1, 1, 1, 1, 1, 1, 1, 1, 1, 1, 0, 0, 0, 0, 0, 0, 0, 1, 0, 0, 0, 0, 0, 0, 0, 0, 0, 0, 0, 0, 0, 0, 0, 0, 0, 0, 0, 0, 0, 0, 0, 0, 0, 0, 0, 0, 0, 0, 0, 0, 0, 0, 0, 0, 0, 0, 0, 0, 0, 0, 0, 0, 0, 0, 0, 0, 0, 0, 0, 0, 0, 0, 0, 0, 0, 0, 0, 0, 0, 0, 0, 0, 0, 0, 0, 0, 0, 0, 0, 0, 0, 0, 0, 0, 0, 0, 0, 0, 0, 0, 0, 0, 1, 1, 1, 1, 1, 1, 1, 0, 0, 0, 0, 0, 0, 0, 0, 0, 0, 0, 0, 1, 1, 1, 1, 0, 0, 0, 0, 0, 0, 0, 0, 0, 0, 0, 0, 1, 1, 1, 0, 0, 0, 0, 0, 0, 0, 0, 0, 0, 0, 0, 1, 1, 1, 1, 1, 1, 1, 1, 0, 1, 1, 1, 1, 1, 1, 1, 1, 1, 1, 1, 1, 1, 0, 1, 1, 1, 1, 1, 1, 0, 1, 1, 1, 1, 1, 1, 1, 1, 1, 1, 1, 1, 1, 1, 1, 1, 1, 1, 1, 1, 0, 1, 1, 1, 1, 1, 1, 1, 1, 1, 1, 1, 1, 0, 0, 1, 1, 1, 1, 1, 1, 1, 1, 1, 1, 1, 1, 1, 1, 1, 1, 1, 1, 1, 1, 1, 1, 1, 1, 1, 1, 1, 1, 1, 1, 1, 1, 1, 0, 0, 1, 1, 1, 1, 1, 1, 1, 1, 1, 1, 1, 1, 1, 1, 1, 1, 1, 1, 1, 1, 1, 1, 1, 0, 0, 0, 0, 0, 0, 0, 0, 0, 0, 0, 0, 0, 1, 0, 0, 0, 0, 0, 0, 0, 0, 0, 0, 0, 0, 0, 1, 1, 1, 1, 1, 1, 1, 1, 1, 1, 1, 1, 1, 1, 1, 1, 1, 1, 1, 1, 1, 1, 1, 0, 0, 1, 1, 1, 1, 1, 1, 1, 1, 0, 0, 0, 0, 0, 0, 0, 1, 1, 1, 1, 1, 1, 1, 1, 1, 1, 1, 1, 0, 1, 1, 1, 1, 1, 1, 1, 1, 1, 1, 0, 0, 0, 0, 0, 0, 0, 0, 0, 0, 0, 0, 1, 1, 1, 0, 0, 0, 0, 0, 0, 0, 0, 0, 0, 0, 0, 1, 1, 1, 1, 1, 1, 1, 1, 0, 1, 1, 1, 1, 1, 1, 1, 1, 1, 1, 1, 1, 1, 0, 1, 1, 1, 1, 1, 1, 0, 1, 1, 1, 1, 1, 1, 1, 1, 1, 1, 1, 1, 1, 1, 1, 1, 1, 1, 1, 1, 0, 1, 1, 1, 1, 1, 1, 1, 1, 1, 1, 1, 1, 0, 0, 1, 1, 1, 1, 1, 1, 1, 1, 1, 1, 1, 1, 1, 1, 1, 1, 1, 1, 1, 1, 1, 1, 1, 1, 1, 1, 1, 1, 1, 1, 1, 1, 1, 0, 0, 1, 1, 1, 1, 1, 1, 1, 1, 1, 1, 1, 1, 1, 1, 1, 1, 1, 1, 1, 1, 1, 1, 1, 0, 0, 0, 0, 0, 0, 0, 0, 0, 0, 0, 0, 0, 1, 0, 0, 0, 0, 0, 0, 0, 0, 0, 0, 0, 0, 0, 1, 1, 1, 1, 1, 1, 1, 1, 1, 1, 1, 1, 1, 1, 1, 1, 1, 1, 1, 1, 1, 1, 1, 0, 0, 1, 1, 1, 1, 1, 1, 1, 1, 0, 0, 0, 0, 0, 0, 0, 1, 1, 1, 1, 1, 1, 1, 1, 1, 1, 1, 1, 1, 1, 1, 1, 1, 1, 1, 1, 1, 1, 1, 0, 0, 0, 0, 0, 0, 0, 0, 0, 0, 0, 0, 1, 1, 1, 0, 0, 0, 0, 0, 0, 0, 0, 0, 0, 0, 0, 1, 1, 1, 1, 1, 1, 1, 1, 0, 1, 1, 1, 1, 1, 1, 1, 1, 1, 1, 1, 1, 1, 0, 1, 1, 1, 1, 1, 1, 0, 1, 1, 1, 1, 1, 1, 1, 1, 1, 1, 1, 1, 1, 1, 1, 1, 1, 1, 1, 1, 0, 1, 1, 1, 1, 1, 1, 1, 1, 1, 1, 1, 1, 0, 0, 1, 1, 1, 1, 1, 1, 1, 1, 1, 1, 1, 1, 1, 1, 1, 1, 1, 1, 1, 1, 1, 1, 1, 1, 1, 1, 1, 1, 1, 1, 1, 1, 1, 0, 0, 1, 1, 1, 1, 1, 1, 1, 1, 1, 1, 1, 1, 1, 1, 1, 1, 1, 1, 1, 1, 1, 1, 1, 0, 0, 0, 0, 0, 0, 0, 0, 0, 0, 0, 0, 0, 1, 0, 0, 0, 0, 0, 0, 0, 0, 0, 0, 0, 0, 0, 1, 1, 1, 1, 1, 1, 1, 1, 1, 1, 1, 1, 1, 1, 1, 1, 1, 1, 1, 1, 1, 1, 1, 0, 0, 1, 1, 1, 1, 1, 1, 1, 1, 0, 0, 0, 0, 0, 0, 0, 1, 1, 1, 1, 1, 1, 1, 1, 1, 1, 1, 1, 1, 1, 1, 1, 1, 1, 1, 1, 1, 1, 1, 0, 0, 0, 0, 0, 0, 0, 0, 0, 0, 0, 0, 0, 0, 0, 0, 0, 0, 0, 0, 0, 0, 0, 0, 0, 0, 0, 1, 1, 1, 1, 1, 1, 1, 1, 0, 1, 0, 0, 1, 1, 1, 1, 1, 1, 0, 0, 0, 0, 0, 0, 0, 0, 0, 0, 0, 0, 1, 1, 1, 0, 0, 0, 0, 0, 0, 0, 0, 0, 0, 0, 0, 1, 1, 1, 1, 1, 0, 1, 1, 1, 1, 1, 1, 1, 1, 1, 1, 1, 1, 0, 0, 1, 1, 1, 1, 1, 1, 1, 1, 1, 1, 1, 1, 1, 0, 0, 0, 0, 0, 0, 0, 0, 0, 0, 0, 0, 1, 1, 1, 1, 1, 1, 1, 1, 0, 0, 0, 1, 0, 0, 0, 0, 1, 1, 0, 0, 0, 0, 0, 0, 0, 0, 0, 0, 0, 0, 1, 1, 1, 0, 0, 0, 0, 0, 0, 0, 0, 0, 0, 0, 0, 0, 0, 0, 0, 0, 0, 0, 0, 0, 0, 0, 0, 0, 0, 0, 1, 1, 1, 1, 0, 0, 0, 0, 0, 0, 0, 0, 0, 0, 0, 1, 1, 0, 0, 0, 0, 0, 0, 0, 0, 0, 0, 0, 0, 0, 0, 1, 1, 0, 0, 0, 0, 0, 0, 0, 1, 1, 1, 1, 1, 1, 1, 1, 1, 1, 1, 1, 1, 1, 1, 1, 1, 1, 1, 1, 1, 1, 1, 0, 1, 0, 0, 1, 0, 0, 1, 0, 0, 1, 0, 0, 0, 0, 0, 1, 0, 0, 1, 0, 0, 1, 0, 0, 1, 0, 1, 1, 1, 0, 0, 1, 1, 1, 0, 1, 0, 0, 0, 1, 1, 1, 1, 1, 0, 0, 0, 0, 0, 0, 0, 0, 0, 0, 0, 0, 1, 1, 0, 0, 0, 0, 0, 0, 0, 0, 0, 0, 0, 0, 0, 1, 1, 1, 1, 1, 0, 1, 1, 1, 1, 1, 1, 1, 1, 1, 1, 1, 1, 0, 0, 1, 1, 1, 1, 1, 1, 1, 1, 1, 1, 1, 1, 1, 0, 1, 1, 0, 1, 1, 1, 0, 1, 1, 0, 0, 1, 1, 1, 1, 1, 1, 1, 1, 0, 0, 0, 0, 0, 0, 0, 0, 1, 0, 0, 0, 0, 1, 1, 1, 1, 1, 1, 0, 0, 0, 0, 1, 1, 0, 0, 0, 0, 0, 0, 0, 0, 0, 0, 0, 0, 0, 0, 0, 0, 0, 0, 0, 0, 0, 0, 0, 0, 0, 0, 0, 1, 1, 1, 0, 0, 0, 0, 1, 1, 1, 0, 0, 0, 0, 0, 0, 1, 0, 1, 0, 1, 0, 0, 0, 0, 0, 0, 1, 0, 0, 0, 1, 1, 0, 0, 0, 0, 0, 0, 0, 1, 1, 1, 1, 1, 1, 1, 1, 1, 1, 1, 1, 1, 1, 1, 1, 1, 1, 1, 1, 1, 1, 1, 0, 0, 0, 0, 0, 0, 0, 0, 0, 0, 0, 0, 0, 0, 0, 0, 0, 0, 0, 0, 0, 0, 0, 0, 0, 0, 0, 0, 0, 0, 0, 0, 0, 1, 1, 0, 1, 0, 0, 0, 0, 1, 1, 1, 1, 0, 1, 0, 1, 0, 1, 0, 1, 0, 1, 0, 0, 1, 1, 0, 1, 0, 1, 0, 1, 0, 0, 0, 0, 0, 0, 0, 0, 1, 1, 1, 1, 0, 0, 0, 0, 0, 0, 0, 0, 0, 0, 0, 0, 0, 0, 0, 0, 0, 0, 0, 0, 1, 1, 1, 1, 1, 1, 1, 1, 0, 1, 1, 0, 1, 0, 1, 0, 1, 1, 0, 0, 1, 1, 1, 1, 1, 1, 1, 1, 0, 0, 0, 0, 0, 1, 0, 0, 1, 0, 0, 1, 0, 1, 1, 1, 1, 1, 1, 0, 1, 0, 0, 1, 1, 0, 0, 0, 0, 0, 0, 0, 0, 0, 0, 0, 0, 0, 0, 0, 0, 0, 0, 0, 0, 0, 0, 0, 0, 0, 0, 0, 1, 1, 0, 0, 1, 0, 1, 1, 0, 1, 1, 0, 1, 0, 0, 0, 1, 0, 0, 0, 0, 0, 1, 0, 0, 1, 0, 0, 0, 1, 0, 1, 1, 0, 0, 0, 0, 0, 0, 0, 1, 1, 1, 1, 1, 1, 1, 1, 1, 1, 1, 1, 0, 1, 1, 1, 1, 1, 1, 1, 1, 1, 1, 0, 1, 0, 0, 1, 0, 0, 1, 0, 0, 1, 0, 0, 0, 0, 0, 1, 0, 0, 1, 0, 0, 1, 0, 0, 1, 0, 0, 0, 0, 0, 0, 0, 0, 0, 0, 0, 0, 0, 0, 0, 0, 0, 0, 0, 0, 0, 0, 0, 0, 0, 0, 0, 0, 0, 0, 0, 1, 1, 0, 0, 0, 0, 0, 0, 0, 0, 0, 0, 0, 0, 0, 0, 1, 1, 1, 1, 0, 0, 0, 0, 0, 0, 0, 0, 0, 0, 0, 0, 0, 0, 0, 0, 0, 0, 0, 0, 1, 1, 1, 1, 1, 1, 1, 1, 0, 0, 0, 0, 0, 0, 0, 0, 0, 0, 0, 0, 0, 0, 0, 0, 0, 0, 0, 0, 0, 0, 0, 0, 0, 0, 0, 0, 1, 0, 0, 0, 0, 1, 1, 1, 1, 1, 1, 0, 0, 0, 0, 1, 1, 0, 0, 0, 0, 0, 0, 0, 0, 0, 0, 0, 0, 0, 0, 0, 0, 0, 0, 0, 0, 0, 0, 0, 0, 0, 0, 0, 1, 1, 0, 0, 0, 0, 0, 0, 0, 0, 0, 0, 0, 0, 0, 0, 1, 0, 1, 0, 1, 0, 0, 0, 0, 0, 0, 1, 0, 0, 0, 1, 1, 0, 0, 0, 0, 0, 0, 0, 0, 0, 0, 0, 0, 0, 0, 0, 0, 0, 0, 0, 0, 0, 0, 1, 1, 1, 1, 1, 1, 1, 1, 0, 0, 0, 0, 0, 0, 0, 0, 0, 0, 0, 0, 0, 0, 0, 0, 0, 0, 0, 0, 0, 0, 0, 0, 0, 0, 0, 0, 0, 0, 0, 0, 0, 0, 0, 0, 0, 0, 0, 0, 0, 1, 1, 1, 1, 0, 1, 0, 1, 0, 1, 0, 1, 0, 1, 0, 0, 1, 1, 0, 1, 0, 1, 0, 1, 0, 0, 1, 1, 1, 1, 1, 1, 1, 1, 1, 1, 1, 1, 1, 1, 1, 1, 1, 1, 1, 1, 1, 1, 1, 1, 1, 1, 1, 1, 1, 1, 1, 1, 1, 1, 1, 1, 1, 1, 0, 0, 1, 1, 0, 0, 0, 1, 1, 0, 0, 0, 1, 1, 1, 1, 1, 1, 1, 1, 0, 0, 0, 0, 0, 1, 0, 0, 1, 0, 0, 1, 0, 1, 1, 1, 1, 1, 1, 0, 1, 0, 0, 1, 1, 0, 0, 0, 0, 0, 0, 0, 0, 0, 0, 0, 0, 0, 0, 0, 0, 0, 0, 0, 0, 0, 0, 0, 0, 0, 0, 0, 1, 1, 0, 0, 1, 0, 1, 0, 0, 0, 1, 0, 1, 0, 0, 0, 1, 0, 0, 0, 0, 0, 0, 0, 0, 0, 0, 0, 0, 1, 0, 1, 1, 0, 0, 0, 0, 0, 0, 0, 0, 0, 0, 0, 0, 0, 0, 0, 0, 0, 0, 0, 0, 0, 0, 1, 1, 1, 1, 1, 1, 1, 1, 0, 1, 0, 0, 1, 0, 0, 1, 0, 0, 1, 0, 0, 0, 0, 0, 1, 0, 0, 1, 0, 0, 1, 0, 0, 1, 0, 1, 1, 1, 0, 0, 0, 0, 0, 0, 0, 0, 0, 0, 0, 1, 1, 1, 1, 0, 0, 0, 0, 0, 0, 0, 0, 0, 0, 0, 0, 1, 1, 0, 0, 0, 0, 0, 0, 0, 0, 1, 1, 1, 1, 1, 1, 1, 1, 1, 1, 1, 1, 1, 1, 1, 1, 1, 1, 1, 1, 1, 1, 1, 1, 1, 1, 1, 1, 1, 1, 1, 1, 1, 1, 1, 1, 1, 1, 0, 0, 1, 1, 0, 0, 0, 1, 1, 0, 0, 0, 1, 1, 1, 1, 1, 1, 1, 1, 0, 0, 0, 0, 0, 0, 0, 0, 1, 0, 0, 0, 0, 0, 0, 0, 0, 0, 0, 0, 0, 0, 0, 1, 1, 0, 0, 0, 0, 0, 0, 0, 0, 0, 0, 0, 0, 0, 0, 0, 0, 0, 0, 0, 0, 0, 0, 0, 0, 0, 0, 0, 1, 1, 1, 0, 0, 0, 0, 0, 0, 0, 0, 0, 0, 0, 0, 0, 1, 0, 1, 0, 1, 0, 0, 0, 0, 0, 0, 1, 0, 0, 0, 1, 1, 0, 0, 0, 0, 0, 0, 0, 0, 0, 0, 0, 0, 0, 0, 0, 0, 0, 0, 0, 0, 0, 0, 1, 1, 1, 1, 1, 1, 1, 1, 0, 0, 0, 0, 0, 0, 0, 0, 0, 0, 0, 0, 0, 0, 0, 0, 0, 0, 0, 0, 0, 0, 0, 0, 0, 0, 0, 1, 1, 1, 1, 0, 0, 0, 0, 0, 0, 0, 0, 0, 0, 1, 1, 1, 1, 0, 0, 0, 0, 0, 0, 0, 0, 0, 0, 0, 0, 1, 1, 1, 0, 0, 0, 0, 0, 0, 0, 1, 1, 1, 1, 1, 1, 1, 1, 1, 1, 1, 1, 1, 1, 1, 1, 1, 1, 1, 1, 1, 1, 1, 1, 1, 1, 1, 1, 1, 1, 1, 1, 1, 1, 1, 1, 1, 1, 0, 0, 0, 0, 0, 0, 0, 0, 0, 0, 0, 0, 1, 1, 1, 1, 1, 1, 1, 1, 0, 0, 0, 1, 0, 0, 0, 0, 1, 1, 0, 0, 0, 0, 0, 0, 0, 0, 0, 0, 0, 0, 1, 1, 1, 0, 0, 0, 0, 0, 0, 0, 0, 0, 0, 0, 0, 0, 0, 0, 0, 0, 0, 0, 0, 0, 0, 0, 0, 0, 0, 0, 1, 1, 1, 1, 0, 0, 0, 0, 0, 0, 0, 0, 0, 0, 0, 1, 1, 0, 0, 0, 0, 0, 0, 0, 0, 0, 0, 0, 0, 0, 0, 1, 1, 1, 0, 0, 0, 0, 0, 0, 0, 0, 0, 0, 0, 0, 0, 0, 0, 0, 0, 0, 0, 0, 0, 1, 1, 1, 1, 1, 1, 1, 1, 0, 0, 0, 0, 0, 0, 0, 0, 0, 0, 0, 0, 1, 1, 1, 0, 0, 0, 0, 0, 0, 0, 0, 0, 0, 0, 0, 1, 1, 1, 1, 1, 1, 1, 1, 1, 1, 1, 1, 1, 1, 1, 1, 1, 1, 1, 1, 1, 1, 1, 1, 1, 1, 1, 1, 1, 1, 1, 1, 1, 1, 1, 1, 1, 1, 1, 0, 1, 1, 1, 1, 1, 1, 1, 1, 1, 1, 1, 1, 1, 1, 1, 1, 1, 1, 1, 1, 1, 1, 1, 1, 1, 1, 1, 1, 1, 1, 1, 1, 1, 1, 1, 1, 1, 1, 1, 1, 1, 1, 1, 1, 1, 1, 1, 1, 1, 1, 1, 1, 1, 1, 1, 1, 1, 1, 0, 0, 1, 1, 1, 1, 1, 1, 1, 1, 1, 1, 1, 1, 1, 0, 0, 1, 1, 1, 1, 1, 1, 1, 1, 1, 1, 1, 1, 1, 0, 0, 1, 1, 1, 1, 1, 1, 1, 1, 1, 1, 1, 1, 1, 1, 1, 1, 1, 1, 0, 0, 1, 1, 1, 1, 1, 1, 1, 1, 0, 1, 1, 1, 1, 1, 1, 1, 1, 0, 1, 0, 1, 0, 1, 0, 0, 1, 0, 1, 0, 1, 0, 1, 1, 1, 1, 1, 1, 1, 1, 1, 1, 1, 1, 1, 1, 1, 1, 1, 1, 1, 1, 0, 0, 0, 0, 1, 1, 1, 1, 1, 1, 1, 1, 0, 0, 0, 0, 0, 0, 0, 0, 0, 0, 0, 0, 1, 1, 1, 0, 0, 0, 0, 0, 0, 0, 0, 0, 0, 0, 0, 1, 1, 1, 1, 1, 1, 1, 1, 1, 1, 1, 1, 1, 1, 1, 1, 1, 1, 1, 1, 1, 1, 1, 1, 1, 1, 1, 1, 1, 1, 1, 1, 1, 1, 1, 1, 1, 1, 1, 0, 1, 1, 1, 1, 1, 1, 1, 1, 1, 1, 1, 1, 1, 1, 1, 1, 1, 1, 1, 1, 1, 1, 1, 1, 1, 1, 1, 1, 1, 1, 1, 1, 1, 1, 1, 1, 1, 1, 1, 1, 1, 1, 1, 1, 1, 1, 1, 1, 1, 1, 1, 1, 1, 1, 1, 1, 1, 1, 0, 0, 1, 1, 1, 1, 1, 1, 1, 1, 1, 1, 1, 1, 1, 0, 0, 1, 1, 1, 1, 1, 1, 1, 1, 1, 1, 1, 1, 1, 0, 0, 1, 1, 1, 1, 1, 1, 1, 1, 1, 1, 1, 1, 1, 1, 1, 1, 1, 1, 0, 0, 1, 1, 1, 1, 1, 1, 1, 1, 0, 1, 1, 1, 1, 1, 1, 1, 1, 0, 1, 0, 1, 0, 1, 0, 0, 1, 0, 1, 0, 1, 0, 1, 1, 1, 1, 1, 1, 1, 1, 1, 1, 1, 1, 1, 1, 1, 1, 1, 1, 1, 1, 0, 0, 0, 0, 1, 1, 1, 1, 1, 1, 1, 1, 0, 0, 0, 0, 0, 0, 0, 0, 0, 0, 0, 0, 1, 1, 1, 0, 0, 0, 0, 0, 0, 0, 0, 0, 0, 0, 0, 1, 1, 1, 1, 1, 1, 1, 1, 1, 1, 1, 1, 1, 1, 1, 1, 1, 1, 1, 1, 1, 1, 1, 1, 1, 1, 1, 1, 1, 1, 1, 1, 1, 1, 1, 0, 1, 1, 1, 0, 1, 1, 1, 1, 1, 1, 1, 1, 1, 1, 1, 1, 1, 1, 1, 1, 1, 1, 1, 1, 1, 1, 1, 1, 1, 1, 1, 1, 1, 1, 1, 1, 1, 1, 1, 1, 1, 1, 1, 1, 1, 1, 1, 1, 1, 1, 1, 1, 1, 1, 1, 1, 1, 1, 1, 1, 1, 1, 0, 0, 1, 1, 1, 1, 1, 1, 1, 1, 1, 1, 1, 1, 1, 0, 0, 1, 1, 1, 1, 1, 1, 1, 1, 1, 1, 1, 1, 1, 0, 0, 1, 1, 0, 1, 1, 1, 1, 1, 1, 1, 1, 1, 1, 1, 1, 1, 1, 1, 0, 0, 1, 1, 1, 1, 1, 1, 1, 1, 0, 1, 1, 1, 1, 1, 1, 1, 1, 0, 1, 0, 1, 0, 1, 0, 0, 1, 0, 1, 0, 1, 0, 1, 1, 1, 1, 1, 1, 1, 1, 1, 1, 1, 1, 1, 1, 1, 1, 1, 1, 1, 1, 0, 0, 0, 0, 1, 1, 1, 1, 1, 1, 1, 1, 0, 0, 0, 0, 0, 0, 0, 0, 0, 0, 0, 0, 0, 0, 0, 0, 0, 0, 0, 0, 0, 0, 0, 0, 0, 0, 0, 1, 1, 1, 0, 0, 0, 0, 0, 0, 0, 0, 0, 0, 0, 0, 1, 1, 1, 0, 0, 0, 0, 0, 0, 0, 0, 0, 0, 0, 0, 1, 1, 1, 0, 0, 0, 0, 0, 0, 0, 1, 1, 1, 1, 1, 1, 1, 1, 0, 0, 0, 0, 0, 0, 0, 0, 0, 0, 0, 0, 1, 1, 1, 1, 1, 1, 1, 1, 1, 1, 1, 1, 1, 1, 1, 1, 1, 1, 1, 1, 1, 1, 1, 1, 1, 1, 1, 1, 1, 1, 1, 1, 1, 1, 1, 1, 1, 1, 0, 0, 0, 0, 0, 0, 1, 1, 1, 1, 0, 0, 0, 1, 1, 0, 0, 1, 1, 1, 1, 1, 1, 1, 1, 1, 0, 0, 0, 0, 0, 0, 0, 0, 0, 0, 1, 1, 1, 0, 0, 0, 0, 0, 0, 0, 0, 0, 1, 1, 0, 0, 1, 1, 1, 0, 0, 0, 0, 1, 0, 1, 1, 1, 0, 0, 1, 1, 1, 0, 0, 0, 0, 0, 0, 0, 0, 0, 0, 0, 0, 0, 0, 1, 1, 0, 0, 0, 0, 0, 0, 0, 0, 0, 0, 0, 0, 1, 1, 1, 1, 1, 0, 0, 0, 0, 0, 1, 1, 1, 1, 1, 1, 1, 1, 0, 1, 0, 0, 1, 0, 0, 1, 0, 0, 1, 0, 0, 0, 0, 0, 1, 0, 0, 1, 0, 0, 1, 0, 0, 1, 0, 1, 1, 0, 0, 0, 0, 1, 1, 1, 1, 1, 1, 0, 0, 0, 0, 1, 0, 0, 0, 0, 1, 1, 1, 1, 1, 1, 0, 0, 0, 0, 1, 0, 0, 0, 0, 0, 0, 0, 0, 1, 1, 1, 1, 1, 1, 1, 1, 0, 0, 1, 1, 0, 1, 1, 1, 0, 1, 1, 0, 1, 1, 1, 1, 1, 1, 1, 1, 1, 1, 1, 1, 1, 1, 1, 1, 1, 1, 1, 1, 1, 1, 1, 1, 1, 1, 1, 1, 1, 1, 1, 1, 1, 1, 1, 1, 1, 1, 0, 0, 0, 0, 0, 0, 1, 1, 1, 1, 0, 0, 0, 1, 1, 0, 0, 1, 1, 1, 1, 1, 1, 1, 1, 0, 0, 0, 0, 0, 0, 0, 0, 0, 0, 0, 0, 1, 1, 0, 0, 0, 0, 0, 1, 0, 0, 0, 1, 1, 0, 0, 1, 1, 1, 0, 0, 0, 0, 1, 0, 1, 1, 1, 0, 0, 1, 1, 1, 0, 0, 0, 0, 0, 1, 0, 0, 0, 0, 1, 0, 0, 0, 1, 0, 0, 0, 0, 0, 0, 0, 0, 0, 0, 0, 0, 0, 0, 1, 1, 1, 1, 0, 0, 0, 0, 0, 1, 1, 1, 1, 1, 1, 1, 1, 0, 0, 0, 0, 0, 0, 0, 0, 0, 0, 0, 0, 0, 0, 0, 0, 0, 0, 0, 0, 0, 0, 0, 0, 0, 0, 0, 1, 1, 0, 0, 1, 0, 1, 1, 1, 1, 1, 1, 0, 1, 0, 0, 1, 0, 0, 1, 0, 1, 1, 1, 1, 1, 1, 0, 1, 0, 0, 1, 0, 0, 1, 0, 1, 0, 0, 0, 1, 1, 1, 1, 1, 1, 1, 1, 0, 0, 1, 1, 0, 1, 0, 1, 0, 1, 1, 0, 1, 1, 1, 1, 1, 1, 1, 1, 1, 1, 1, 1, 1, 1, 1, 1, 1, 1, 1, 1, 1, 1, 1, 1, 1, 1, 1, 1, 1, 1, 1, 1, 1, 1, 1, 1, 1, 1, 0, 0, 0, 0, 0, 0, 1, 1, 1, 1, 0, 0, 0, 0, 0, 0, 0, 0, 0, 0, 0, 0, 0, 0, 0, 0, 0, 0, 1, 0, 0, 0, 0, 1, 0, 0, 0, 0, 0, 0, 0, 0, 0, 0, 0, 0, 1, 0, 1, 1, 0, 0, 1, 1, 0, 0, 0, 0, 0, 1, 0, 1, 1, 1, 0, 0, 1, 1, 0, 0, 1, 0, 1, 0, 0, 0, 0, 1, 0, 0, 0, 1, 0, 0, 0, 0, 0, 0, 1, 0, 0, 0, 0, 1, 0, 0, 0, 0, 1, 1, 1, 1, 0, 0, 0, 0, 0, 1, 1, 1, 1, 1, 1, 1, 1, 0, 1, 0, 0, 1, 0, 0, 1, 0, 0, 1, 0, 0, 0, 0, 0, 1, 0, 0, 1, 0, 0, 1, 0, 0, 1, 0, 1, 1, 0, 0, 0, 0, 1, 1, 1, 1, 1, 1, 0, 0, 0, 0, 1, 0, 0, 0, 0, 1, 1, 1, 1, 1, 1, 0, 0, 0, 0, 1, 0, 0, 0, 0, 0, 0, 0, 0, 1, 1, 1, 1, 1, 1, 1, 1, 0, 0, 0, 0, 0, 0, 0, 0, 0, 0, 0, 0, 1, 1, 1, 1, 1, 1, 1, 1, 0, 0, 0, 0, 0, 0, 0, 0, 0, 0, 0, 0, 0, 0, 0, 0, 0, 0, 0, 0, 0, 0, 0, 0, 0, 0, 0, 0, 0, 0, 0, 0, 0, 0, 0, 0, 1, 1, 1, 1, 0, 1, 0, 0, 0, 0, 0, 0, 0, 0, 0, 0, 0, 0, 0, 0, 0, 0, 0, 0, 0, 0, 0, 0, 0, 0, 0, 0, 0, 0, 1, 0, 0, 0, 1, 0, 0, 0, 1, 1, 0, 0, 1, 1, 0, 0, 0, 0, 0, 0, 0, 0, 0, 0, 0, 0, 0, 0, 0, 0, 0, 0, 0, 0, 1, 0, 0, 0, 0, 1, 0, 0, 0, 0, 0, 0, 0, 0, 0, 0, 0, 0, 0, 0, 0, 0, 0, 0, 1, 1, 1, 0, 0, 0, 0, 0, 0, 1, 0, 1, 0, 1, 1, 1, 1, 0, 0, 0, 0, 0, 0, 0, 0, 0, 0, 0, 0, 0, 0, 0, 0, 0, 0, 0, 0, 0, 0, 0, 0, 0, 0, 0, 1, 1, 0, 0, 1, 0, 1, 1, 1, 1, 1, 1, 0, 1, 0, 0, 1, 0, 0, 1, 0, 1, 1, 1, 1, 1, 1, 0, 1, 0, 0, 1, 0, 0, 1, 0, 1, 0, 0, 0, 1, 1, 1, 1, 1, 1, 1, 1, 0, 0, 0, 0, 0, 0, 0, 0, 0, 0, 0, 0, 1, 1, 1, 1, 1, 1, 1, 1, 0, 0, 0, 0, 0, 0, 0, 0, 0, 0, 0, 0, 0, 0, 0, 0, 0, 0, 0, 0, 0, 0, 0, 0, 0, 0, 0, 0, 0, 0, 0, 0, 0, 0, 0, 0, 1, 1, 1, 1, 0, 0, 0, 0, 0, 0, 0, 0, 0, 0, 0, 0, 0, 0, 0, 0, 0, 0, 1, 0, 0, 0, 0, 1, 0, 0, 0, 0, 0, 0, 0, 0, 0, 0, 0, 0, 1, 0, 1, 1, 0, 0, 1, 1, 0, 0, 0, 0, 0, 0, 0, 0, 0, 0, 0, 0, 1, 1, 0, 0, 1, 0, 1, 0, 0, 0, 0, 1, 0, 0, 0, 1, 0, 0, 0, 0, 0, 0, 0, 0, 0, 0, 0, 0, 0, 0, 0, 0, 1, 1, 0, 0, 0, 0, 0, 0, 0, 1, 1, 1, 1, 1, 1, 1, 1, 0, 1, 0, 0, 1, 0, 0, 1, 0, 0, 1, 0, 0, 0, 0, 0, 1, 0, 0, 1, 0, 0, 1, 0, 0, 1, 0, 1, 1, 0, 0, 0, 0, 0, 0, 0, 0, 0, 0, 0, 0, 0, 0, 1, 0, 0, 0, 0, 0, 0, 0, 0, 0, 0, 0, 0, 0, 0, 1, 0, 0, 0, 0, 0, 0, 0, 0, 1, 1, 1, 1, 1, 1, 1, 1, 0, 0, 0, 0, 0, 0, 0, 0, 0, 0, 0, 0, 1, 1, 1, 1, 1, 1, 1, 1, 0, 0, 1, 1, 1, 1, 1, 1, 1, 1, 1, 1, 1, 1, 1, 1, 1, 1, 1, 1, 1, 1, 1, 1, 1, 1, 0, 0, 0, 0, 0, 0, 0, 0, 0, 0, 1, 1, 1, 1, 0, 0, 0, 1, 1, 0, 0, 1, 1, 1, 1, 1, 1, 1, 1, 0, 0, 0, 0, 0, 0, 0, 0, 0, 0, 0, 0, 1, 1, 0, 0, 0, 0, 0, 1, 0, 0, 0, 1, 1, 0, 0, 1, 1, 1, 0, 0, 0, 0, 0, 0, 0, 0, 0, 0, 0, 1, 1, 1, 0, 0, 0, 0, 0, 1, 0, 0, 0, 0, 1, 0, 0, 0, 1, 0, 0, 0, 0, 0, 0, 0, 0, 0, 0, 0, 0, 0, 0, 1, 1, 0, 0, 0, 0, 0, 0, 0, 1, 1, 1, 1, 1, 1, 1, 1, 1, 0, 0, 0, 0, 0, 0, 0, 0, 0, 0, 0, 0, 0, 0, 0, 0, 0, 0, 0, 0, 0, 0, 0, 0, 0, 0, 1, 1, 1, 0, 0, 0, 0, 0, 0, 0, 0, 0, 0, 0, 0, 1, 1, 1, 0, 0, 0, 0, 0, 0, 0, 0, 0, 0, 0, 0, 1, 1, 1, 0, 0, 0, 0, 0, 0, 0, 1, 1, 1, 1, 1, 1, 1, 1, 0, 0, 0, 0, 0, 0, 0, 0, 0, 0, 0, 0, 1, 1, 1, 1, 1, 1, 1, 1, 0, 0, 1, 1, 1, 1, 1, 1, 1, 1, 1, 1, 1, 1, 1, 1, 1, 1, 1, 1, 1, 1, 1, 1, 1, 1, 0, 0, 0, 0, 0, 0, 0, 0, 0, 0, 1, 1, 1, 1, 0, 0, 0, 1, 1, 0, 0, 1, 1, 1, 1, 1, 1, 1, 1, 1, 0, 0, 0, 0, 0, 0, 0, 0, 0, 0, 1, 1, 1, 0, 0, 0, 0, 0, 0, 0, 0, 0, 1, 1, 0, 0, 1, 1, 1, 0, 0, 0, 0, 0, 0, 0, 0, 0, 0, 0, 1, 1, 1, 0, 0, 0, 0, 0, 0, 0, 0, 0, 0, 0, 0, 0, 0, 1, 1, 0, 0, 0, 0, 0, 0, 0, 0, 0, 0, 0, 0, 1, 1, 1, 1, 0, 0, 0, 0, 0, 0, 1, 1, 1, 1, 1, 1, 1, 1, 1, 1, 1, 1, 1, 1, 1, 1, 1, 1, 1, 1, 0, 1, 1, 1, 1, 1, 1, 1, 1, 1, 1, 1, 1, 1, 1, 1, 1, 1, 1, 1, 1, 1, 1, 0, 0, 1, 1, 1, 1, 1, 1, 1, 1, 1, 1, 1, 1, 1, 0, 0, 1, 1, 1, 1, 1, 1, 1, 1, 1, 1, 1, 1, 1, 0, 0, 1, 1, 1, 1, 1, 1, 1, 1, 1, 1, 1, 1, 1, 1, 0, 1, 1, 1, 1, 1, 1, 1, 1, 1, 1, 1, 1, 1, 0, 0, 1, 1, 1, 1, 1, 1, 1, 1, 1, 1, 1, 1, 1, 1, 1, 1, 1, 1, 1, 1, 1, 1, 1, 1, 1, 1, 1, 1, 0, 0, 1, 1, 1, 1, 1, 1, 1, 1, 1, 1, 1, 1, 1, 0, 0, 1, 1, 1, 1, 1, 1, 1, 1, 1, 1, 1, 1, 1, 1, 1, 1, 1, 1, 1, 1, 1, 1, 0, 1, 0, 0, 0, 1, 0, 1, 0, 1, 1, 0, 0, 1, 1, 1, 1, 1, 1, 1, 1, 1, 1, 1, 1, 1, 1, 1, 1, 1, 1, 1, 0, 1, 1, 1, 1, 1, 1, 1, 1, 0, 1, 1, 1, 1, 1, 1, 1, 1, 1, 1, 1, 1, 1, 1, 1, 1, 1, 1, 1, 1, 1, 1, 0, 0, 0, 0, 1, 1, 1, 1, 1, 1, 1, 1, 1, 1, 1, 1, 1, 1, 1, 1, 1, 1, 1, 1, 0, 1, 1, 1, 1, 1, 1, 1, 1, 1, 1, 1, 1, 1, 1, 1, 1, 1, 1, 1, 1, 1, 1, 0, 0, 1, 1, 1, 1, 1, 1, 1, 1, 1, 1, 1, 1, 1, 0, 0, 1, 1, 1, 1, 1, 1, 1, 1, 1, 1, 1, 1, 1, 0, 0, 1, 1, 1, 1, 1, 1, 1, 1, 1, 1, 1, 1, 1, 1, 1, 1, 1, 1, 1, 1, 1, 1, 1, 1, 1, 1, 1, 1, 0, 0, 1, 1, 1, 1, 1, 1, 1, 1, 1, 1, 1, 1, 1, 1, 1, 1, 1, 1, 1, 1, 1, 1, 1, 1, 1, 1, 1, 1, 0, 0, 1, 1, 1, 1, 1, 1, 1, 1, 1, 1, 1, 1, 1, 0, 0, 1, 1, 1, 1, 1, 1, 1, 1, 1, 1, 1, 1, 1, 1, 1, 1, 1, 1, 1, 1, 1, 1, 0, 1, 0, 0, 0, 1, 0, 1, 0, 1, 1, 0, 0, 1, 1, 1, 1, 1, 1, 1, 1, 1, 1, 1, 1, 1, 1, 1, 1, 1, 1, 1, 0, 1, 1, 1, 1, 1, 1, 1, 1, 0, 1, 1, 1, 1, 1, 1, 1, 1, 1, 1, 1, 1, 1, 1, 1, 1, 1, 1, 1, 1, 1, 1, 0, 0, 0, 0, 1, 1, 1, 1, 1, 1, 1, 1, 1, 1, 1, 1, 1, 1, 1, 1, 1, 1, 1, 1, 0, 1, 1, 1, 1, 1, 1, 1, 1, 1, 1, 1, 1, 1, 1, 1, 1, 1, 1, 1, 1, 1, 1, 0, 0, 1, 1, 1, 1, 1, 1, 1, 1, 1, 1, 1, 1, 1, 0, 0, 1, 1, 1, 1, 1, 1, 1, 1, 1, 1, 1, 1, 1, 0, 0, 1, 1, 1, 1, 1, 1, 1, 1, 1, 1, 1, 1, 1, 1, 1, 1, 1, 1, 1, 1, 1, 1, 1, 1, 1, 1, 1, 1, 0, 0, 1, 1, 1, 1, 1, 1, 1, 1, 1, 1, 1, 1, 1, 1, 1, 1, 1, 1, 1, 1, 1, 1, 1, 1, 1, 1, 1, 1, 0, 0, 1, 1, 1, 1, 1, 1, 1, 1, 1, 1, 1, 1, 1, 0, 0, 1, 1, 1, 1, 1, 1, 1, 1, 1, 1, 1, 1, 1, 1, 1, 1, 1, 1, 1, 1, 1, 1, 0, 1, 0, 0, 0, 1, 0, 1, 0, 1, 1, 0, 0, 1, 1, 1, 1, 1, 1, 1, 1, 1, 1, 1, 1, 1, 1, 1, 1, 1, 1, 1, 0, 1, 1, 1, 1, 1, 1, 1, 1, 0, 1, 1, 1, 1, 1, 1, 1, 1, 1, 0, 1, 1, 1, 1, 1, 1, 1, 1, 1, 1, 1, 1, 0, 0, 0, 0, 1, 1, 1, 1, 1, 1, 1, 1, 1, 1, 1, 1, 1, 1, 1, 1, 1, 1, 1, 1, 0, 1, 1, 0, 0, 0, 0, 0, 0, 0, 0, 0, 0, 1, 1, 1, 1, 1, 0, 0, 0, 0, 0, 0, 0, 0, 0, 0, 0, 0, 0, 0, 0, 0, 0, 0, 0, 0, 0, 0, 0, 0, 0, 0, 0, 1, 1, 1, 0, 0, 0, 0, 0, 0, 0, 1, 1, 1, 1, 1, 1, 1, 1, 1, 1, 1, 1, 1, 1, 1, 1, 1, 1, 1, 1, 1, 1, 1, 1, 1, 1, 1, 1, 0, 0, 0, 0, 0, 0, 0, 0, 0, 0, 0, 0, 0, 0, 0, 0, 0, 0, 0, 0, 0, 0, 0, 0, 0, 0, 0, 0, 0, 0, 0, 0, 0, 0, 0, 0, 0, 0, 1, 1, 1, 1, 1, 1, 1, 0, 0, 1, 1, 1, 1, 1, 1, 1, 1, 1, 0, 0, 0, 0, 0, 0, 0, 0, 0, 0, 0, 0, 0, 0, 0, 0, 0, 0, 0, 0, 0, 0, 0, 0, 0, 0, 0, 0, 0, 0, 0, 0, 0, 0, 0, 0, 0, 0, 0, 0, 1, 1, 1, 1, 1, 0, 1, 1, 1, 1, 1, 1, 1, 1, 0, 1, 1, 1, 1, 0, 0, 0, 0, 0, 0, 1, 1, 1, 1, 0, 0, 1, 1, 1, 1, 1, 0, 0, 0, 0, 0, 1, 1, 1, 1, 1, 1, 1, 1, 1, 1, 1, 1, 1, 1, 1, 1, 1, 1, 1, 1, 0, 1, 0, 0, 0, 0, 0, 0, 0, 0, 0, 0, 0, 1, 1, 1, 1, 1, 0, 0, 1, 1, 1, 1, 1, 1, 1, 1, 1, 1, 1, 1, 1, 0, 0, 0, 0, 0, 0, 0, 0, 0, 0, 0, 0, 0, 1, 1, 0, 0, 0, 1, 0, 0, 0, 1, 1, 1, 1, 1, 1, 1, 1, 1, 1, 1, 1, 1, 1, 1, 1, 1, 1, 1, 1, 1, 1, 1, 1, 1, 1, 1, 1, 0, 0, 0, 0, 0, 0, 0, 0, 0, 0, 0, 0, 0, 0, 0, 1, 0, 1, 0, 0, 0, 1, 0, 1, 0, 1, 0, 0, 0, 1, 0, 0, 1, 0, 1, 0, 0, 0, 1, 1, 1, 1, 1, 1, 1, 0, 0, 1, 1, 1, 1, 1, 1, 1, 1, 1, 0, 0, 0, 0, 0, 0, 0, 0, 0, 0, 0, 0, 0, 0, 0, 0, 0, 0, 0, 0, 0, 0, 1, 0, 0, 0, 0, 1, 1, 1, 1, 1, 1, 1, 1, 1, 1, 1, 1, 0, 1, 1, 1, 1, 1, 0, 1, 1, 1, 1, 1, 1, 1, 1, 0, 1, 1, 1, 0, 0, 0, 0, 0, 0, 0, 0, 1, 1, 0, 0, 0, 0, 1, 1, 1, 1, 0, 0, 0, 0, 0, 1, 1, 1, 1, 1, 1, 1, 1, 1, 1, 1, 1, 1, 1, 1, 1, 1, 1, 1, 1, 0, 1, 0, 0, 1, 0, 1, 0, 1, 0, 1, 0, 0, 0, 0, 0, 0, 0, 0, 0, 1, 1, 1, 1, 1, 1, 1, 1, 1, 1, 1, 1, 1, 0, 0, 0, 0, 1, 0, 0, 0, 0, 0, 0, 0, 0, 0, 0, 0, 0, 0, 0, 0, 0, 0, 1, 1, 1, 1, 1, 1, 1, 1, 1, 1, 1, 1, 1, 1, 0, 1, 1, 1, 1, 1, 1, 1, 1, 1, 1, 1, 1, 1, 0, 0, 0, 1, 0, 1, 1, 0, 0, 0, 0, 0, 0, 0, 0, 0, 0, 0, 0, 0, 0, 0, 0, 0, 0, 0, 0, 0, 0, 0, 0, 0, 0, 0, 0, 0, 0, 0, 0, 0, 0, 0, 0, 0, 0, 0, 0, 0, 0, 0, 0, 0, 0, 0, 0, 0, 0, 0, 0, 0, 0, 0, 0, 0, 0, 0, 1, 0, 0, 0, 1, 0, 0, 0, 1, 0, 1, 0, 0, 0, 0, 0, 0, 1, 1, 1, 1, 1, 1, 1, 1, 1, 1, 1, 1, 0, 0, 0, 0, 0, 0, 0, 0, 0, 0, 0, 0, 0, 0, 0, 0, 0, 0, 0, 0, 0, 0, 1, 0, 0, 0, 0, 0, 0, 0, 1, 0, 0, 1, 1, 1, 1, 0, 0, 0, 0, 0, 1, 1, 1, 1, 1, 1, 1, 1, 0, 0, 0, 0, 0, 0, 0, 0, 0, 0, 0, 0, 0, 1, 0, 0, 0, 0, 0, 0, 0, 0, 0, 0, 0, 0, 0, 0, 0, 0, 0, 0, 1, 1, 1, 1, 1, 1, 1, 1, 1, 1, 1, 1, 1, 0, 0, 0, 0, 0, 0, 0, 0, 1, 0, 0, 0, 0, 0, 0, 0, 0, 0, 1, 0, 0, 0, 0, 0, 0, 0, 0, 0, 0, 0, 0, 0, 0, 1, 1, 0, 0, 0, 0, 0, 0, 0, 0, 0, 0, 0, 0, 0, 0, 0, 0, 0, 0, 0, 0, 0, 0, 0, 0, 0, 0, 1, 0, 1, 0, 1, 0, 1, 0, 1, 0, 1, 0, 1, 0, 1, 0, 1, 0, 1, 0, 0, 1, 0, 1, 0, 1, 0, 0, 0, 0, 0, 0, 0, 0, 0, 0, 0, 0, 0, 0, 0, 0, 0, 0, 0, 0, 0, 0, 0, 0, 0, 0, 0, 0, 0, 0, 0, 0, 0, 0, 0, 0, 0, 0, 0, 0, 0, 1, 0, 0, 0, 0, 1, 1, 1, 1, 1, 1, 1, 1, 1, 1, 1, 1, 0, 0, 0, 0, 0, 0, 0, 0, 0, 0, 0, 0, 0, 0, 0, 0, 0, 0, 0, 0, 0, 0, 0, 0, 0, 0, 0, 0, 0, 0, 0, 0, 0, 1, 1, 1, 0, 0, 0, 0, 0, 0, 1, 0, 1, 0, 1, 1, 1, 1, 0, 0, 0, 0, 0, 0, 0, 0, 0, 0, 0, 0, 0, 1, 0, 0, 1, 0, 1, 0, 1, 0, 1, 0, 0, 0, 0, 0, 0, 0, 0, 0, 1, 1, 1, 1, 1, 1, 1, 1, 1, 1, 1, 1, 1, 0, 0, 0, 0, 1, 0, 0, 0, 0, 0, 0, 0, 0, 0, 0, 0, 0, 0, 0, 0, 0, 0, 0, 0, 0, 0, 0, 1, 1, 1, 0, 0, 0, 1, 1, 0, 0, 0, 0, 0, 0, 0, 1, 1, 1, 1, 0, 0, 0, 0, 0, 0, 0, 1, 0, 1, 1, 0, 0, 0, 0, 0, 0, 0, 0, 0, 0, 0, 0, 0, 0, 0, 0, 0, 0, 0, 0, 0, 0, 0, 0, 0, 0, 0, 0, 0, 0, 0, 0, 0, 0, 0, 0, 0, 0, 0, 0, 1, 1, 1, 1, 1, 1, 1, 1, 1, 1, 1, 1, 1, 0, 0, 0, 0, 0, 0, 1, 0, 0, 0, 1, 0, 0, 0, 1, 0, 1, 0, 0, 0, 0, 0, 0, 1, 1, 1, 1, 1, 1, 1, 1, 1, 1, 1, 1, 0, 0, 0, 0, 0, 0, 0, 0, 0, 0, 0, 0, 0, 0, 0, 0, 0, 0, 0, 0, 0, 0, 1, 0, 0, 0, 0, 0, 0, 0, 1, 0, 0, 1, 1, 0, 0, 0, 0, 0, 0, 0, 1, 1, 1, 1, 1, 1, 1, 1, 0, 0, 0, 0, 0, 0, 0, 0, 0, 0, 0, 0, 0, 1, 0, 0, 0, 0, 0, 0, 0, 0, 0, 0, 0, 1, 1, 1, 1, 1, 0, 0, 1, 1, 1, 1, 1, 1, 1, 1, 1, 1, 1, 1, 1, 0, 0, 0, 0, 0, 0, 0, 0, 0, 0, 0, 0, 0, 1, 1, 0, 0, 0, 1, 0, 0, 0, 0, 0, 0, 0, 0, 1, 1, 1, 0, 0, 0, 1, 1, 0, 0, 0, 0, 0, 0, 0, 1, 1, 1, 1, 0, 0, 0, 0, 0, 0, 0, 0, 0, 0, 0, 0, 0, 0, 0, 0, 0, 0, 0, 1, 0, 1, 0, 0, 0, 1, 0, 1, 0, 1, 0, 0, 0, 1, 0, 0, 1, 0, 1, 0, 0, 0, 1, 1, 1, 1, 1, 1, 1, 0, 0, 1, 1, 1, 1, 1, 1, 1, 1, 1, 1, 1, 1, 1, 0, 0, 0, 0, 0, 0, 0, 0, 0, 0, 0, 0, 0, 0, 0, 0, 0, 0, 1, 0, 0, 0, 0, 1, 1, 1, 1, 1, 1, 1, 1, 1, 1, 1, 1, 0, 1, 1, 1, 1, 1, 0, 1, 1, 1, 1, 1, 1, 1, 1, 0, 1, 1, 1, 0, 0, 0, 0, 0, 0, 0, 0, 1, 1, 0, 0, 0, 0, 1, 1, 0, 0, 0, 0, 0, 0, 0, 1, 1, 1, 1, 1, 1, 1, 1, 0, 0, 0, 0, 0, 0, 0, 0, 0, 0, 0, 0, 0, 1, 1, 0, 0, 0, 0, 0, 0, 0, 0, 0, 0, 1, 1, 1, 1, 1, 0, 0, 0, 0, 0, 0, 0, 0, 0, 0, 0, 0, 0, 0, 0, 0, 0, 0, 0, 0, 0, 0, 0, 0, 0, 0, 0, 1, 1, 1, 0, 0, 0, 0, 0, 0, 0, 0, 0, 0, 0, 0, 1, 1, 1, 0, 0, 0, 1, 1, 0, 0, 0, 0, 0, 0, 0, 1, 1, 1, 1, 0, 0, 0, 0, 0, 0, 0, 0, 0, 0, 0, 0, 0, 0, 0, 0, 0, 0, 0, 0, 0, 0, 0, 0, 0, 0, 0, 0, 0, 0, 0, 0, 0, 0, 0, 0, 0, 0, 0, 0, 0, 0, 1, 1, 1, 1, 1, 1, 1, 0, 0, 1, 1, 1, 1, 1, 1, 1, 1, 1, 1, 1, 1, 1, 0, 0, 0, 0, 0, 0, 0, 0, 0, 0, 0, 0, 0, 0, 0, 0, 0, 0, 0, 0, 0, 0, 0, 0, 0, 0, 0, 0, 1, 1, 1, 1, 1, 1, 1, 0, 1, 1, 1, 1, 1, 0, 1, 1, 1, 1, 1, 1, 1, 1, 0, 1, 1, 1, 1, 0, 0, 0, 0, 0, 0, 1, 1, 1, 1, 0, 0, 1, 1, 1, 1, 0, 0, 0, 0, 0, 0, 1, 1, 1, 1, 1, 1, 1, 1, 0, 0, 0, 0, 0, 0, 0, 0, 0, 0, 0, 0, 1, 1, 1, 1, 1, 1, 1, 1, 1, 1, 1, 0, 0, 1, 1, 1, 1, 1, 1, 1, 1, 0, 0, 1, 1, 0, 0, 0, 0, 0, 1, 1, 1, 1, 1, 0, 0, 1, 0, 0, 0, 1, 0, 1, 0, 1, 1, 1, 1, 0, 0, 1, 1, 1, 1, 0, 0, 1, 1, 0, 1, 1, 1, 0, 0, 0, 1, 1, 0, 0, 0, 1, 0, 1, 0, 1, 1, 1, 1, 1, 1, 1, 1, 1, 1, 1, 1, 1, 1, 1, 1, 1, 1, 1, 1, 1, 1, 1, 1, 1, 1, 1, 1, 1, 1, 1, 1, 1, 1, 0, 1, 0, 1, 0, 0, 1, 0, 1, 0, 1, 0, 1, 1, 1, 1, 1, 1, 1, 0, 0, 1, 1, 1, 1, 1, 1, 1, 1, 1, 1, 1, 1, 1, 0, 0, 0, 0, 1, 1, 1, 0, 1, 0, 1, 0, 0, 0, 1, 0, 1, 0, 1, 1, 0, 1, 1, 1, 1, 1, 1, 0, 1, 1, 1, 1, 1, 1, 1, 0, 1, 1, 1, 1, 1, 0, 1, 1, 1, 1, 1, 1, 1, 1, 0, 1, 1, 1, 1, 1, 1, 1, 1, 1, 1, 1, 1, 1, 1, 1, 1, 1, 1, 1, 1, 1, 1, 0, 0, 0, 0, 1, 1, 1, 1, 1, 1, 1, 1, 0, 0, 0, 0, 0, 0, 0, 0, 0, 0, 0, 0, 1, 1, 1, 1, 1, 1, 1, 1, 1, 1, 1, 0, 0, 1, 1, 1, 1, 1, 1, 1, 1, 0, 0, 1, 1, 0, 0, 0, 0, 0, 1, 1, 1, 1, 1, 0, 0, 1, 0, 0, 0, 1, 0, 1, 0, 1, 1, 1, 1, 0, 0, 1, 1, 1, 1, 0, 0, 1, 1, 0, 1, 1, 1, 0, 0, 0, 1, 1, 0, 0, 0, 1, 0, 1, 0, 1, 1, 1, 1, 1, 1, 1, 1, 1, 1, 1, 1, 1, 1, 1, 1, 1, 1, 1, 1, 1, 1, 1, 1, 1, 1, 1, 1, 1, 1, 1, 1, 1, 1, 0, 1, 0, 1, 0, 0, 1, 0, 1, 0, 1, 0, 1, 1, 1, 1, 1, 1, 1, 0, 0, 1, 1, 1, 1, 1, 1, 1, 1, 1, 1, 1, 1, 1, 0, 0, 0, 0, 1, 1, 1, 0, 1, 0, 1, 0, 0, 0, 1, 0, 1, 0, 1, 1, 0, 1, 1, 1, 1, 1, 1, 0, 1, 1, 1, 1, 1, 1, 1, 0, 1, 1, 1, 1, 1, 0, 1, 1, 1, 1, 1, 1, 1, 1, 0, 1, 1, 1, 1, 1, 1, 1, 1, 1, 1, 1, 1, 1, 1, 1, 1, 1, 1, 1, 1, 1, 1, 0, 0, 0, 0, 1, 1, 1, 1, 1, 1, 1, 1, 0, 0, 0, 0, 0, 0, 0, 0, 0, 0, 0, 0, 1, 1, 1, 1, 1, 1, 1, 1, 1, 1, 1, 0, 0, 1, 1, 1, 1, 1, 1, 1, 1, 0, 0, 1, 1, 0, 0, 0, 0, 0, 1, 1, 1, 1, 1, 0, 0, 1, 0, 0, 0, 1, 0, 1, 0, 1, 1, 1, 1, 0, 0, 1, 1, 0, 1, 0, 0, 1, 1, 0, 1, 1, 1, 0, 0, 0, 1, 1, 0, 0, 0, 1, 0, 1, 0, 1, 1, 1, 1, 1, 1, 1, 1, 0, 1, 1, 1, 1, 1, 1, 1, 1, 1, 1, 1, 1, 1, 1, 1, 1, 1, 1, 1, 1, 1, 1, 1, 1, 1, 0, 1, 0, 1, 0, 0, 1, 0, 1, 0, 1, 0, 1, 1, 1, 1, 1, 1, 1, 0, 0, 1, 1, 1, 1, 1, 1, 1, 1, 1, 1, 1, 1, 1, 0, 0, 0, 0, 1, 1, 1, 0, 1, 0, 1, 0, 0, 0, 1, 0, 1, 0, 1, 1, 0, 1, 1, 1, 1, 1, 1, 0, 1, 1, 1, 1, 1, 1, 1, 0, 1, 1, 1, 1, 1, 0, 1, 1, 1, 1, 1, 1, 1, 1, 0, 1, 1, 1, 1, 1, 1, 1, 1, 1, 1, 1, 1, 1, 1, 1, 1, 1, 1, 1, 1, 0, 1, 0, 0, 0, 0, 1, 1, 1, 1, 1, 1, 1, 1, 0, 0, 0, 0, 0, 0, 0, 0, 0, 0, 0, 0, 1, 1, 1, 1, 1, 1, 1, 1, 1, 1, 1, 0, 0, 1, 1, 1, 1, 1, 1, 1, 1, 0, 0, 0, 1, 0, 0, 0, 0, 0, 1, 1, 1, 0, 0, 0, 0, 0, 0, 0, 0, 0, 0, 0, 0, 1, 1, 1, 1, 0, 0, 0, 0, 0, 0, 0, 0, 0, 0, 0, 0, 0, 0, 0, 0, 0, 1, 1, 0, 0, 0, 0, 0, 0, 0, 0, 0, 0, 0, 0, 0, 0, 0, 0, 0, 0, 0, 0, 0, 0, 1, 1, 1, 0, 0, 0, 0, 0, 0, 0, 1, 1, 0, 0, 0, 1, 1, 1, 0, 0, 0, 0, 0, 0, 0, 0, 0, 0, 0, 0, 0, 1, 1, 0, 0, 0, 0, 0, 0, 0, 1, 1, 1, 1, 1, 1, 1, 1, 1, 1, 1, 1, 1, 0, 0, 0, 0, 0, 0, 0, 0, 0, 0, 0, 0, 0, 0, 0, 0, 0, 0, 0, 0, 0, 0, 1, 1, 1, 1, 1, 0, 1, 1, 0, 0, 0, 0, 0, 0, 0, 0, 0, 0, 0, 0, 0, 0, 0, 0, 0, 0, 1, 0, 0, 1, 1, 1, 1, 0, 0, 0, 0, 0, 0, 0, 0, 0, 0, 0, 0, 0, 0, 0, 0, 0, 0, 0, 0, 0, 0, 1, 1, 1, 1, 1, 1, 1, 1, 0, 0, 0, 0, 0, 0, 0, 0, 0, 0, 0, 0, 0, 1, 1, 1, 1, 1, 1, 1, 1, 1, 1, 0, 0, 1, 1, 1, 1, 1, 1, 1, 1, 0, 0, 0, 1, 0, 0, 0, 0, 0, 0, 0, 0, 0, 1, 0, 0, 0, 0, 0, 0, 1, 0, 0, 0, 0, 1, 1, 0, 0, 0, 0, 0, 0, 0, 0, 0, 0, 0, 0, 0, 0, 0, 0, 0, 0, 1, 1, 0, 0, 0, 1, 0, 0, 0, 0, 0, 0, 0, 1, 1, 1, 1, 0, 0, 0, 0, 0, 0, 0, 0, 1, 0, 0, 1, 0, 1, 0, 0, 0, 0, 0, 0, 1, 0, 0, 1, 0, 0, 0, 1, 0, 0, 0, 0, 1, 0, 0, 0, 1, 0, 1, 0, 0, 0, 0, 1, 0, 0, 0, 1, 1, 1, 1, 1, 1, 1, 1, 1, 1, 1, 1, 1, 0, 0, 0, 0, 0, 0, 0, 0, 0, 0, 0, 0, 0, 0, 0, 0, 0, 0, 1, 0, 0, 0, 0, 1, 1, 1, 1, 0, 1, 0, 0, 0, 0, 0, 0, 0, 1, 1, 1, 1, 0, 0, 1, 1, 1, 1, 1, 1, 1, 1, 0, 1, 1, 1, 0, 0, 1, 1, 1, 0, 0, 0, 0, 0, 0, 0, 0, 0, 0, 0, 0, 0, 0, 0, 0, 0, 0, 1, 1, 1, 1, 1, 1, 1, 1, 0, 0, 0, 0, 0, 0, 0, 0, 0, 0, 0, 0, 0, 0, 0, 0, 0, 0, 0, 0, 0, 0, 0, 0, 0, 0, 0, 0, 0, 0, 0, 0, 0, 0, 0, 0, 1, 0, 0, 0, 0, 0, 0, 0, 0, 0, 0, 0, 0, 1, 0, 0, 0, 0, 0, 0, 0, 0, 0, 0, 0, 0, 0, 0, 1, 0, 0, 0, 0, 0, 0, 0, 0, 0, 0, 0, 0, 0, 1, 1, 0, 0, 0, 0, 0, 1, 0, 0, 0, 0, 0, 0, 0, 0, 0, 0, 1, 1, 1, 0, 0, 0, 0, 0, 0, 0, 0, 0, 0, 0, 0, 0, 0, 0, 0, 0, 0, 0, 0, 0, 1, 0, 0, 0, 0, 0, 0, 0, 0, 0, 0, 0, 0, 0, 0, 1, 0, 0, 0, 0, 0, 0, 1, 1, 1, 1, 1, 1, 1, 1, 1, 1, 1, 1, 1, 0, 0, 0, 0, 0, 1, 0, 0, 0, 0, 1, 0, 0, 0, 1, 0, 1, 0, 0, 0, 0, 0, 0, 0, 0, 0, 0, 0, 1, 0, 0, 0, 0, 0, 0, 0, 1, 1, 1, 1, 0, 0, 1, 1, 1, 1, 1, 1, 1, 1, 0, 0, 0, 0, 0, 0, 0, 0, 0, 0, 0, 0, 0, 1, 1, 1, 1, 0, 0, 0, 0, 0, 0, 0, 0, 0, 0, 1, 1, 1, 1, 1, 1, 1, 1, 0, 0, 0, 0, 0, 0, 0, 0, 0, 0, 0, 0, 0, 0, 0, 0, 0, 0, 0, 0, 0, 0, 0, 0, 0, 0, 0, 0, 0, 0, 0, 0, 0, 0, 0, 0, 1, 0, 0, 0, 0, 0, 0, 0, 0, 0, 1, 0, 0, 0, 0, 0, 0, 1, 0, 1, 0, 0, 0, 0, 0, 0, 0, 0, 0, 0, 0, 0, 0, 0, 0, 0, 0, 0, 0, 0, 0, 0, 0, 0, 0, 0, 0, 1, 0, 0, 0, 0, 0, 0, 0, 1, 1, 1, 1, 0, 0, 0, 0, 0, 0, 0, 0, 0, 0, 0, 1, 0, 1, 0, 0, 0, 0, 0, 0, 1, 0, 0, 0, 0, 0, 0, 1, 0, 1, 0, 0, 1, 0, 1, 0, 1, 0, 0, 0, 0, 0, 0, 1, 0, 0, 0, 0, 0, 0, 0, 0, 0, 0, 0, 0, 0, 0, 0, 0, 0, 0, 0, 0, 0, 0, 0, 0, 0, 0, 0, 0, 0, 0, 0, 0, 0, 0, 1, 0, 0, 0, 0, 0, 0, 0, 0, 0, 1, 0, 0, 0, 0, 0, 0, 0, 1, 1, 1, 1, 0, 0, 1, 1, 1, 1, 1, 1, 1, 1, 0, 0, 0, 0, 0, 0, 1, 1, 1, 0, 1, 1, 0, 0, 0, 0, 0, 0, 0, 0, 0, 0, 0, 0, 0, 0, 0, 1, 1, 1, 1, 1, 1, 1, 1, 0, 0, 0, 0, 0, 0, 0, 0, 0, 0, 0, 0, 0, 0, 0, 0, 0, 0, 0, 0, 0, 0, 0, 0, 0, 0, 0, 0, 0, 0, 0, 0, 0, 0, 0, 0, 1, 0, 0, 0, 0, 0, 0, 0, 0, 0, 0, 0, 0, 1, 0, 0, 0, 0, 0, 0, 0, 0, 0, 0, 0, 0, 0, 0, 1, 0, 0, 0, 0, 0, 0, 0, 0, 0, 0, 0, 0, 0, 1, 1, 0, 0, 0, 0, 0, 1, 0, 0, 0, 0, 0, 0, 0, 0, 0, 0, 1, 1, 1, 0, 0, 0, 0, 0, 0, 0, 0, 0, 0, 0, 0, 0, 0, 0, 0, 0, 0, 0, 0, 0, 1, 0, 0, 0, 0, 0, 0, 0, 0, 0, 0, 0, 0, 0, 0, 1, 0, 0, 0, 0, 0, 0, 0, 0, 0, 0, 0, 0, 0, 0, 0, 0, 0, 0, 0, 0, 0, 0, 0, 0, 1, 0, 0, 0, 0, 1, 0, 0, 0, 1, 0, 1, 0, 0, 0, 0, 0, 0, 0, 0, 0, 0, 0, 1, 0, 0, 0, 0, 0, 0, 0, 1, 1, 1, 1, 0, 0, 1, 1, 1, 1, 1, 1, 1, 1, 0, 0, 0, 0, 0, 0, 0, 0, 0, 0, 0, 0, 0, 1, 1, 1, 1, 0, 0, 0, 0, 0, 0, 0, 0, 0, 0, 1, 1, 1, 1, 1, 1, 1, 1, 0, 0, 0, 0, 0, 0, 0, 0, 0, 0, 0, 0, 0, 1, 1, 1, 1, 1, 1, 1, 1, 1, 1, 0, 0, 1, 1, 1, 1, 1, 1, 1, 1, 1, 0, 0, 1, 1, 1, 1, 1, 1, 0, 0, 0, 0, 1, 0, 0, 0, 0, 0, 0, 1, 0, 0, 0, 0, 1, 1, 0, 0, 0, 0, 0, 0, 0, 0, 0, 0, 0, 0, 0, 0, 0, 0, 0, 0, 1, 1, 0, 0, 0, 1, 0, 0, 0, 0, 0, 0, 0, 1, 1, 1, 1, 0, 0, 0, 0, 0, 0, 0, 0, 1, 0, 0, 1, 0, 1, 0, 0, 0, 0, 0, 0, 1, 0, 0, 1, 0, 0, 0, 1, 0, 0, 0, 0, 1, 0, 0, 0, 1, 0, 1, 0, 0, 0, 0, 1, 0, 0, 0, 0, 0, 0, 0, 0, 0, 0, 0, 0, 0, 0, 0, 0, 0, 0, 0, 0, 0, 0, 0, 0, 0, 0, 0, 0, 0, 0, 0, 0, 0, 0, 1, 0, 0, 0, 0, 1, 1, 1, 1, 1, 1, 0, 0, 0, 0, 0, 0, 0, 1, 1, 1, 1, 0, 0, 1, 1, 1, 1, 1, 1, 1, 1, 1, 1, 1, 1, 0, 0, 1, 1, 1, 0, 0, 0, 0, 0, 0, 0, 0, 0, 0, 0, 0, 0, 0, 0, 0, 0, 0, 1, 1, 1, 1, 1, 1, 1, 1, 0, 0, 0, 0, 0, 0, 0, 0, 0, 0, 0, 0, 1, 1, 1, 1, 1, 1, 1, 1, 1, 1, 1, 0, 0, 1, 1, 1, 1, 1, 1, 1, 1, 1, 0, 0, 1, 1, 1, 1, 1, 1, 1, 1, 1, 0, 0, 0, 0, 0, 0, 0, 0, 0, 0, 0, 0, 1, 1, 1, 1, 0, 0, 0, 0, 0, 0, 0, 0, 0, 0, 0, 0, 0, 0, 0, 0, 0, 1, 1, 0, 0, 0, 0, 0, 0, 0, 0, 0, 0, 0, 0, 0, 0, 0, 0, 0, 0, 0, 0, 0, 0, 1, 1, 1, 0, 0, 0, 0, 0, 0, 0, 1, 1, 0, 0, 0, 1, 1, 1, 0, 0, 0, 0, 0, 0, 0, 0, 0, 0, 0, 0, 0, 1, 1, 0, 0, 0, 0, 0, 0, 0, 0, 0, 0, 0, 0, 0, 0, 0, 0, 0, 0, 0, 0, 0, 0, 0, 0, 0, 0, 0, 0, 0, 0, 0, 0, 0, 0, 0, 0, 0, 0, 0, 0, 0, 0, 1, 1, 1, 1, 1, 1, 1, 1, 0, 0, 0, 0, 0, 0, 0, 0, 0, 0, 0, 0, 1, 1, 1, 1, 1, 1, 1, 1, 1, 1, 1, 1, 1, 0, 0, 0, 0, 0, 0, 0, 0, 0, 0, 0, 0, 0, 0, 0, 0, 0, 0, 0, 0, 0, 0, 1, 1, 1, 1, 1, 1, 1, 1, 1, 1, 1, 1, 1, 1, 1, 1, 1, 1, 1, 1, 1, 1, 1, 1, 1, 1, 1, 1, 1, 1, 1, 0, 0, 1, 1, 1, 1, 1, 1, 1, 1, 1, 0, 0, 1, 1, 1, 1, 1, 1, 1, 1, 1, 1, 1, 1, 1, 1, 0, 0, 0, 1, 0, 1, 0, 1, 1, 1, 1, 1, 1, 1, 1, 1, 1, 1, 1, 1, 1, 1, 1, 1, 1, 1, 1, 0, 1, 1, 1, 1, 1, 1, 1, 1, 1, 1, 1, 1, 1, 1, 1, 1, 1, 1, 1, 1, 1, 1, 0, 0, 1, 1, 1, 1, 1, 1, 1, 1, 0, 0, 1, 1, 1, 1, 1, 1, 1, 1, 1, 0, 1, 0, 1, 0, 0, 1, 0, 1, 0, 1, 0, 1, 1, 1, 1, 1, 1, 1, 1, 1, 1, 1, 1, 1, 1, 1, 1, 1, 1, 1, 1, 1, 1, 1, 1, 1, 1, 1, 1, 1, 1, 1, 1, 1, 1, 1, 1, 1, 1, 1, 1, 1, 0, 0, 0, 1, 1, 1, 1, 1, 1, 1, 1, 1, 1, 1, 1, 1, 1, 1, 1, 1, 1, 1, 1, 1, 1, 1, 1, 1, 1, 1, 1, 1, 1, 1, 1, 1, 1, 1, 1, 1, 1, 1, 1, 1, 1, 1, 1, 1, 1, 1, 1, 1, 1, 1, 0, 0, 0, 0, 1, 1, 1, 1, 1, 1, 1, 1, 1, 1, 1, 1, 1, 1, 1, 1, 1, 1, 1, 1, 1, 1, 1, 1, 1, 1, 1, 1, 1, 1, 1, 0, 0, 1, 1, 1, 1, 1, 1, 1, 1, 1, 0, 0, 1, 1, 1, 1, 1, 1, 1, 1, 1, 1, 1, 1, 1, 1, 0, 0, 0, 1, 0, 1, 0, 1, 1, 1, 1, 1, 1, 1, 1, 1, 1, 1, 1, 1, 1, 1, 1, 1, 1, 1, 1, 0, 1, 1, 1, 1, 1, 1, 1, 1, 1, 1, 1, 1, 1, 1, 1, 1, 1, 1, 1, 1, 1, 1, 0, 0, 1, 1, 1, 1, 1, 1, 1, 1, 0, 0, 1, 1, 1, 1, 1, 1, 1, 1, 1, 0, 1, 0, 1, 0, 0, 1, 0, 1, 0, 1, 0, 1, 1, 1, 1, 1, 1, 1, 1, 1, 1, 1, 1, 1, 1, 1, 1, 1, 1, 1, 1, 1, 1, 1, 1, 1, 1, 1, 1, 1, 1, 1, 1, 1, 1, 1, 1, 1, 1, 1, 1, 1, 0, 0, 0, 1, 1, 1, 1, 1, 1, 1, 1, 1, 1, 1, 1, 1, 1, 1, 1, 1, 1, 1, 1, 1, 1, 1, 1, 1, 1, 1, 1, 1, 1, 1, 1, 1, 1, 1, 1, 1, 1, 1, 1, 1, 1, 1, 1, 1, 1, 1, 1, 1, 1, 1, 0, 0, 0, 0, 1, 1, 1, 1, 1, 1, 1, 1, 1, 1, 1, 1, 1, 1, 1, 1, 1, 0, 1, 1, 1, 1, 1, 1, 1, 1, 1, 1, 1, 1, 1, 0, 0, 1, 1, 1, 1, 1, 1, 1, 1, 1, 0, 0, 1, 1, 1, 1, 1, 1, 1, 1, 1, 1, 1, 1, 1, 1, 0, 0, 0, 1, 0, 1, 0, 1, 1, 1, 1, 1, 1, 1, 1, 1, 1, 1, 1, 1, 1, 1, 1, 1, 1, 0, 1, 0, 1, 1, 1, 1, 1, 1, 1, 1, 1, 1, 1, 1, 1, 1, 1, 1, 1, 1, 1, 1, 1, 1, 0, 0, 1, 1, 1, 1, 1, 0, 1, 1, 0, 0, 1, 1, 1, 1, 1, 1, 1, 1, 1, 0, 1, 0, 1, 0, 0, 1, 0, 1, 0, 1, 0, 1, 1, 1, 1, 1, 1, 1, 1, 1, 1, 1, 1, 1, 1, 1, 1, 1, 1, 1, 1, 1, 1, 1, 1, 1, 1, 1, 1, 1, 1, 1, 1, 1, 1, 1, 1, 1, 1, 1, 1, 1, 0, 0, 0, 1, 1, 1, 1, 1, 1, 1, 1, 1, 1, 1, 1, 1, 1, 1, 1, 1, 1, 1, 1, 1, 1, 1, 1, 1, 1, 1, 1, 1, 1, 1, 1, 1, 1, 1, 1, 1, 1, 1, 1, 1, 1, 1, 1, 1, 1, 1, 1, 1, 1, 1, 0, 0, 0, 0, 1, 1, 1, 1, 1, 1, 1, 1, 1, 1, 0, 0, 0, 0, 0, 0, 0, 0, 0, 0, 0, 0, 0, 0, 0, 0, 0, 0, 0, 0, 0, 0, 0, 0, 1, 1, 1, 1, 1, 1, 1, 1, 0, 0, 0, 0, 0, 0, 0, 0, 0, 0, 0, 0, 0, 0, 0, 0, 0, 0, 0, 0, 0, 0, 0, 1, 1, 1, 0, 0, 0, 0, 0, 0, 0, 0, 0, 0, 0, 0, 1, 1, 1, 0, 0, 0, 1, 1, 0, 0, 0, 0, 0, 0, 0, 0, 0, 0, 0, 0, 0, 0, 0, 0, 0, 0, 0, 0, 0, 0, 1, 1, 1, 1, 1, 0, 0, 0, 0, 0, 1, 1, 1, 1, 1, 1, 1, 1, 0, 0, 0, 0, 0, 0, 0, 0, 0, 0, 0, 0, 0, 0, 1, 1, 1, 1, 1, 0, 0, 0, 0, 0, 0, 1, 1, 1, 1, 1, 1, 1, 1, 1, 1, 0, 0, 1, 1, 1, 1, 1, 1, 1, 1, 1, 1, 1, 1, 1, 0, 0, 0, 0, 0, 0, 0, 0, 0, 0, 0, 0, 0, 0, 0, 0, 0, 0, 0, 0, 0, 0, 0, 0, 0, 0, 0, 0, 0, 0, 0, 0, 0, 0, 0, 0, 0, 0, 0, 0, 1, 1, 1, 1, 1, 1, 1, 1, 1, 1, 1, 1, 1, 1, 1, 1, 1, 1, 0, 0, 0, 0, 1, 1, 1, 1, 1, 1, 1, 1, 1, 0, 0, 1, 1, 0, 1, 1, 0, 0, 0, 0, 0, 0, 0, 0, 0, 0, 0, 0, 0, 0, 0, 0, 0, 0, 0, 1, 1, 1, 1, 1, 1, 1, 1, 1, 1, 1, 1, 1, 1, 1, 1, 1, 1, 1, 1, 1, 1, 1, 0, 0, 0, 0, 0, 0, 0, 0, 1, 0, 0, 0, 0, 0, 0, 1, 1, 1, 0, 0, 0, 0, 0, 1, 0, 0, 0, 0, 1, 1, 0, 1, 0, 0, 0, 1, 0, 0, 0, 0, 0, 0, 0, 0, 0, 0, 1, 0, 0, 0, 0, 0, 1, 1, 1, 1, 0, 0, 0, 0, 0, 0, 1, 1, 1, 1, 1, 1, 1, 1, 0, 0, 0, 0, 1, 0, 0, 1, 0, 1, 0, 1, 0, 0, 0, 1, 1, 1, 1, 0, 0, 0, 0, 0, 0, 0, 1, 1, 1, 1, 1, 1, 0, 0, 0, 0, 0, 0, 1, 1, 1, 1, 1, 1, 1, 1, 1, 1, 1, 0, 0, 0, 0, 0, 0, 0, 0, 0, 0, 0, 0, 0, 0, 0, 0, 0, 0, 0, 0, 0, 0, 0, 0, 0, 0, 0, 0, 0, 0, 0, 0, 0, 0, 0, 0, 0, 0, 0, 0, 0, 1, 1, 1, 1, 1, 1, 1, 1, 1, 1, 1, 1, 1, 1, 1, 1, 1, 1, 0, 0, 0, 0, 1, 1, 1, 1, 1, 1, 1, 1, 0, 0, 0, 1, 1, 0, 1, 1, 0, 0, 0, 0, 0, 0, 0, 0, 0, 0, 0, 0, 0, 0, 0, 0, 0, 0, 0, 0, 0, 0, 1, 1, 1, 1, 1, 1, 1, 1, 1, 1, 1, 1, 1, 1, 1, 1, 1, 1, 1, 1, 0, 0, 0, 0, 0, 0, 0, 0, 0, 0, 0, 0, 1, 0, 1, 1, 0, 1, 1, 0, 1, 0, 0, 1, 0, 0, 0, 0, 1, 1, 0, 0, 0, 1, 0, 0, 0, 0, 0, 0, 0, 0, 0, 0, 0, 0, 0, 0, 1, 0, 0, 0, 0, 1, 1, 0, 0, 0, 0, 0, 0, 0, 1, 1, 1, 1, 1, 1, 1, 0, 1, 0, 1, 0, 0, 0, 0, 0, 0, 0, 0, 0, 0, 0, 0, 0, 1, 1, 1, 0, 0, 0, 1, 0, 0, 0, 1, 1, 1, 1, 1, 0, 0, 0, 0, 0, 0, 0, 1, 1, 1, 1, 1, 1, 1, 1, 1, 1, 0, 0, 0, 0, 0, 0, 0, 0, 0, 0, 0, 0, 0, 0, 0, 0, 0, 0, 0, 0, 0, 0, 0, 0, 0, 0, 0, 0, 0, 0, 0, 0, 0, 0, 0, 0, 0, 0, 0, 0, 0, 0, 0, 0, 0, 0, 0, 0, 0, 0, 0, 0, 0, 0, 0, 0, 0, 0, 0, 0, 0, 0, 0, 0, 1, 1, 1, 1, 1, 1, 1, 0, 0, 0, 0, 0, 0, 0, 0, 0, 0, 0, 0, 0, 0, 0, 0, 0, 0, 0, 0, 0, 0, 0, 0, 0, 0, 0, 0, 0, 0, 0, 0, 0, 0, 0, 1, 1, 1, 1, 1, 1, 1, 1, 1, 1, 1, 1, 1, 1, 1, 1, 0, 0, 0, 1, 0, 0, 0, 0, 0, 0, 0, 0, 0, 0, 0, 0, 0, 0, 0, 0, 0, 0, 0, 1, 0, 0, 1, 0, 1, 1, 0, 1, 0, 0, 0, 1, 0, 0, 0, 0, 1, 0, 0, 1, 0, 0, 1, 0, 0, 0, 0, 0, 0, 0, 0, 0, 0, 0, 0, 0, 0, 0, 0, 0, 0, 0, 0, 0, 0, 0, 0, 0, 0, 0, 1, 0, 0, 1, 0, 1, 0, 1, 0, 0, 0, 0, 0, 1, 1, 0, 0, 1, 0, 1, 0, 0, 0, 0, 0, 0, 0, 0, 0, 0, 0, 0, 0, 0, 0, 0, 0, 0, 0, 0, 0, 0, 0, 0, 0, 0, 0, 0, 0, 0, 0, 0, 0, 0, 0, 0, 0, 0, 0, 0, 0, 0, 0, 0, 0, 0, 0, 0, 0, 0, 0, 0, 0, 0, 0, 0, 0, 0, 0, 0, 0, 0, 0, 0, 0, 0, 0, 0, 0, 0, 0, 0, 0, 0, 0, 0, 0, 0, 0, 0, 0, 0, 0, 0, 0, 0, 0, 0, 1, 1, 1, 1, 1, 1, 1, 1, 0, 0, 0, 0, 1, 1, 0, 1, 1, 0, 0, 0, 0, 0, 0, 0, 0, 0, 0, 0, 0, 0, 0, 0, 0, 0, 0, 0, 0, 0, 0, 0, 0, 0, 1, 1, 1, 1, 1, 1, 1, 1, 1, 1, 1, 1, 1, 1, 1, 1, 0, 0, 0, 0, 0, 0, 0, 0, 0, 0, 0, 0, 1, 0, 1, 0, 0, 0, 1, 0, 1, 0, 0, 1, 0, 0, 0, 0, 1, 1, 0, 0, 0, 1, 0, 0, 0, 0, 0, 0, 0, 0, 0, 0, 0, 0, 0, 0, 1, 0, 0, 0, 0, 1, 1, 0, 0, 0, 0, 0, 0, 0, 0, 0, 0, 0, 0, 1, 1, 0, 1, 0, 1, 0, 0, 0, 0, 0, 0, 0, 0, 0, 0, 0, 0, 0, 0, 0, 0, 0, 0, 0, 1, 0, 0, 0, 1, 1, 1, 1, 1, 0, 0, 0, 0, 0, 0, 0, 1, 1, 1, 1, 1, 1, 1, 1, 1, 1, 0, 0, 1, 1, 1, 1, 1, 1, 1, 1, 1, 1, 1, 1, 1, 1, 1, 1, 1, 1, 1, 1, 1, 1, 1, 1, 1, 1, 1, 1, 1, 1, 1, 1, 1, 1, 1, 1, 1, 1, 1, 1, 1, 1, 1, 1, 1, 1, 1, 1, 1, 1, 1, 1, 1, 1, 1, 1, 1, 1, 1, 1, 1, 1, 1, 1, 1, 1, 1, 1, 1, 1, 1, 0, 0, 0, 1, 1, 0, 1, 1, 0, 0, 0, 0, 0, 0, 0, 0, 0, 0, 0, 0, 0, 0, 0, 0, 0, 0, 1, 1, 1, 0, 0, 0, 0, 1, 1, 1, 1, 1, 1, 1, 1, 1, 1, 1, 1, 1, 1, 1, 1, 0, 0, 0, 0, 0, 0, 0, 0, 1, 0, 0, 0, 0, 0, 0, 0, 0, 0, 0, 0, 0, 0, 0, 1, 0, 0, 0, 0, 1, 1, 0, 1, 0, 0, 0, 1, 0, 0, 0, 0, 0, 0, 0, 0, 0, 0, 1, 0, 0, 0, 0, 0, 1, 1, 1, 0, 0, 0, 0, 0, 0, 0, 0, 0, 0, 0, 0, 1, 1, 1, 0, 0, 0, 0, 1, 0, 0, 1, 0, 1, 0, 1, 0, 0, 0, 0, 0, 0, 0, 0, 0, 0, 0, 0, 0, 0, 1, 1, 1, 1, 1, 1, 0, 0, 0, 0, 0, 0, 1, 1, 1, 1, 1, 1, 1, 1, 1, 1, 1, 0, 1, 1, 1, 1, 1, 1, 1, 1, 1, 1, 1, 1, 1, 1, 1, 1, 1, 1, 1, 1, 1, 1, 1, 1, 1, 1, 1, 1, 1, 1, 1, 1, 1, 1, 1, 1, 1, 1, 1, 1, 1, 1, 1, 1, 1, 1, 1, 1, 1, 1, 1, 1, 1, 1, 1, 1, 1, 1, 1, 1, 1, 1, 1, 1, 1, 1, 1, 1, 1, 1, 1, 1, 0, 0, 0, 0, 0, 0, 0, 0, 0, 0, 0, 0, 0, 0, 0, 0, 0, 0, 0, 0, 0, 0, 0, 0, 1, 1, 1, 1, 0, 0, 0, 0, 0, 0, 0, 0, 0, 0, 0, 0, 0, 0, 0, 0, 0, 0, 0, 0, 0, 0, 0, 0, 0, 0, 0, 1, 1, 1, 0, 0, 0, 0, 0, 0, 0, 0, 0, 0, 0, 0, 1, 1, 1, 0, 0, 0, 1, 1, 0, 0, 0, 0, 0, 0, 0, 0, 0, 0, 0, 0, 0, 0, 0, 0, 0, 0, 0, 0, 0, 0, 1, 1, 1, 0, 0, 0, 0, 0, 0, 0, 0, 0, 0, 0, 0, 1, 1, 1, 0, 0, 0, 0, 0, 0, 0, 0, 0, 0, 0, 0, 0, 0, 0, 0, 0, 1, 1, 0, 0, 0, 0, 0, 0, 1, 1, 1, 1, 1, 1, 1, 1, 1, 1, 0, 0, 1, 1, 1, 1, 1, 1, 1, 1, 1, 1, 1, 1, 1, 1, 1, 1, 1, 1, 1, 1, 1, 1, 1, 1, 1, 1, 1, 1, 1, 1, 1, 1, 1, 1, 1, 1, 1, 1, 1, 1, 1, 1, 1, 1, 1, 1, 1, 1, 1, 1, 1, 1, 1, 1, 1, 1, 1, 1, 1, 1, 1, 1, 1, 1, 1, 1, 1, 1, 1, 1, 1, 1, 1, 1, 1, 1, 1, 1, 1, 1, 1, 1, 1, 1, 1, 1, 1, 1, 1, 1, 1, 1, 1, 1, 1, 1, 1, 1, 1, 1, 1, 1, 1, 1, 1, 1, 1, 1, 1, 1, 1, 1, 1, 1, 1, 1, 1, 1, 1, 1, 1, 1, 1, 1, 1, 1, 1, 1, 1, 1, 1, 1, 1, 1, 1, 1, 1, 1, 1, 1, 1, 1, 1, 1, 1, 1, 1, 1, 1, 1, 1, 1, 1, 1, 1, 1, 1, 1, 1, 1, 1, 1, 1, 1, 1, 1, 1, 1, 1, 1, 1, 1, 1, 1, 1, 1, 1, 1, 1, 1, 1, 1, 1, 1, 1, 1, 1, 1, 1, 1, 1, 1, 1, 1, 1, 1, 1, 1, 1, 1, 1, 1, 1, 1, 1, 1, 1, 1, 1, 1, 1, 1, 1, 1, 1, 1, 1, 1, 1, 1, 1, 1, 1, 1, 1, 1, 1, 1, 1, 1, 1, 1, 1, 1, 1, 1, 1, 1, 1, 1, 1, 1, 1, 1, 1, 1, 1, 1, 1, 1, 1, 1, 1, 1, 1, 1, 1, 1, 1, 1, 1, 1, 1, 1, 1, 1, 1, 1, 1, 1, 1, 1, 1, 1, 1, 1, 1, 1, 1, 1, 1, 1, 1, 1, 1, 1, 1, 1, 1, 1, 1, 1, 1, 1, 1, 1, 1, 1, 1, 1, 1, 1, 1, 1, 1, 1, 1, 1, 1, 1, 1, 1, 1, 1, 1, 1, 1, 1, 1, 1, 1]}, {"type": "objectgroup", "name": "portals", "id": 3, "opacity": 1, "visible": true, "x": 0, "y": 0, "objects": [{"id": 1, "name": "dungeon9_A8", "x": 160, "y": 64, "width": 16, "height": 16, "visible": true, "properties": [{"name": "kind", "type": "int", "value": 109}, {"name": "a", "type": "int", "value": 10}, {"name": "b", "type": "int", "value": 5}, {"name": "underground", "type": "int", "value": 9}, {"name": "dest", "type": "string", "value": "dungeon9"}, {"name": "entrance", "type": "string", "value": "secret_wall"}, {"name": "faq", "type": "string", "value": "A8"}, {"name": "quest", "type": "string", "value": "2"}, {"name": "exit_x", "type": "int", "value": 10}, {"name": "exit_y", "type": "int", "value": 3}, {"name": "stair_pos", "type": "int", "value": 0}]}, {"id": 2, "name": "door_repair_B8", "x": 384, "y": 16, "width": 16, "height": 16, "visible": true, "properties": [{"name": "kind", "type": "int", "value": 110}, {"name": "a", "type": "int", "value": 24}, {"name": "b", "type": "int", "value": 2}, {"name": "underground", "type": "int", "value": 23}, {"name": "dest", "type": "string", "value": "door_repair"}, {"name": "entrance", "type": "string", "value": "secret_wall"}, {"name": "faq", "type": "string", "value": "B8"}, {"name": "quest", "type": "string", "value": "both"}, {"name": "exit_x", "type": "int", "value": 9}, {"name": "exit_y", "type": "int", "value": 0}, {"name": "stair_pos", "type": "int", "value": 0}, {"name": "cave_type", "type": "int", "value": 7}]}, {"id": 3, "name": "potion_shop_C8", "x": 576, "y": 64, "width": 16, "height": 16, "visible": true, "properties": [{"name": "kind", "type": "int", "value": 110}, {"name": "a", "type": "int", "value": 36}, {"name": "b", "type": "int", "value": 5}, {"name": "underground", "type": "int", "value": 26}, {"name": "dest", "type": "string", "value": "potion_shop"}, {"name": "entrance", "type": "string", "value": "secret_wall"}, {"name": "faq", "type": "string", "value": "C8"}, {"name": "quest", "type": "string", "value": "2"}, {"name": "exit_x", "type": "int", "value": 6}, {"name": "exit_y", "type": "int", "value": 3}, {"name": "stair_pos", "type": "int", "value": 0}, {"name": "cave_type", "type": "int", "value": 10}]}, {"id": 4, "name": "door_repair_D8", "x": 832, "y": 64, "width": 16, "height": 16, "visible": true, "properties": [{"name": "kind", "type": "int", "value": 110}, {"name": "a", "type": "int", "value": 52}, {"name": "b", "type": "int", "value": 5}, {"name": "underground", "type": "int", "value": 23}, {"name": "dest", "type": "string", "value": "door_repair"}, {"name": "entrance", "type": "string", "value": "secret_wall"}, {"name": "faq", "type": "string", "value": "D8"}, {"name": "quest", "type": "string", "value": "both"}, {"name": "exit_x", "type": "int", "value": 7}, {"name": "exit_y", "type": "int", "value": 3}, {"name": "stair_pos", "type": "int", "value": 0}, {"name": "cave_type", "type": "int", "value": 7}]}, {"id": 5, "name": "potion_shop_E8", "x": 1152, "y": 16, "width": 16, "height": 16, "visible": true, "properties": [{"name": "kind", "type": "int", "value": 110}, {"name": "a", "type": "int", "value": 72}, {"name": "b", "type": "int", "value": 2}, {"name": "underground", "type": "int", "value": 26}, {"name": "dest", "type": "string", "value": "potion_shop"}, {"name": "entrance", "type": "string", "value": "cave"}, {"name": "faq", "type": "string", "value": "E8"}, {"name": "quest", "type": "string", "value": "both"}, {"name": "exit_x", "type": "int", "value": 12}, {"name": "exit_y", "type": "int", "value": 0}, {"name": "stair_pos", "type": "int", "value": 0}, {"name": "cave_type", "type": "int", "value": 10}]}, {"id": 6, "name": "dungeon9_F8", "x": 1280, "y": 96, "width": 16, "height": 16, "visible": true, "properties": [{"name": "kind", "type": "int", "value": 109}, {"name": "a", "type": "int", "value": 80}, {"name": "b", "type": "int", "value": 7}, {"name": "underground", "type": "int", "value": 9}, {"name": "dest", "type": "string", "value": "dungeon9"}, {"name": "entrance", "type": "string", "value": "secret_wall"}, {"name": "faq", "type": "string", "value": "F8"}, {"name": "quest", "type": "string", "value": "1"}, {"name": "exit_x", "type": "int", "value": 5}, {"name": "exit_y", "type": "int", "value": 5}, {"name": "stair_pos", "type": "int", "value": 0}]}, {"id": 7, "name": "take_any_G8", "x": 1520, "y": 112, "width": 16, "height": 16, "visible": true, "properties": [{"name": "kind", "type": "int", "value": 110}, {"name": "a", "type": "int", "value": 95}, {"name": "b", "type": "int", "value": 8}, {"name": "underground", "type": "int", "value": 17}, {"name": "dest", "type": "string", "value": "take_any"}, {"name": "entrance", "type": "string", "value": "stairs"}, {"name": "faq", "type": "string", "value": "G8"}, {"name": "quest", "type": "string", "value": "2"}, {"name": "exit_x", "type": "int", "value": 11}, {"name": "exit_y", "type": "int", "value": 4}, {"name": "stair_pos", "type": "int", "value": 0}, {"name": "cave_type", "type": "int", "value": 1}]}, {"id": 8, "name": "door_repair_H8", "x": 1840, "y": 64, "width": 16, "height": 16, "visible": true, "properties": [{"name": "kind", "type": "int", "value": 110}, {"name": "a", "type": "int", "value": 115}, {"name": "b", "type": "int", "value": 5}, {"name": "underground", "type": "int", "value": 23}, {"name": "dest", "type": "string", "value": "door_repair"}, {"name": "entrance", "type": "string", "value": "secret_wall"}, {"name": "faq", "type": "string", "value": "H8"}, {"name": "quest", "type": "string", "value": "both"}, {"name": "exit_x", "type": "int", "value": 10}, {"name": "exit_y", "type": "int", "value": 3}, {"name": "stair_pos", "type": "int", "value": 0}, {"name": "cave_type", "type": "int", "value": 7}]}, {"id": 9, "name": "magical_sword_J8", "x": 2304, "y": 144, "width": 16, "height": 16, "visible": true, "properties": [{"name": "kind", "type": "int", "value": 110}, {"name": "a", "type": "int", "value": 144}, {"name": "b", "type": "int", "value": 10}, {"name": "underground", "type": "int", "value": 19}, {"name": "dest", "type": "string", "value": "magical_sword"}, {"name": "entrance", "type": "string", "value": "stairs"}, {"name": "faq", "type": "string", "value": "J8"}, {"name": "quest", "type": "string", "value": "2"}, {"name": "exit_x", "type": "int", "value": 9}, {"name": "exit_y", "type": "int", "value": 4}, {"name": "stair_pos", "type": "int", "value": 2}, {"name": "cave_type", "type": "int", "value": 3}]}, {"id": 10, "name": "white_sword_K8", "x": 2432, "y": 16, "width": 16, "height": 16, "visible": true, "properties": [{"name": "kind", "type": "int", "value": 110}, {"name": "a", "type": "int", "value": 152}, {"name": "b", "type": "int", "value": 2}, {"name": "underground", "type": "int", "value": 18}, {"name": "dest", "type": "string", "value": "white_sword"}, {"name": "entrance", "type": "string", "value": "cave"}, {"name": "faq", "type": "string", "value": "K8"}, {"name": "quest", "type": "string", "value": "both"}, {"name": "exit_x", "type": "int", "value": 2}, {"name": "exit_y", "type": "int", "value": 0}, {"name": "stair_pos", "type": "int", "value": 0}, {"name": "cave_type", "type": "int", "value": 2}]}, {"id": 11, "name": "dungeon5_L8", "x": 2752, "y": 64, "width": 16, "height": 16, "visible": true, "properties": [{"name": "kind", "type": "int", "value": 105}, {"name": "a", "type": "int", "value": 172}, {"name": "b", "type": "int", "value": 5}, {"name": "underground", "type": "int", "value": 5}, {"name": "dest", "type": "string", "value": "dungeon5"}, {"name": "entrance", "type": "string", "value": "cave"}, {"name": "faq", "type": "string", "value": "L8"}, {"name": "quest", "type": "string", "value": "both"}, {"name": "exit_x", "type": "int", "value": 7}, {"name": "exit_y", "type": "int", "value": 3}, {"name": "stair_pos", "type": "int", "value": 0}]}, {"id": 12, "name": "shop_b_M8", "x": 3008, "y": 16, "width": 16, "height": 16, "visible": true, "properties": [{"name": "kind", "type": "int", "value": 110}, {"name": "a", "type": "int", "value": 188}, {"name": "b", "type": "int", "value": 2}, {"name": "underground", "type": "int", "value": 30}, {"name": "dest", "type": "string", "value": "shop_b"}, {"name": "entrance", "type": "string", "value": "cave"}, {"name": "faq", "type": "string", "value": "M8"}, {"name": "quest", "type": "string", "value": "both"}, {"name": "exit_x", "type": "int", "value": 8}, {"name": "exit_y", "type": "int", "value": 0}, {"name": "stair_pos", "type": "int", "value": 0}, {"name": "cave_type", "type": "int", "value": 14}]}, {"id": 13, "name": "potion_shop_N8", "x": 3264, "y": 16, "width": 16, "height": 16, "visible": true, "properties": [{"name": "kind", "type": "int", "value": 110}, {"name": "a", "type": "int", "value": 204}, {"name": "b", "type": "int", "value": 2}, {"name": "underground", "type": "int", "value": 26}, {"name": "dest", "type": "string", "value": "potion_shop"}, {"name": "entrance", "type": "string", "value": "secret_wall"}, {"name": "faq", "type": "string", "value": "N8"}, {"name": "quest", "type": "string", "value": "both"}, {"name": "exit_x", "type": "int", "value": 9}, {"name": "exit_y", "type": "int", "value": 0}, {"name": "stair_pos", "type": "int", "value": 0}, {"name": "cave_type", "type": "int", "value": 10}]}, {"id": 14, "name": "letter_O8", "x": 3440, "y": 64, "width": 16, "height": 16, "visible": true, "properties": [{"name": "kind", "type": "int", "value": 110}, {"name": "a", "type": "int", "value": 215}, {"name": "b", "type": "int", "value": 5}, {"name": "underground", "type": "int", "value": 24}, {"name": "dest", "type": "string", "value": "letter"}, {"name": "entrance", "type": "string", "value": "cave"}, {"name": "faq", "type": "string", "value": "O8"}, {"name": "quest", "type": "string", "value": "both"}, {"name": "exit_x", "type": "int", "value": 5}, {"name": "exit_y", "type": "int", "value": 3}, {"name": "stair_pos", "type": "int", "value": 0}, {"name": "cave_type", "type": "int", "value": 8}]}, {"id": 15, "name": "money_30_P8", "x": 3728, "y": 64, "width": 16, "height": 16, "visible": true, "properties": [{"name": "kind", "type": "int", "value": 110}, {"name": "a", "type": "int", "value": 233}, {"name": "b", "type": "int", "value": 5}, {"name": "underground", "type": "int", "value": 34}, {"name": "dest", "type": "string", "value": "money_30"}, {"name": "entrance", "type": "string", "value": "cave"}, {"name": "faq", "type": "string", "value": "P8"}, {"name": "quest", "type": "string", "value": "both"}, {"name": "exit_x", "type": "int", "value": 8}, {"name": "exit_y", "type": "int", "value": 3}, {"name": "stair_pos", "type": "int", "value": 0}, {"name": "cave_type", "type": "int", "value": 18}]}, {"id": 16, "name": "gambling_A7", "x": 144, "y": 176, "width": 16, "height": 16, "visible": true, "properties": [{"name": "kind", "type": "int", "value": 110}, {"name": "a", "type": "int", "value": 9}, {"name": "b", "type": "int", "value": 12}, {"name": "underground", "type": "int", "value": 22}, {"name": "dest", "type": "string", "value": "gambling"}, {"name": "entrance", "type": "string", "value": "secret_wall"}, {"name": "faq", "type": "string", "value": "A7"}, {"name": "quest", "type": "string", "value": "both"}, {"name": "exit_x", "type": "int", "value": 9}, {"name": "exit_y", "type": "int", "value": 0}, {"name": "stair_pos", "type": "int", "value": 0}, {"name": "cave_type", "type": "int", "value": 6}]}, {"id": 17, "name": "letter_B7", "x": 384, "y": 304, "width": 16, "height": 16, "visible": true, "properties": [{"name": "kind", "type": "int", "value": 110}, {"name": "a", "type": "int", "value": 24}, {"name": "b", "type": "int", "value": 20}, {"name": "underground", "type": "int", "value": 24}, {"name": "dest", "type": "string", "value": "letter"}, {"name": "entrance", "type": "string", "value": "stairs"}, {"name": "faq", "type": "string", "value": "B7"}, {"name": "quest", "type": "string", "value": "2"}, {"name": "exit_x", "type": "int", "value": 5}, {"name": "exit_y", "type": "int", "value": 4}, {"name": "stair_pos", "type": "int", "value": 2}, {"name": "cave_type", "type": "int", "value": 8}]}, {"id": 18, "name": "shop_c_C7", "x": 608, "y": 176, "width": 16, "height": 16, "visible": true, "properties": [{"name": "kind", "type": "int", "value": 110}, {"name": "a", "type": "int", "value": 38}, {"name": "b", "type": "int", "value": 12}, {"name": "underground", "type": "int", "value": 31}, {"name": "dest", "type": "string", "value": "shop_c"}, {"name": "entrance", "type": "string", "value": "secret_wall"}, {"name": "faq", "type": "string", "value": "C7"}, {"name": "quest", "type": "string", "value": "both"}, {"name": "exit_x", "type": "int", "value": 8}, {"name": "exit_y", "type": "int", "value": 0}, {"name": "stair_pos", "type": "int", "value": 0}, {"name": "cave_type", "type": "int", "value": 15}]}, {"id": 19, "name": "money_10_D7", "x": 752, "y": 176, "width": 16, "height": 16, "visible": true, "properties": [{"name": "kind", "type": "int", "value": 110}, {"name": "a", "type": "int", "value": 47}, {"name": "b", "type": "int", "value": 12}, {"name": "underground", "type": "int", "value": 33}, {"name": "dest", "type": "string", "value": "money_10"}, {"name": "entrance", "type": "string", "value": "secret_wall"}, {"name": "faq", "type": "string", "value": "D7"}, {"name": "quest", "type": "string", "value": "both"}, {"name": "exit_x", "type": "int", "value": 2}, {"name": "exit_y", "type": "int", "value": 0}, {"name": "stair_pos", "type": "int", "value": 0}, {"name": "cave_type", "type": "int", "value": 17}]}, {"id": 20, "name": "door_repair_E7", "x": 1152, "y": 176, "width": 16, "height": 16, "visible": true, "properties": [{"name": "kind", "type": "int", "value": 110}, {"name": "a", "type": "int", "value": 72}, {"name": "b", "type": "int", "value": 12}, {"name": "underground", "type": "int", "value": 23}, {"name": "dest", "type": "string", "value": "door_repair"}, {"name": "entrance", "type": "string", "value": "secret_wall"}, {"name": "faq", "type": "string", "value": "E7"}, {"name": "quest", "type": "string", "value": "both"}, {"name": "exit_x", "type": "int", "value": 12}, {"name": "exit_y", "type": "int", "value": 0}, {"name": "stair_pos", "type": "int", "value": 0}, {"name": "cave_type", "type": "int", "value": 7}]}, {"id": 21, "name": "shop_b_F7", "x": 1392, "y": 176, "width": 16, "height": 16, "visible": true, "properties": [{"name": "kind", "type": "int", "value": 110}, {"name": "a", "type": "int", "value": 87}, {"name": "b", "type": "int", "value": 12}, {"name": "underground", "type": "int", "value": 30}, {"name": "dest", "type": "string", "value": "shop_b"}, {"name": "entrance", "type": "string", "value": "secret_wall"}, {"name": "faq", "type": "string", "value": "F7"}, {"name": "quest", "type": "string", "value": "2"}, {"name": "exit_x", "type": "int", "value": 12}, {"name": "exit_y", "type": "int", "value": 0}, {"name": "stair_pos", "type": "int", "value": 0}, {"name": "cave_type", "type": "int", "value": 14}]}, {"id": 22, "name": "gambling_G7", "x": 1536, "y": 176, "width": 16, "height": 16, "visible": true, "properties": [{"name": "kind", "type": "int", "value": 110}, {"name": "a", "type": "int", "value": 96}, {"name": "b", "type": "int", "value": 12}, {"name": "underground", "type": "int", "value": 22}, {"name": "dest", "type": "string", "value": "gambling"}, {"name": "entrance", "type": "string", "value": "secret_wall"}, {"name": "faq", "type": "string", "value": "G7"}, {"name": "quest", "type": "string", "value": "both"}, {"name": "exit_x", "type": "int", "value": 6}, {"name": "exit_y", "type": "int", "value": 0}, {"name": "stair_pos", "type": "int", "value": 0}, {"name": "cave_type", "type": "int", "value": 6}]}, {"id": 23, "name": "potion_shop_I7", "x": 2112, "y": 208, "width": 16, "height": 16, "visible": true, "properties": [{"name": "kind", "type": "int", "value": 110}, {"name": "a", "type": "int", "value": 132}, {"name": "b", "type": "int", "value": 14}, {"name": "underground", "type": "int", "value": 26}, {"name": "dest", "type": "string", "value": "potion_shop"}, {"name": "entrance", "type": "string", "value": "secret_wall"}, {"name": "faq", "type": "string", "value": "I7"}, {"name": "quest", "type": "string", "value": "2"}, {"name": "exit_x", "type": "int", "value": 12}, {"name": "exit_y", "type": "int", "value": 2}, {"name": "stair_pos", "type": "int", "value": 0}, {"name": "cave_type", "type": "int", "value": 10}]}, {"id": 24, "name": "dungeon7_J7", "x": 2224, "y": 208, "width": 16, "height": 16, "visible": true, "properties": [{"name": "kind", "type": "int", "value": 107}, {"name": "a", "type": "int", "value": 139}, {"name": "b", "type": "int", "value": 14}, {"name": "underground", "type": "int", "value": 7}, {"name": "dest", "type": "string", "value": "dungeon7"}, {"name": "entrance", "type": "string", "value": "secret_wall"}, {"name": "faq", "type": "string", "value": "J7"}, {"name": "quest", "type": "string", "value": "2"}, {"name": "exit_x", "type": "int", "value": 4}, {"name": "exit_y", "type": "int", "value": 2}, {"name": "stair_pos", "type": "int", "value": 0}]}, {"id": 25, "name": "shop_e_K7", "x": 2496, "y": 224, "width": 16, "height": 16, "visible": true, "properties": [{"name": "kind", "type": "int", "value": 110}, {"name": "a", "type": "int", "value": 156}, {"name": "b", "type": "int", "value": 15}, {"name": "underground", "type": "int", "value": 27}, {"name": "dest", "type": "string", "value": "shop_e"}, {"name": "entrance", "type": "string", "value": "secret_wall"}, {"name": "faq", "type": "string", "value": "K7"}, {"name": "quest", "type": "string", "value": "both"}, {"name": "exit_x", "type": "int", "value": 6}, {"name": "exit_y", "type": "int", "value": 3}, {"name": "stair_pos", "type": "int", "value": 0}, {"name": "cave_type", "type": "int", "value": 11}]}, {"id": 26, "name": "dungeon5_L7", "x": 2784, "y": 304, "width": 16, "height": 16, "visible": true, "properties": [{"name": "kind", "type": "int", "value": 105}, {"name": "a", "type": "int", "value": 174}, {"name": "b", "type": "int", "value": 20}, {"name": "underground", "type": "int", "value": 5}, {"name": "dest", "type": "string", "value": "dungeon5"}, {"name": "entrance", "type": "string", "value": "stairs"}, {"name": "faq", "type": "string", "value": "L7"}, {"name": "quest", "type": "string", "value": "2"}, {"name": "exit_x", "type": "int", "value": 9}, {"name": "exit_y", "type": "int", "value": 4}, {"name": "stair_pos", "type": "int", "value": 2}]}, {"id": 27, "name": "pay_hint_M7", "x": 2960, "y": 272, "width": 16, "height": 16, "visible": true, "properties": [{"name": "kind", "type": "int", "value": 110}, {"name": "a", "type": "int", "value": 185}, {"name": "b", "type": "int", "value": 18}, {"name": "underground", "type": "int", "value": 21}, {"name": "dest", "type": "string", "value": "pay_hint"}, {"name": "entrance", "type": "string", "value": "stairs"}, {"name": "faq", "type": "string", "value": "M7"}, {"name": "quest", "type": "string", "value": "both"}, {"name": "exit_x", "type": "int", "value": 3}, {"name": "exit_y", "type": "int", "value": 2}, {"name": "stair_pos", "type": "int", "value": 0}, {"name": "cave_type", "type": "int", "value": 5}]}, {"id": 28, "name": "take_any_road_N7", "x": 3200, "y": 272, "width": 16, "height": 16, "visible": true, "properties": [{"name": "kind", "type": "int", "value": 110}, {"name": "a", "type": "int", "value": 200}, {"name": "b", "type": "int", "value": 18}, {"name": "underground", "type": "int", "value": 20}, {"name": "dest", "type": "string", "value": "take_any_road"}, {"name": "entrance", "type": "string", "value": "stairs"}, {"name": "faq", "type": "string", "value": "N7"}, {"name": "quest", "type": "string", "value": "both"}, {"name": "exit_x", "type": "int", "value": 2}, {"name": "exit_y", "type": "int", "value": 2}, {"name": "stair_pos", "type": "int", "value": 0}, {"name": "cave_type", "type": "int", "value": 4}]}, {"id": 29, "name": "door_repair_O7", "x": 3552, "y": 176, "width": 16, "height": 16, "visible": true, "properties": [{"name": "kind", "type": "int", "value": 110}, {"name": "a", "type": "int", "value": 222}, {"name": "b", "type": "int", "value": 12}, {"name": "underground", "type": "int", "value": 23}, {"name": "dest", "type": "string", "value": "door_repair"}, {"name": "entrance", "type": "string", "value": "secret_wall"}, {"name": "faq", "type": "string", "value": "O7"}, {"name": "quest", "type": "string", "value": "both"}, {"name": "exit_x", "type": "int", "value": 12}, {"name": "exit_y", "type": "int", "value": 0}, {"name": "stair_pos", "type": "int", "value": 0}, {"name": "cave_type", "type": "int", "value": 7}]}, {"id": 30, "name": "gambling_P7", "x": 3696, "y": 224, "width": 16, "height": 16, "visible": true, "properties": [{"name": "kind", "type": "int", "value": 110}, {"name": "a", "type": "int", "value": 231}, {"name": "b", "type": "int", "value": 15}, {"name": "underground", "type": "int", "value": 22}, {"name": "dest", "type": "string", "value": "gambling"}, {"name": "entrance", "type": "string", "value": "cave"}, {"name": "faq", "type": "string", "value": "P7"}, {"name": "quest", "type": "string", "value": "both"}, {"name": "exit_x", "type": "int", "value": 6}, {"name": "exit_y", "type": "int", "value": 3}, {"name": "stair_pos", "type": "int", "value": 0}, {"name": "cave_type", "type": "int", "value": 6}]}, {"id": 31, "name": "take_any_A6", "x": 96, "y": 464, "width": 16, "height": 16, "visible": true, "properties": [{"name": "kind", "type": "int", "value": 110}, {"name": "a", "type": "int", "value": 6}, {"name": "b", "type": "int", "value": 30}, {"name": "underground", "type": "int", "value": 17}, {"name": "dest", "type": "string", "value": "take_any"}, {"name": "entrance", "type": "string", "value": "stairs"}, {"name": "faq", "type": "string", "value": "A6"}, {"name": "quest", "type": "string", "value": "2"}, {"name": "exit_x", "type": "int", "value": 5}, {"name": "exit_y", "type": "int", "value": 3}, {"name": "stair_pos", "type": "int", "value": 3}, {"name": "cave_type", "type": "int", "value": 1}]}, {"id": 32, "name": "magical_sword_B6", "x": 384, "y": 464, "width": 16, "height": 16, "visible": true, "properties": [{"name": "kind", "type": "int", "value": 110}, {"name": "a", "type": "int", "value": 24}, {"name": "b", "type": "int", "value": 30}, {"name": "underground", "type": "int", "value": 19}, {"name": "dest", "type": "string", "value": "magical_sword"}, {"name": "entrance", "type": "string", "value": "stairs"}, {"name": "faq", "type": "string", "value": "B6"}, {"name": "quest", "type": "string", "value": "1"}, {"name": "exit_x", "type": "int", "value": 5}, {"name": "exit_y", "type": "int", "value": 2}, {"name": "stair_pos", "type": "int", "value": 2}, {"name": "cave_type", "type": "int", "value": 3}]}, {"id": 33, "name": "dungeon6_C6", "x": 592, "y": 384, "width": 16, "height": 16, "visible": true, "properties": [{"name": "kind", "type": "int", "value": 106}, {"name": "a", "type": "int", "value": 37}, {"name": "b", "type": "int", "value": 25}, {"name": "underground", "type": "int", "value": 6}, {"name": "dest", "type": "string", "value": "dungeon6"}, {"name": "entrance", "type": "string", "value": "cave"}, {"name": "faq", "type": "string", "value": "C6"}, {"name": "quest", "type": "string", "value": "both"}, {"name": "exit_x", "type": "int", "value": 7}, {"name": "exit_y", "type": "int", "value": 3}, {"name": "stair_pos", "type": "int", "value": 0}]}, {"id": 34, "name": "take_any_road_D6", "x": 784, "y": 464, "width": 16, "height": 16, "visible": true, "properties": [{"name": "kind", "type": "int", "value": 110}, {"name": "a", "type": "int", "value": 49}, {"name": "b", "type": "int", "value": 30}, {"name": "underground", "type": "int", "value": 20}, {"name": "dest", "type": "string", "value": "take_any_road"}, {"name": "entrance", "type": "string", "value": "stairs"}, {"name": "faq", "type": "string", "value": "D6"}, {"name": "quest", "type": "string", "value": "both"}, {"name": "exit_x", "type": "int", "value": 4}, {"name": "exit_y", "type": "int", "value": 1}, {"name": "stair_pos", "type": "int", "value": 1}, {"name": "cave_type", "type": "int", "value": 4}]}, {"id": 35, "name": "shop_a_F6", "x": 1360, "y": 336, "width": 16, "height": 16, "visible": true, "properties": [{"name": "kind", "type": "int", "value": 110}, {"name": "a", "type": "int", "value": 85}, {"name": "b", "type": "int", "value": 22}, {"name": "underground", "type": "int", "value": 29}, {"name": "dest", "type": "string", "value": "shop_a"}, {"name": "entrance", "type": "string", "value": "cave"}, {"name": "faq", "type": "string", "value": "F6"}, {"name": "quest", "type": "string", "value": "both"}, {"name": "exit_x", "type": "int", "value": 10}, {"name": "exit_y", "type": "int", "value": 0}, {"name": "stair_pos", "type": "int", "value": 0}, {"name": "cave_type", "type": "int", "value": 13}]}, {"id": 36, "name": "shop_c_G6", "x": 1488, "y": 336, "width": 16, "height": 16, "visible": true, "properties": [{"name": "kind", "type": "int", "value": 110}, {"name": "a", "type": "int", "value": 93}, {"name": "b", "type": "int", "value": 22}, {"name": "underground", "type": "int", "value": 31}, {"name": "dest", "type": "string", "value": "shop_c"}, {"name": "entrance", "type": "string", "value": "secret_wall"}, {"name": "faq", "type": "string", "value": "G6"}, {"name": "quest", "type": "string", "value": "both"}, {"name": "exit_x", "type": "int", "value": 3}, {"name": "exit_y", "type": "int", "value": 0}, {"name": "stair_pos", "type": "int", "value": 0}, {"name": "cave_type", "type": "int", "value": 15}]}, {"id": 37, "name": "potion_shop_H6", "x": 1904, "y": 336, "width": 16, "height": 16, "visible": true, "properties": [{"name": "kind", "type": "int", "value": 110}, {"name": "a", "type": "int", "value": 119}, {"name": "b", "type": "int", "value": 22}, {"name": "underground", "type": "int", "value": 26}, {"name": "dest", "type": "string", "value": "potion_shop"}, {"name": "entrance", "type": "string", "value": "secret_wall"}, {"name": "faq", "type": "string", "value": "H6"}, {"name": "quest", "type": "string", "value": "1"}, {"name": "exit_x", "type": "int", "value": 14}, {"name": "exit_y", "type": "int", "value": 0}, {"name": "stair_pos", "type": "int", "value": 0}, {"name": "cave_type", "type": "int", "value": 10}]}, {"id": 38, "name": "money_10_I6", "x": 2000, "y": 432, "width": 16, "height": 16, "visible": true, "properties": [{"name": "kind", "type": "int", "value": 110}, {"name": "a", "type": "int", "value": 125}, {"name": "b", "type": "int", "value": 28}, {"name": "underground", "type": "int", "value": 33}, {"name": "dest", "type": "string", "value": "money_10"}, {"name": "entrance", "type": "string", "value": "stairs"}, {"name": "faq", "type": "string", "value": "I6"}, {"name": "quest", "type": "string", "value": "both"}, {"name": "exit_x", "type": "int", "value": 14}, {"name": "exit_y", "type": "int", "value": 5}, {"name": "stair_pos", "type": "int", "value": 0}, {"name": "cave_type", "type": "int", "value": 17}]}, {"id": 39, "name": "potion_shop_J6", "x": 2336, "y": 400, "width": 16, "height": 16, "visible": true, "properties": [{"name": "kind", "type": "int", "value": 110}, {"name": "a", "type": "int", "value": 146}, {"name": "b", "type": "int", "value": 26}, {"name": "underground", "type": "int", "value": 26}, {"name": "dest", "type": "string", "value": "potion_shop"}, {"name": "entrance", "type": "string", "value": "secret_wall"}, {"name": "faq", "type": "string", "value": "J6"}, {"name": "quest", "type": "string", "value": "2"}, {"name": "exit_x", "type": "int", "value": 11}, {"name": "exit_y", "type": "int", "value": 4}, {"name": "stair_pos", "type": "int", "value": 0}, {"name": "cave_type", "type": "int", "value": 10}]}, {"id": 40, "name": "money_100_L6", "x": 2816, "y": 400, "width": 16, "height": 16, "visible": true, "properties": [{"name": "kind", "type": "int", "value": 110}, {"name": "a", "type": "int", "value": 176}, {"name": "b", "type": "int", "value": 26}, {"name": "underground", "type": "int", "value": 35}, {"name": "dest", "type": "string", "value": "money_100"}, {"name": "entrance", "type": "string", "value": "secret_wall"}, {"name": "faq", "type": "string", "value": "L6"}, {"name": "quest", "type": "string", "value": "2"}, {"name": "exit_x", "type": "int", "value": 11}, {"name": "exit_y", "type": "int", "value": 4}, {"name": "stair_pos", "type": "int", "value": 0}, {"name": "cave_type", "type": "int", "value": 19}]}, {"id": 41, "name": "take_any_M6", "x": 3024, "y": 416, "width": 16, "height": 16, "visible": true, "properties": [{"name": "kind", "type": "int", "value": 110}, {"name": "a", "type": "int", "value": 189}, {"name": "b", "type": "int", "value": 27}, {"name": "underground", "type": "int", "value": 17}, {"name": "dest", "type": "string", "value": "take_any"}, {"name": "entrance", "type": "string", "value": "secret_wall"}, {"name": "faq", "type": "string", "value": "M6"}, {"name": "quest", "type": "string", "value": "1"}, {"name": "exit_x", "type": "int", "value": 9}, {"name": "exit_y", "type": "int", "value": 5}, {"name": "stair_pos", "type": "int", "value": 0}, {"name": "cave_type", "type": "int", "value": 1}]}, {"id": 42, "name": "money_10_N6", "x": 3200, "y": 336, "width": 16, "height": 16, "visible": true, "properties": [{"name": "kind", "type": "int", "value": 110}, {"name": "a", "type": "int", "value": 200}, {"name": "b", "type": "int", "value": 22}, {"name": "underground", "type": "int", "value": 33}, {"name": "dest", "type": "string", "value": "money_10"}, {"name": "entrance", "type": "string", "value": "secret_wall"}, {"name": "faq", "type": "string", "value": "N6"}, {"name": "quest", "type": "string", "value": "both"}, {"name": "exit_x", "type": "int", "value": 5}, {"name": "exit_y", "type": "int", "value": 0}, {"name": "stair_pos", "type": "int", "value": 0}, {"name": "cave_type", "type": "int", "value": 17}]}, {"id": 43, "name": "take_any_P6", "x": 3696, "y": 384, "width": 16, "height": 16, "visible": true, "properties": [{"name": "kind", "type": "int", "value": 110}, {"name": "a", "type": "int", "value": 231}, {"name": "b", "type": "int", "value": 25}, {"name": "underground", "type": "int", "value": 17}, {"name": "dest", "type": "string", "value": "take_any"}, {"name": "entrance", "type": "string", "value": "cave"}, {"name": "faq", "type": "string", "value": "P6"}, {"name": "quest", "type": "string", "value": "both"}, {"name": "exit_x", "type": "int", "value": 6}, {"name": "exit_y", "type": "int", "value": 3}, {"name": "stair_pos", "type": "int", "value": 0}, {"name": "cave_type", "type": "int", "value": 1}]}, {"id": 44, "name": "dungeon6_A5", "x": 80, "y": 592, "width": 16, "height": 16, "visible": true, "properties": [{"name": "kind", "type": "int", "value": 106}, {"name": "a", "type": "int", "value": 5}, {"name": "b", "type": "int", "value": 38}, {"name": "underground", "type": "int", "value": 6}, {"name": "dest", "type": "string", "value": "dungeon6"}, {"name": "entrance", "type": "string", "value": "stairs"}, {"name": "faq", "type": "string", "value": "A5"}, {"name": "quest", "type": "string", "value": "2"}, {"name": "exit_x", "type": "int", "value": 7}, {"name": "exit_y", "type": "int", "value": 4}, {"name": "stair_pos", "type": "int", "value": 0}]}, {"id": 45, "name": "potion_shop_D5", "x": 880, "y": 496, "width": 16, "height": 16, "visible": true, "properties": [{"name": "kind", "type": "int", "value": 110}, {"name": "a", "type": "int", "value": 55}, {"name": "b", "type": "int", "value": 32}, {"name": "underground", "type": "int", "value": 26}, {"name": "dest", "type": "string", "value": "potion_shop"}, {"name": "entrance", "type": "string", "value": "secret_wall"}, {"name": "faq", "type": "string", "value": "D5"}, {"name": "quest", "type": "string", "value": "both"}, {"name": "exit_x", "type": "int", "value": 10}, {"name": "exit_y", "type": "int", "value": 0}, {"name": "stair_pos", "type": "int", "value": 0}, {"name": "cave_type", "type": "int", "value": 10}]}, {"id": 46, "name": "shop_d_E5", "x": 1040, "y": 592, "width": 16, "height": 16, "visible": true, "properties": [{"name": "kind", "type": "int", "value": 110}, {"name": "a", "type": "int", "value": 65}, {"name": "b", "type": "int", "value": 38}, {"name": "underground", "type": "int", "value": 32}, {"name": "dest", "type": "string", "value": "shop_d"}, {"name": "entrance", "type": "string", "value": "stairs"}, {"name": "faq", "type": "string", "value": "E5"}, {"name": "quest", "type": "string", "value": "both"}, {"name": "exit_x", "type": "int", "value": 4}, {"name": "exit_y", "type": "int", "value": 2}, {"name": "stair_pos", "type": "int", "value": 0}, {"name": "cave_type", "type": "int", "value": 16}]}, {"id": 47, "name": "dungeon1_H5", "x": 1792, "y": 544, "width": 16, "height": 16, "visible": true, "properties": [{"name": "kind", "type": "int", "value": 101}, {"name": "a", "type": "int", "value": 112}, {"name": "b", "type": "int", "value": 35}, {"name": "underground", "type": "int", "value": 1}, {"name": "dest", "type": "string", "value": "dungeon1"}, {"name": "entrance", "type": "string", "value": "cave"}, {"name": "faq", "type": "string", "value": "H5"}, {"name": "quest", "type": "string", "value": "both"}, {"name": "exit_x", "type": "int", "value": 7}, {"name": "exit_y", "type": "int", "value": 3}, {"name": "stair_pos", "type": "int", "value": 0}]}, {"id": 48, "name": "take_any_K5", "x": 2592, "y": 560, "width": 16, "height": 16, "visible": true, "properties": [{"name": "kind", "type": "int", "value": 110}, {"name": "a", "type": "int", "value": 162}, {"name": "b", "type": "int", "value": 36}, {"name": "underground", "type": "int", "value": 17}, {"name": "dest", "type": "string", "value": "take_any"}, {"name": "entrance", "type": "string", "value": "secret_wall"}, {"name": "faq", "type": "string", "value": "K5"}, {"name": "quest", "type": "string", "value": "2"}, {"name": "exit_x", "type": "int", "value": 12}, {"name": "exit_y", "type": "int", "value": 4}, {"name": "stair_pos", "type": "int", "value": 0}, {"name": "cave_type", "type": "int", "value": 1}]}, {"id": 49, "name": "dungeon2_M5", "x": 2992, "y": 544, "width": 16, "height": 16, "visible": true, "properties": [{"name": "kind", "type": "int", "value": 102}, {"name": "a", "type": "int", "value": 187}, {"name": "b", "type": "int", "value": 35}, {"name": "underground", "type": "int", "value": 2}, {"name": "dest", "type": "string", "value": "dungeon2"}, {"name": "entrance", "type": "string", "value": "cave"}, {"name": "faq", "type": "string", "value": "M5"}, {"name": "quest", "type": "string", "value": "both"}, {"name": "exit_x", "type": "int", "value": 7}, {"name": "exit_y", "type": "int", "value": 3}, {"name": "stair_pos", "type": "int", "value": 0}]}, {"id": 50, "name": "money_10_N5", "x": 3200, "y": 592, "width": 16, "height": 16, "visible": true, "properties": [{"name": "kind", "type": "int", "value": 110}, {"name": "a", "type": "int", "value": 200}, {"name": "b", "type": "int", "value": 38}, {"name": "underground", "type": "int", "value": 33}, {"name": "dest", "type": "string", "value": "money_10"}, {"name": "entrance", "type": "string", "value": "stairs"}, {"name": "faq", "type": "string", "value": "N5"}, {"name": "quest", "type": "string", "value": "both"}, {"name": "exit_x", "type": "int", "value": 9}, {"name": "exit_y", "type": "int", "value": 2}, {"name": "stair_pos", "type": "int", "value": 0}, {"name": "cave_type", "type": "int", "value": 17}]}, {"id": 51, "name": "dungeon7_C4", "x": 560, "y": 752, "width": 16, "height": 16, "visible": true, "properties": [{"name": "kind", "type": "int", "value": 107}, {"name": "a", "type": "int", "value": 35}, {"name": "b", "type": "int", "value": 48}, {"name": "underground", "type": "int", "value": 7}, {"name": "dest", "type": "string", "value": "dungeon7"}, {"name": "entrance", "type": "string", "value": "stairs"}, {"name": "faq", "type": "string", "value": "C4"}, {"name": "quest", "type": "string", "value": "both"}, {"name": "exit_x", "type": "int", "value": 6}, {"name": "exit_y", "type": "int", "value": 1}, {"name": "stair_pos", "type": "int", "value": 0}]}, {"id": 52, "name": "shop_a_E4", "x": 1024, "y": 656, "width": 16, "height": 16, "visible": true, "properties": [{"name": "kind", "type": "int", "value": 110}, {"name": "a", "type": "int", "value": 64}, {"name": "b", "type": "int", "value": 42}, {"name": "underground", "type": "int", "value": 29}, {"name": "dest", "type": "string", "value": "shop_a"}, {"name": "entrance", "type": "string", "value": "cave"}, {"name": "faq", "type": "string", "value": "E4"}, {"name": "quest", "type": "string", "value": "both"}, {"name": "exit_x", "type": "int", "value": 4}, {"name": "exit_y", "type": "int", "value": 0}, {"name": "stair_pos", "type": "int", "value": 0}, {"name": "cave_type", "type": "int", "value": 13}]}, {"id": 53, "name": "dungeon4_F4", "x": 1328, "y": 704, "width": 16, "height": 16, "visible": true, "properties": [{"name": "kind", "type": "int", "value": 104}, {"name": "a", "type": "int", "value": 83}, {"name": "b", "type": "int", "value": 45}, {"name": "underground", "type": "int", "value": 4}, {"name": "dest", "type": "string", "value": "dungeon4"}, {"name": "entrance", "type": "string", "value": "cave"}, {"name": "faq", "type": "string", "value": "F4"}, {"name": "quest", "type": "string", "value": "both"}, {"name": "exit_x", "type": "int", "value": 8}, {"name": "exit_y", "type": "int", "value": 3}, {"name": "stair_pos", "type": "int", "value": 0}]}, {"id": 54, "name": "shop_c_G4", "x": 1520, "y": 752, "width": 16, "height": 16, "visible": true, "properties": [{"name": "kind", "type": "int", "value": 110}, {"name": "a", "type": "int", "value": 95}, {"name": "b", "type": "int", "value": 48}, {"name": "underground", "type": "int", "value": 31}, {"name": "dest", "type": "string", "value": "shop_c"}, {"name": "entrance", "type": "string", "value": "stairs"}, {"name": "faq", "type": "string", "value": "G4"}, {"name": "quest", "type": "string", "value": "both"}, {"name": "exit_x", "type": "int", "value": 8}, {"name": "exit_y", "type": "int", "value": 6}, {"name": "stair_pos", "type": "int", "value": 0}, {"name": "cave_type", "type": "int", "value": 15}]}, {"id": 55, "name": "take_any_H4", "x": 1760, "y": 752, "width": 16, "height": 16, "visible": true, "properties": [{"name": "kind", "type": "int", "value": 110}, {"name": "a", "type": "int", "value": 110}, {"name": "b", "type": "int", "value": 48}, {"name": "underground", "type": "int", "value": 17}, {"name": "dest", "type": "string", "value": "take_any"}, {"name": "entrance", "type": "string", "value": "stairs"}, {"name": "faq", "type": "string", "value": "H4"}, {"name": "quest", "type": "string", "value": "1"}, {"name": "exit_x", "type": "int", "value": 11}, {"name": "exit_y", "type": "int", "value": 5}, {"name": "stair_pos", "type": "int", "value": 0}, {"name": "cave_type", "type": "int", "value": 1}]}, {"id": 56, "name": "money_10_I4", "x": 2000, "y": 752, "width": 16, "height": 16, "visible": true, "properties": [{"name": "kind", "type": "int", "value": 110}, {"name": "a", "type": "int", "value": 125}, {"name": "b", "type": "int", "value": 48}, {"name": "underground", "type": "int", "value": 33}, {"name": "dest", "type": "string", "value": "money_10"}, {"name": "entrance", "type": "string", "value": "stairs"}, {"name": "faq", "type": "string", "value": "I4"}, {"name": "quest", "type": "string", "value": "both"}, {"name": "exit_x", "type": "int", "value": 11}, {"name": "exit_y", "type": "int", "value": 2}, {"name": "stair_pos", "type": "int", "value": 0}, {"name": "cave_type", "type": "int", "value": 17}]}, {"id": 57, "name": "take_any_road_J4", "x": 2240, "y": 752, "width": 16, "height": 16, "visible": true, "properties": [{"name": "kind", "type": "int", "value": 110}, {"name": "a", "type": "int", "value": 140}, {"name": "b", "type": "int", "value": 48}, {"name": "underground", "type": "int", "value": 20}, {"name": "dest", "type": "string", "value": "take_any_road"}, {"name": "entrance", "type": "string", "value": "stairs"}, {"name": "faq", "type": "string", "value": "J4"}, {"name": "quest", "type": "string", "value": "both"}, {"name": "exit_x", "type": "int", "value": 3}, {"name": "exit_y", "type": "int", "value": 2}, {"name": "stair_pos", "type": "int", "value": 0}, {"name": "cave_type", "type": "int", "value": 4}]}, {"id": 58, "name": "shop_a_K4", "x": 2576, "y": 656, "width": 16, "height": 16, "visible": true, "properties": [{"name": "kind", "type": "int", "value": 110}, {"name": "a", "type": "int", "value": 161}, {"name": "b", "type": "int", "value": 42}, {"name": "underground", "type": "int", "value": 29}, {"name": "dest", "type": "string", "value": "shop_a"}, {"name": "entrance", "type": "string", "value": "cave"}, {"name": "faq", "type": "string", "value": "K4"}, {"name": "quest", "type": "string", "value": "both"}, {"name": "exit_x", "type": "int", "value": 11}, {"name": "exit_y", "type": "int", "value": 0}, {"name": "stair_pos", "type": "int", "value": 0}, {"name": "cave_type", "type": "int", "value": 13}]}, {"id": 59, "name": "potion_shop_L4", "x": 2720, "y": 752, "width": 16, "height": 16, "visible": true, "properties": [{"name": "kind", "type": "int", "value": 110}, {"name": "a", "type": "int", "value": 170}, {"name": "b", "type": "int", "value": 48}, {"name": "underground", "type": "int", "value": 26}, {"name": "dest", "type": "string", "value": "potion_shop"}, {"name": "entrance", "type": "string", "value": "stairs"}, {"name": "faq", "type": "string", "value": "L4"}, {"name": "quest", "type": "string", "value": "both"}, {"name": "exit_x", "type": "int", "value": 12}, {"name": "exit_y", "type": "int", "value": 1}, {"name": "stair_pos", "type": "int", "value": 0}, {"name": "cave_type", "type": "int", "value": 10}]}, {"id": 60, "name": "shop_c_N4", "x": 3200, "y": 752, "width": 16, "height": 16, "visible": true, "properties": [{"name": "kind", "type": "int", "value": 110}, {"name": "a", "type": "int", "value": 200}, {"name": "b", "type": "int", "value": 48}, {"name": "underground", "type": "int", "value": 31}, {"name": "dest", "type": "string", "value": "shop_c"}, {"name": "entrance", "type": "string", "value": "stairs"}, {"name": "faq", "type": "string", "value": "N4"}, {"name": "quest", "type": "string", "value": "both"}, {"name": "exit_x", "type": "int", "value": 12}, {"name": "exit_y", "type": "int", "value": 4}, {"name": "stair_pos", "type": "int", "value": 0}, {"name": "cave_type", "type": "int", "value": 15}]}, {"id": 61, "name": "money_100_O4", "x": 3440, "y": 752, "width": 16, "height": 16, "visible": true, "properties": [{"name": "kind", "type": "int", "value": 110}, {"name": "a", "type": "int", "value": 215}, {"name": "b", "type": "int", "value": 48}, {"name": "underground", "type": "int", "value": 35}, {"name": "dest", "type": "string", "value": "money_100"}, {"name": "entrance", "type": "string", "value": "stairs"}, {"name": "faq", "type": "string", "value": "O4"}, {"name": "quest", "type": "string", "value": "both"}, {"name": "exit_x", "type": "int", "value": 7}, {"name": "exit_y", "type": "int", "value": 2}, {"name": "stair_pos", "type": "int", "value": 0}, {"name": "cave_type", "type": "int", "value": 19}]}, {"id": 62, "name": "money_100_B3", "x": 320, "y": 912, "width": 16, "height": 16, "visible": true, "properties": [{"name": "kind", "type": "int", "value": 110}, {"name": "a", "type": "int", "value": 20}, {"name": "b", "type": "int", "value": 58}, {"name": "underground", "type": "int", "value": 35}, {"name": "dest", "type": "string", "value": "money_100"}, {"name": "entrance", "type": "string", "value": "stairs"}, {"name": "faq", "type": "string", "value": "B3"}, {"name": "quest", "type": "string", "value": "both"}, {"name": "exit_x", "type": "int", "value": 10}, {"name": "exit_y", "type": "int", "value": 5}, {"name": "stair_pos", "type": "int", "value": 0}, {"name": "cave_type", "type": "int", "value": 19}]}, {"id": 63, "name": "money_30_D3", "x": 800, "y": 912, "width": 16, "height": 16, "visible": true, "properties": [{"name": "kind", "type": "int", "value": 110}, {"name": "a", "type": "int", "value": 50}, {"name": "b", "type": "int", "value": 58}, {"name": "underground", "type": "int", "value": 34}, {"name": "dest", "type": "string", "value": "money_30"}, {"name": "entrance", "type": "string", "value": "stairs"}, {"name": "faq", "type": "string", "value": "D3"}, {"name": "quest", "type": "string", "value": "2"}, {"name": "exit_x", "type": "int", "value": 8}, {"name": "exit_y", "type": "int", "value": 5}, {"name": "stair_pos", "type": "int", "value": 0}, {"name": "cave_type", "type": "int", "value": 18}]}, {"id": 64, "name": "money_100_G3", "x": 1520, "y": 912, "width": 16, "height": 16, "visible": true, "properties": [{"name": "kind", "type": "int", "value": 110}, {"name": "a", "type": "int", "value": 95}, {"name": "b", "type": "int", "value": 58}, {"name": "underground", "type": "int", "value": 35}, {"name": "dest", "type": "string", "value": "money_100"}, {"name": "entrance", "type": "string", "value": "stairs"}, {"name": "faq", "type": "string", "value": "G3"}, {"name": "quest", "type": "string", "value": "both"}, {"name": "exit_x", "type": "int", "value": 11}, {"name": "exit_y", "type": "int", "value": 6}, {"name": "stair_pos", "type": "int", "value": 0}, {"name": "cave_type", "type": "int", "value": 19}]}, {"id": 65, "name": "money_10_I3", "x": 2000, "y": 912, "width": 16, "height": 16, "visible": true, "properties": [{"name": "kind", "type": "int", "value": 110}, {"name": "a", "type": "int", "value": 125}, {"name": "b", "type": "int", "value": 58}, {"name": "underground", "type": "int", "value": 33}, {"name": "dest", "type": "string", "value": "money_10"}, {"name": "entrance", "type": "string", "value": "stairs"}, {"name": "faq", "type": "string", "value": "I3"}, {"name": "quest", "type": "string", "value": "2"}, {"name": "exit_x", "type": "int", "value": 12}, {"name": "exit_y", "type": "int", "value": 4}, {"name": "stair_pos", "type": "int", "value": 0}, {"name": "cave_type", "type": "int", "value": 17}]}, {"id": 66, "name": "money_100_L3", "x": 2720, "y": 912, "width": 16, "height": 16, "visible": true, "properties": [{"name": "kind", "type": "int", "value": 110}, {"name": "a", "type": "int", "value": 170}, {"name": "b", "type": "int", "value": 58}, {"name": "underground", "type": "int", "value": 35}, {"name": "dest", "type": "string", "value": "money_100"}, {"name": "entrance", "type": "string", "value": "stairs"}, {"name": "faq", "type": "string", "value": "L3"}, {"name": "quest", "type": "string", "value": "both"}, {"name": "exit_x", "type": "int", "value": 3}, {"name": "exit_y", "type": "int", "value": 5}, {"name": "stair_pos", "type": "int", "value": 0}, {"name": "cave_type", "type": "int", "value": 19}]}, {"id": 67, "name": "shop_b_O3", "x": 3472, "y": 816, "width": 16, "height": 16, "visible": true, "properties": [{"name": "kind", "type": "int", "value": 110}, {"name": "a", "type": "int", "value": 217}, {"name": "b", "type": "int", "value": 52}, {"name": "underground", "type": "int", "value": 30}, {"name": "dest", "type": "string", "value": "shop_b"}, {"name": "entrance", "type": "string", "value": "cave"}, {"name": "faq", "type": "string", "value": "O3"}, {"name": "quest", "type": "string", "value": "both"}, {"name": "exit_x", "type": "int", "value": 7}, {"name": "exit_y", "type": "int", "value": 0}, {"name": "stair_pos", "type": "int", "value": 0}, {"name": "cave_type", "type": "int", "value": 14}]}, {"id": 68, "name": "gambling_A2", "x": 80, "y": 1072, "width": 16, "height": 16, "visible": true, "properties": [{"name": "kind", "type": "int", "value": 110}, {"name": "a", "type": "int", "value": 5}, {"name": "b", "type": "int", "value": 68}, {"name": "underground", "type": "int", "value": 22}, {"name": "dest", "type": "string", "value": "gambling"}, {"name": "entrance", "type": "string", "value": "stairs"}, {"name": "faq", "type": "string", "value": "A2"}, {"name": "quest", "type": "string", "value": "2"}, {"name": "exit_x", "type": "int", "value": 12}, {"name": "exit_y", "type": "int", "value": 4}, {"name": "stair_pos", "type": "int", "value": 0}, {"name": "cave_type", "type": "int", "value": 6}]}, {"id": 69, "name": "money_30_C2", "x": 560, "y": 1072, "width": 16, "height": 16, "visible": true, "properties": [{"name": "kind", "type": "int", "value": 110}, {"name": "a", "type": "int", "value": 35}, {"name": "b", "type": "int", "value": 68}, {"name": "underground", "type": "int", "value": 34}, {"name": "dest", "type": "string", "value": "money_30"}, {"name": "entrance", "type": "string", "value": "stairs"}, {"name": "faq", "type": "string", "value": "C2"}, {"name": "quest", "type": "string", "value": "1"}, {"name": "exit_x", "type": "int", "value": 6}, {"name": "exit_y", "type": "int", "value": 3}, {"name": "stair_pos", "type": "int", "value": 0}, {"name": "cave_type", "type": "int", "value": 18}]}, {"id": 70, "name": "door_repair_D2", "x": 800, "y": 1072, "width": 16, "height": 16, "visible": true, "properties": [{"name": "kind", "type": "int", "value": 110}, {"name": "a", "type": "int", "value": 50}, {"name": "b", "type": "int", "value": 68}, {"name": "underground", "type": "int", "value": 23}, {"name": "dest", "type": "string", "value": "door_repair"}, {"name": "entrance", "type": "string", "value": "stairs"}, {"name": "faq", "type": "string", "value": "D2"}, {"name": "quest", "type": "string", "value": "both"}, {"name": "exit_x", "type": "int", "value": 7}, {"name": "exit_y", "type": "int", "value": 5}, {"name": "stair_pos", "type": "int", "value": 0}, {"name": "cave_type", "type": "int", "value": 7}]}, {"id": 71, "name": "potion_shop_E2", "x": 1072, "y": 976, "width": 16, "height": 16, "visible": true, "properties": [{"name": "kind", "type": "int", "value": 110}, {"name": "a", "type": "int", "value": 67}, {"name": "b", "type": "int", "value": 62}, {"name": "underground", "type": "int", "value": 26}, {"name": "dest", "type": "string", "value": "potion_shop"}, {"name": "entrance", "type": "string", "value": "cave"}, {"name": "faq", "type": "string", "value": "E2"}, {"name": "quest", "type": "string", "value": "both"}, {"name": "exit_x", "type": "int", "value": 7}, {"name": "exit_y", "type": "int", "value": 0}, {"name": "stair_pos", "type": "int", "value": 0}, {"name": "cave_type", "type": "int", "value": 10}]}, {"id": 72, "name": "shop_b_G2", "x": 1552, "y": 976, "width": 16, "height": 16, "visible": true, "properties": [{"name": "kind", "type": "int", "value": 110}, {"name": "a", "type": "int", "value": 97}, {"name": "b", "type": "int", "value": 62}, {"name": "underground", "type": "int", "value": 30}, {"name": "dest", "type": "string", "value": "shop_b"}, {"name": "entrance", "type": "string", "value": "cave"}, {"name": "faq", "type": "string", "value": "G2"}, {"name": "quest", "type": "string", "value": "both"}, {"name": "exit_x", "type": "int", "value": 7}, {"name": "exit_y", "type": "int", "value": 0}, {"name": "stair_pos", "type": "int", "value": 0}, {"name": "cave_type", "type": "int", "value": 14}]}, {"id": 73, "name": "money_10_H2", "x": 1792, "y": 976, "width": 16, "height": 16, "visible": true, "properties": [{"name": "kind", "type": "int", "value": 110}, {"name": "a", "type": "int", "value": 112}, {"name": "b", "type": "int", "value": 62}, {"name": "underground", "type": "int", "value": 33}, {"name": "dest", "type": "string", "value": "money_10"}, {"name": "entrance", "type": "string", "value": "secret_wall"}, {"name": "faq", "type": "string", "value": "H2"}, {"name": "quest", "type": "string", "value": "1"}, {"name": "exit_x", "type": "int", "value": 7}, {"name": "exit_y", "type": "int", "value": 0}, {"name": "stair_pos", "type": "int", "value": 0}, {"name": "cave_type", "type": "int", "value": 17}]}, {"id": 74, "name": "door_repair_I2", "x": 2000, "y": 1072, "width": 16, "height": 16, "visible": true, "properties": [{"name": "kind", "type": "int", "value": 110}, {"name": "a", "type": "int", "value": 125}, {"name": "b", "type": "int", "value": 68}, {"name": "underground", "type": "int", "value": 23}, {"name": "dest", "type": "string", "value": "door_repair"}, {"name": "entrance", "type": "string", "value": "stairs"}, {"name": "faq", "type": "string", "value": "I2"}, {"name": "quest", "type": "string", "value": "both"}, {"name": "exit_x", "type": "int", "value": 3}, {"name": "exit_y", "type": "int", "value": 4}, {"name": "stair_pos", "type": "int", "value": 0}, {"name": "cave_type", "type": "int", "value": 7}]}, {"id": 75, "name": "door_repair_K2", "x": 2480, "y": 1072, "width": 16, "height": 16, "visible": true, "properties": [{"name": "kind", "type": "int", "value": 110}, {"name": "a", "type": "int", "value": 155}, {"name": "b", "type": "int", "value": 68}, {"name": "underground", "type": "int", "value": 23}, {"name": "dest", "type": "string", "value": "door_repair"}, {"name": "entrance", "type": "string", "value": "stairs"}, {"name": "faq", "type": "string", "value": "K2"}, {"name": "quest", "type": "string", "value": "both"}, {"name": "exit_x", "type": "int", "value": 13}, {"name": "exit_y", "type": "int", "value": 5}, {"name": "stair_pos", "type": "int", "value": 0}, {"name": "cave_type", "type": "int", "value": 7}]}, {"id": 76, "name": "money_30_L2", "x": 2720, "y": 1072, "width": 16, "height": 16, "visible": true, "properties": [{"name": "kind", "type": "int", "value": 110}, {"name": "a", "type": "int", "value": 170}, {"name": "b", "type": "int", "value": 68}, {"name": "underground", "type": "int", "value": 34}, {"name": "dest", "type": "string", "value": "money_30"}, {"name": "entrance", "type": "string", "value": "stairs"}, {"name": "faq", "type": "string", "value": "L2"}, {"name": "quest", "type": "string", "value": "1"}, {"name": "exit_x", "type": "int", "value": 5}, {"name": "exit_y", "type": "int", "value": 5}, {"name": "stair_pos", "type": "int", "value": 0}, {"name": "cave_type", "type": "int", "value": 18}]}, {"id": 77, "name": "dungeon8_M2", "x": 2960, "y": 1072, "width": 16, "height": 16, "visible": true, "properties": [{"name": "kind", "type": "int", "value": 108}, {"name": "a", "type": "int", "value": 185}, {"name": "b", "type": "int", "value": 68}, {"name": "underground", "type": "int", "value": 8}, {"name": "dest", "type": "string", "value": "dungeon8"}, {"name": "entrance", "type": "string", "value": "stairs"}, {"name": "faq", "type": "string", "value": "M2"}, {"name": "quest", "type": "string", "value": "2"}, {"name": "exit_x", "type": "int", "value": 4}, {"name": "exit_y", "type": "int", "value": 1}, {"name": "stair_pos", "type": "int", "value": 0}]}, {"id": 78, "name": "dungeon8_N2", "x": 3200, "y": 1072, "width": 16, "height": 16, "visible": true, "properties": [{"name": "kind", "type": "int", "value": 108}, {"name": "a", "type": "int", "value": 200}, {"name": "b", "type": "int", "value": 68}, {"name": "underground", "type": "int", "value": 8}, {"name": "dest", "type": "string", "value": "dungeon8"}, {"name": "entrance", "type": "string", "value": "stairs"}, {"name": "faq", "type": "string", "value": "N2"}, {"name": "quest", "type": "string", "value": "1"}, {"name": "exit_x", "type": "int", "value": 6}, {"name": "exit_y", "type": "int", "value": 1}, {"name": "stair_pos", "type": "int", "value": 0}]}, {"id": 79, "name": "money_100_O2", "x": 3440, "y": 1072, "width": 16, "height": 16, "visible": true, "properties": [{"name": "kind", "type": "int", "value": 110}, {"name": "a", "type": "int", "value": 215}, {"name": "b", "type": "int", "value": 68}, {"name": "underground", "type": "int", "value": 35}, {"name": "dest", "type": "string", "value": "money_100"}, {"name": "entrance", "type": "string", "value": "stairs"}, {"name": "faq", "type": "string", "value": "O2"}, {"name": "quest", "type": "string", "value": "2"}, {"name": "exit_x", "type": "int", "value": 12}, {"name": "exit_y", "type": "int", "value": 4}, {"name": "stair_pos", "type": "int", "value": 0}, {"name": "cave_type", "type": "int", "value": 19}]}, {"id": 80, "name": "shop_a_P2", "x": 3648, "y": 976, "width": 16, "height": 16, "visible": true, "properties": [{"name": "kind", "type": "int", "value": 110}, {"name": "a", "type": "int", "value": 228}, {"name": "b", "type": "int", "value": 62}, {"name": "underground", "type": "int", "value": 29}, {"name": "dest", "type": "string", "value": "shop_a"}, {"name": "entrance", "type": "string", "value": "cave"}, {"name": "faq", "type": "string", "value": "P2"}, {"name": "quest", "type": "string", "value": "both"}, {"name": "exit_x", "type": "int", "value": 3}, {"name": "exit_y", "type": "int", "value": 0}, {"name": "stair_pos", "type": "int", "value": 0}, {"name": "cave_type", "type": "int", "value": 13}]}, {"id": 81, "name": "shop_f_A1", "x": 176, "y": 1136, "width": 16, "height": 16, "visible": true, "properties": [{"name": "kind", "type": "int", "value": 110}, {"name": "a", "type": "int", "value": 11}, {"name": "b", "type": "int", "value": 72}, {"name": "underground", "type": "int", "value": 28}, {"name": "dest", "type": "string", "value": "shop_f"}, {"name": "entrance", "type": "string", "value": "cave"}, {"name": "faq", "type": "string", "value": "A1"}, {"name": "quest", "type": "string", "value": "both"}, {"name": "exit_x", "type": "int", "value": 11}, {"name": "exit_y", "type": "int", "value": 0}, {"name": "stair_pos", "type": "int", "value": 0}, {"name": "cave_type", "type": "int", "value": 12}]}, {"id": 82, "name": "money_10_B1", "x": 320, "y": 1136, "width": 16, "height": 16, "visible": true, "properties": [{"name": "kind", "type": "int", "value": 110}, {"name": "a", "type": "int", "value": 20}, {"name": "b", "type": "int", "value": 72}, {"name": "underground", "type": "int", "value": 33}, {"name": "dest", "type": "string", "value": "money_10"}, {"name": "entrance", "type": "string", "value": "secret_wall"}, {"name": "faq", "type": "string", "value": "B1"}, {"name": "quest", "type": "string", "value": "1"}, {"name": "exit_x", "type": "int", "value": 5}, {"name": "exit_y", "type": "int", "value": 0}, {"name": "stair_pos", "type": "int", "value": 0}, {"name": "cave_type", "type": "int", "value": 17}]}, {"id": 83, "name": "door_repair_C1", "x": 560, "y": 1232, "width": 16, "height": 16, "visible": true, "properties": [{"name": "kind", "type": "int", "value": 110}, {"name": "a", "type": "int", "value": 35}, {"name": "b", "type": "int", "value": 78}, {"name": "underground", "type": "int", "value": 23}, {"name": "dest", "type": "string", "value": "door_repair"}, {"name": "entrance", "type": "string", "value": "stairs"}, {"name": "faq", "type": "string", "value": "C1"}, {"name": "quest", "type": "string", "value": "2"}, {"name": "exit_x", "type": "int", "value": 4}, {"name": "exit_y", "type": "int", "value": 4}, {"name": "stair_pos", "type": "int", "value": 0}, {"name": "cave_type", "type": "int", "value": 7}]}, {"id": 84, "name": "dungeon3_E1", "x": 1088, "y": 1184, "width": 16, "height": 16, "visible": true, "properties": [{"name": "kind", "type": "int", "value": 103}, {"name": "a", "type": "int", "value": 68}, {"name": "b", "type": "int", "value": 75}, {"name": "underground", "type": "int", "value": 3}, {"name": "dest", "type": "string", "value": "dungeon3"}, {"name": "entrance", "type": "string", "value": "cave"}, {"name": "faq", "type": "string", "value": "E1"}, {"name": "quest", "type": "string", "value": "both"}, {"name": "exit_x", "type": "int", "value": 8}, {"name": "exit_y", "type": "int", "value": 3}, {"name": "stair_pos", "type": "int", "value": 0}]}, {"id": 85, "name": "potion_shop_b_F1", "x": 1232, "y": 1136, "width": 16, "height": 16, "visible": true, "properties": [{"name": "kind", "type": "int", "value": 110}, {"name": "a", "type": "int", "value": 77}, {"name": "b", "type": "int", "value": 72}, {"name": "underground", "type": "int", "value": 25}, {"name": "dest", "type": "string", "value": "potion_shop_b"}, {"name": "entrance", "type": "string", "value": "cave"}, {"name": "faq", "type": "string", "value": "F1"}, {"name": "quest", "type": "string", "value": "both"}, {"name": "exit_x", "type": "int", "value": 2}, {"name": "exit_y", "type": "int", "value": 0}, {"name": "stair_pos", "type": "int", "value": 0}, {"name": "cave_type", "type": "int", "value": 9}]}, {"id": 86, "name": "gambling_G1", "x": 1536, "y": 1136, "width": 16, "height": 16, "visible": true, "properties": [{"name": "kind", "type": "int", "value": 110}, {"name": "a", "type": "int", "value": 96}, {"name": "b", "type": "int", "value": 72}, {"name": "underground", "type": "int", "value": 22}, {"name": "dest", "type": "string", "value": "gambling"}, {"name": "entrance", "type": "string", "value": "secret_wall"}, {"name": "faq", "type": "string", "value": "G1"}, {"name": "quest", "type": "string", "value": "both"}, {"name": "exit_x", "type": "int", "value": 6}, {"name": "exit_y", "type": "int", "value": 0}, {"name": "stair_pos", "type": "int", "value": 0}, {"name": "cave_type", "type": "int", "value": 6}]}, {"id": 87, "name": "wooden_sword_H1", "x": 1744, "y": 1136, "width": 16, "height": 16, "visible": true, "properties": [{"name": "kind", "type": "int", "value": 110}, {"name": "a", "type": "int", "value": 109}, {"name": "b", "type": "int", "value": 72}, {"name": "underground", "type": "int", "value": 16}, {"name": "dest", "type": "string", "value": "wooden_sword"}, {"name": "entrance", "type": "string", "value": "cave"}, {"name": "faq", "type": "string", "value": "H1"}, {"name": "quest", "type": "string", "value": "both"}, {"name": "exit_x", "type": "int", "value": 4}, {"name": "exit_y", "type": "int", "value": 0}, {"name": "stair_pos", "type": "int", "value": 0}, {"name": "cave_type", "type": "int", "value": 0}]}, {"id": 88, "name": "potion_shop_I1", "x": 2000, "y": 1232, "width": 16, "height": 16, "visible": true, "properties": [{"name": "kind", "type": "int", "value": 110}, {"name": "a", "type": "int", "value": 125}, {"name": "b", "type": "int", "value": 78}, {"name": "underground", "type": "int", "value": 26}, {"name": "dest", "type": "string", "value": "potion_shop"}, {"name": "entrance", "type": "string", "value": "stairs"}, {"name": "faq", "type": "string", "value": "I1"}, {"name": "quest", "type": "string", "value": "both"}, {"name": "exit_x", "type": "int", "value": 5}, {"name": "exit_y", "type": "int", "value": 4}, {"name": "stair_pos", "type": "int", "value": 0}, {"name": "cave_type", "type": "int", "value": 10}]}, {"id": 89, "name": "take_any_road_J1", "x": 2304, "y": 1264, "width": 16, "height": 16, "visible": true, "properties": [{"name": "kind", "type": "int", "value": 110}, {"name": "a", "type": "int", "value": 144}, {"name": "b", "type": "int", "value": 79}, {"name": "underground", "type": "int", "value": 20}, {"name": "dest", "type": "string", "value": "take_any_road"}, {"name": "entrance", "type": "string", "value": "stairs"}, {"name": "faq", "type": "string", "value": "J1"}, {"name": "quest", "type": "string", "value": "both"}, {"name": "exit_x", "type": "int", "value": 6}, {"name": "exit_y", "type": "int", "value": 2}, {"name": "stair_pos", "type": "int", "value": 2}, {"name": "cave_type", "type": "int", "value": 4}]}, {"id": 90, "name": "take_any_L1", "x": 2784, "y": 1136, "width": 16, "height": 16, "visible": true, "properties": [{"name": "kind", "type": "int", "value": 110}, {"name": "a", "type": "int", "value": 174}, {"name": "b", "type": "int", "value": 72}, {"name": "underground", "type": "int", "value": 17}, {"name": "dest", "type": "string", "value": "take_any"}, {"name": "entrance", "type": "string", "value": "secret_wall"}, {"name": "faq", "type": "string", "value": "L1"}, {"name": "quest", "type": "string", "value": "1"}, {"name": "exit_x", "type": "int", "value": 9}, {"name": "exit_y", "type": "int", "value": 0}, {"name": "stair_pos", "type": "int", "value": 0}, {"name": "cave_type", "type": "int", "value": 1}]}, {"id": 91, "name": "gambling_M1", "x": 2976, "y": 1136, "width": 16, "height": 16, "visible": true, "properties": [{"name": "kind", "type": "int", "value": 110}, {"name": "a", "type": "int", "value": 186}, {"name": "b", "type": "int", "value": 72}, {"name": "underground", "type": "int", "value": 22}, {"name": "dest", "type": "string", "value": "gambling"}, {"name": "entrance", "type": "string", "value": "secret_wall"}, {"name": "faq", "type": "string", "value": "M1"}, {"name": "quest", "type": "string", "value": "both"}, {"name": "exit_x", "type": "int", "value": 6}, {"name": "exit_y", "type": "int", "value": 0}, {"name": "stair_pos", "type": "int", "value": 0}, {"name": "cave_type", "type": "int", "value": 6}]}, {"id": 92, "name": "door_repair_N1", "x": 3216, "y": 1136, "width": 16, "height": 16, "visible": true, "properties": [{"name": "kind", "type": "int", "value": 110}, {"name": "a", "type": "int", "value": 201}, {"name": "b", "type": "int", "value": 72}, {"name": "underground", "type": "int", "value": 23}, {"name": "dest", "type": "string", "value": "door_repair"}, {"name": "entrance", "type": "string", "value": "secret_wall"}, {"name": "faq", "type": "string", "value": "N1"}, {"name": "quest", "type": "string", "value": "both"}, {"name": "exit_x", "type": "int", "value": 6}, {"name": "exit_y", "type": "int", "value": 0}, {"name": "stair_pos", "type": "int", "value": 0}, {"name": "cave_type", "type": "int", "value": 7}]}]}, {"type": "objectgroup", "name": "spawns", "id": 4, "opacity": 1, "visible": true, "x": 0, "y": 0, "objects": [{"id": 93, "name": "", "x": 160, "y": 64, "width": 16, "height": 16, "visible": true, "properties": [{"name": "kind", "type": "int", "value": 200}, {"name": "a", "type": "int", "value": 0}, {"name": "b", "type": "int", "value": 0}]}, {"id": 94, "name": "", "x": 384, "y": 16, "width": 16, "height": 16, "visible": true, "properties": [{"name": "kind", "type": "int", "value": 200}, {"name": "a", "type": "int", "value": 1}, {"name": "b", "type": "int", "value": 0}]}, {"id": 95, "name": "", "x": 576, "y": 64, "width": 16, "height": 16, "visible": true, "properties": [{"name": "kind", "type": "int", "value": 200}, {"name": "a", "type": "int", "value": 2}, {"name": "b", "type": "int", "value": 0}]}, {"id": 96, "name": "", "x": 832, "y": 64, "width": 16, "height": 16, "visible": true, "properties": [{"name": "kind", "type": "int", "value": 200}, {"name": "a", "type": "int", "value": 3}, {"name": "b", "type": "int", "value": 0}]}, {"id": 97, "name": "", "x": 1280, "y": 96, "width": 16, "height": 16, "visible": true, "properties": [{"name": "kind", "type": "int", "value": 200}, {"name": "a", "type": "int", "value": 5}, {"name": "b", "type": "int", "value": 0}]}, {"id": 98, "name": "", "x": 1520, "y": 112, "width": 16, "height": 16, "visible": true, "properties": [{"name": "kind", "type": "int", "value": 203}, {"name": "a", "type": "int", "value": 6}, {"name": "b", "type": "int", "value": 0}]}, {"id": 99, "name": "", "x": 1840, "y": 64, "width": 16, "height": 16, "visible": true, "properties": [{"name": "kind", "type": "int", "value": 200}, {"name": "a", "type": "int", "value": 7}, {"name": "b", "type": "int", "value": 0}]}, {"id": 100, "name": "", "x": 2304, "y": 144, "width": 16, "height": 16, "visible": true, "properties": [{"name": "kind", "type": "int", "value": 201}, {"name": "a", "type": "int", "value": 8}, {"name": "b", "type": "int", "value": 0}]}, {"id": 101, "name": "", "x": 3264, "y": 16, "width": 16, "height": 16, "visible": true, "properties": [{"name": "kind", "type": "int", "value": 200}, {"name": "a", "type": "int", "value": 12}, {"name": "b", "type": "int", "value": 0}]}, {"id": 102, "name": "", "x": 144, "y": 176, "width": 16, "height": 16, "visible": true, "properties": [{"name": "kind", "type": "int", "value": 200}, {"name": "a", "type": "int", "value": 15}, {"name": "b", "type": "int", "value": 0}]}, {"id": 103, "name": "", "x": 384, "y": 304, "width": 16, "height": 16, "visible": true, "properties": [{"name": "kind", "type": "int", "value": 201}, {"name": "a", "type": "int", "value": 16}, {"name": "b", "type": "int", "value": 0}]}, {"id": 104, "name": "", "x": 608, "y": 176, "width": 16, "height": 16, "visible": true, "properties": [{"name": "kind", "type": "int", "value": 200}, {"name": "a", "type": "int", "value": 17}, {"name": "b", "type": "int", "value": 0}]}, {"id": 105, "name": "", "x": 752, "y": 176, "width": 16, "height": 16, "visible": true, "properties": [{"name": "kind", "type": "int", "value": 200}, {"name": "a", "type": "int", "value": 18}, {"name": "b", "type": "int", "value": 0}]}, {"id": 106, "name": "", "x": 1152, "y": 176, "width": 16, "height": 16, "visible": true, "properties": [{"name": "kind", "type": "int", "value": 200}, {"name": "a", "type": "int", "value": 19}, {"name": "b", "type": "int", "value": 0}]}, {"id": 107, "name": "", "x": 1392, "y": 176, "width": 16, "height": 16, "visible": true, "properties": [{"name": "kind", "type": "int", "value": 200}, {"name": "a", "type": "int", "value": 20}, {"name": "b", "type": "int", "value": 0}]}, {"id": 108, "name": "", "x": 1536, "y": 176, "width": 16, "height": 16, "visible": true, "properties": [{"name": "kind", "type": "int", "value": 200}, {"name": "a", "type": "int", "value": 21}, {"name": "b", "type": "int", "value": 0}]}, {"id": 109, "name": "", "x": 2112, "y": 208, "width": 16, "height": 16, "visible": true, "properties": [{"name": "kind", "type": "int", "value": 200}, {"name": "a", "type": "int", "value": 22}, {"name": "b", "type": "int", "value": 0}]}, {"id": 110, "name": "", "x": 2224, "y": 208, "width": 16, "height": 16, "visible": true, "properties": [{"name": "kind", "type": "int", "value": 200}, {"name": "a", "type": "int", "value": 23}, {"name": "b", "type": "int", "value": 0}]}, {"id": 111, "name": "", "x": 2496, "y": 224, "width": 16, "height": 16, "visible": true, "properties": [{"name": "kind", "type": "int", "value": 200}, {"name": "a", "type": "int", "value": 24}, {"name": "b", "type": "int", "value": 0}]}, {"id": 112, "name": "", "x": 2784, "y": 304, "width": 16, "height": 16, "visible": true, "properties": [{"name": "kind", "type": "int", "value": 201}, {"name": "a", "type": "int", "value": 25}, {"name": "b", "type": "int", "value": 0}]}, {"id": 113, "name": "", "x": 2960, "y": 272, "width": 16, "height": 16, "visible": true, "properties": [{"name": "kind", "type": "int", "value": 204}, {"name": "a", "type": "int", "value": 26}, {"name": "b", "type": "int", "value": 0}]}, {"id": 114, "name": "", "x": 3200, "y": 272, "width": 16, "height": 16, "visible": true, "properties": [{"name": "kind", "type": "int", "value": 200}, {"name": "a", "type": "int", "value": 27}, {"name": "b", "type": "int", "value": 0}]}, {"id": 115, "name": "", "x": 3552, "y": 176, "width": 16, "height": 16, "visible": true, "properties": [{"name": "kind", "type": "int", "value": 200}, {"name": "a", "type": "int", "value": 28}, {"name": "b", "type": "int", "value": 0}]}, {"id": 116, "name": "", "x": 96, "y": 464, "width": 16, "height": 16, "visible": true, "properties": [{"name": "kind", "type": "int", "value": 202}, {"name": "a", "type": "int", "value": 30}, {"name": "b", "type": "int", "value": 0}]}, {"id": 117, "name": "", "x": 384, "y": 464, "width": 16, "height": 16, "visible": true, "properties": [{"name": "kind", "type": "int", "value": 202}, {"name": "a", "type": "int", "value": 31}, {"name": "b", "type": "int", "value": 0}]}, {"id": 118, "name": "", "x": 784, "y": 464, "width": 16, "height": 16, "visible": true, "properties": [{"name": "kind", "type": "int", "value": 201}, {"name": "a", "type": "int", "value": 33}, {"name": "b", "type": "int", "value": 0}]}, {"id": 119, "name": "", "x": 1488, "y": 336, "width": 16, "height": 16, "visible": true, "properties": [{"name": "kind", "type": "int", "value": 200}, {"name": "a", "type": "int", "value": 35}, {"name": "b", "type": "int", "value": 0}]}, {"id": 120, "name": "", "x": 1904, "y": 336, "width": 16, "height": 16, "visible": true, "properties": [{"name": "kind", "type": "int", "value": 200}, {"name": "a", "type": "int", "value": 36}, {"name": "b", "type": "int", "value": 0}]}, {"id": 121, "name": "", "x": 2000, "y": 432, "width": 16, "height": 16, "visible": true, "properties": [{"name": "kind", "type": "int", "value": 201}, {"name": "a", "type": "int", "value": 37}, {"name": "b", "type": "int", "value": 0}]}, {"id": 122, "name": "", "x": 2336, "y": 400, "width": 16, "height": 16, "visible": true, "properties": [{"name": "kind", "type": "int", "value": 203}, {"name": "a", "type": "int", "value": 38}, {"name": "b", "type": "int", "value": 0}]}, {"id": 123, "name": "", "x": 2816, "y": 400, "width": 16, "height": 16, "visible": true, "properties": [{"name": "kind", "type": "int", "value": 203}, {"name": "a", "type": "int", "value": 39}, {"name": "b", "type": "int", "value": 0}]}, {"id": 124, "name": "", "x": 3024, "y": 416, "width": 16, "height": 16, "visible": true, "properties": [{"name": "kind", "type": "int", "value": 200}, {"name": "a", "type": "int", "value": 40}, {"name": "b", "type": "int", "value": 0}]}, {"id": 125, "name": "", "x": 3200, "y": 336, "width": 16, "height": 16, "visible": true, "properties": [{"name": "kind", "type": "int", "value": 200}, {"name": "a", "type": "int", "value": 41}, {"name": "b", "type": "int", "value": 0}]}, {"id": 126, "name": "", "x": 80, "y": 592, "width": 16, "height": 16, "visible": true, "properties": [{"name": "kind", "type": "int", "value": 203}, {"name": "a", "type": "int", "value": 43}, {"name": "b", "type": "int", "value": 0}]}, {"id": 127, "name": "", "x": 880, "y": 496, "width": 16, "height": 16, "visible": true, "properties": [{"name": "kind", "type": "int", "value": 200}, {"name": "a", "type": "int", "value": 44}, {"name": "b", "type": "int", "value": 0}]}, {"id": 128, "name": "", "x": 1040, "y": 592, "width": 16, "height": 16, "visible": true, "properties": [{"name": "kind", "type": "int", "value": 204}, {"name": "a", "type": "int", "value": 45}, {"name": "b", "type": "int", "value": 0}]}, {"id": 129, "name": "", "x": 2592, "y": 560, "width": 16, "height": 16, "visible": true, "properties": [{"name": "kind", "type": "int", "value": 203}, {"name": "a", "type": "int", "value": 47}, {"name": "b", "type": "int", "value": 0}]}, {"id": 130, "name": "", "x": 3200, "y": 592, "width": 16, "height": 16, "visible": true, "properties": [{"name": "kind", "type": "int", "value": 204}, {"name": "a", "type": "int", "value": 49}, {"name": "b", "type": "int", "value": 0}]}, {"id": 131, "name": "", "x": 560, "y": 752, "width": 16, "height": 16, "visible": true, "properties": [{"name": "kind", "type": "int", "value": 203}, {"name": "a", "type": "int", "value": 50}, {"name": "b", "type": "int", "value": 0}]}, {"id": 132, "name": "", "x": 1520, "y": 752, "width": 16, "height": 16, "visible": true, "properties": [{"name": "kind", "type": "int", "value": 201}, {"name": "a", "type": "int", "value": 53}, {"name": "b", "type": "int", "value": 0}]}, {"id": 133, "name": "", "x": 1760, "y": 752, "width": 16, "height": 16, "visible": true, "properties": [{"name": "kind", "type": "int", "value": 201}, {"name": "a", "type": "int", "value": 54}, {"name": "b", "type": "int", "value": 0}]}, {"id": 134, "name": "", "x": 2000, "y": 752, "width": 16, "height": 16, "visible": true, "properties": [{"name": "kind", "type": "int", "value": 202}, {"name": "a", "type": "int", "value": 55}, {"name": "b", "type": "int", "value": 0}]}, {"id": 135, "name": "", "x": 2240, "y": 752, "width": 16, "height": 16, "visible": true, "properties": [{"name": "kind", "type": "int", "value": 201}, {"name": "a", "type": "int", "value": 56}, {"name": "b", "type": "int", "value": 0}]}, {"id": 136, "name": "", "x": 2720, "y": 752, "width": 16, "height": 16, "visible": true, "properties": [{"name": "kind", "type": "int", "value": 202}, {"name": "a", "type": "int", "value": 58}, {"name": "b", "type": "int", "value": 0}]}, {"id": 137, "name": "", "x": 3200, "y": 752, "width": 16, "height": 16, "visible": true, "properties": [{"name": "kind", "type": "int", "value": 202}, {"name": "a", "type": "int", "value": 59}, {"name": "b", "type": "int", "value": 0}]}, {"id": 138, "name": "", "x": 3440, "y": 752, "width": 16, "height": 16, "visible": true, "properties": [{"name": "kind", "type": "int", "value": 204}, {"name": "a", "type": "int", "value": 60}, {"name": "b", "type": "int", "value": 0}]}, {"id": 139, "name": "", "x": 320, "y": 912, "width": 16, "height": 16, "visible": true, "properties": [{"name": "kind", "type": "int", "value": 202}, {"name": "a", "type": "int", "value": 61}, {"name": "b", "type": "int", "value": 0}]}, {"id": 140, "name": "", "x": 800, "y": 912, "width": 16, "height": 16, "visible": true, "properties": [{"name": "kind", "type": "int", "value": 202}, {"name": "a", "type": "int", "value": 62}, {"name": "b", "type": "int", "value": 0}]}, {"id": 141, "name": "", "x": 1520, "y": 912, "width": 16, "height": 16, "visible": true, "properties": [{"name": "kind", "type": "int", "value": 202}, {"name": "a", "type": "int", "value": 63}, {"name": "b", "type": "int", "value": 0}]}, {"id": 142, "name": "", "x": 2000, "y": 912, "width": 16, "height": 16, "visible": true, "properties": [{"name": "kind", "type": "int", "value": 203}, {"name": "a", "type": "int", "value": 64}, {"name": "b", "type": "int", "value": 0}]}, {"id": 143, "name": "", "x": 2720, "y": 912, "width": 16, "height": 16, "visible": true, "properties": [{"name": "kind", "type": "int", "value": 202}, {"name": "a", "type": "int", "value": 65}, {"name": "b", "type": "int", "value": 0}]}, {"id": 144, "name": "", "x": 80, "y": 1072, "width": 16, "height": 16, "visible": true, "properties": [{"name": "kind", "type": "int", "value": 203}, {"name": "a", "type": "int", "value": 67}, {"name": "b", "type": "int", "value": 0}]}, {"id": 145, "name": "", "x": 560, "y": 1072, "width": 16, "height": 16, "visible": true, "properties": [{"name": "kind", "type": "int", "value": 201}, {"name": "a", "type": "int", "value": 68}, {"name": "b", "type": "int", "value": 0}]}, {"id": 146, "name": "", "x": 800, "y": 1072, "width": 16, "height": 16, "visible": true, "properties": [{"name": "kind", "type": "int", "value": 202}, {"name": "a", "type": "int", "value": 69}, {"name": "b", "type": "int", "value": 0}]}, {"id": 147, "name": "", "x": 1792, "y": 976, "width": 16, "height": 16, "visible": true, "properties": [{"name": "kind", "type": "int", "value": 200}, {"name": "a", "type": "int", "value": 72}, {"name": "b", "type": "int", "value": 0}]}, {"id": 148, "name": "", "x": 2000, "y": 1072, "width": 16, "height": 16, "visible": true, "properties": [{"name": "kind", "type": "int", "value": 202}, {"name": "a", "type": "int", "value": 73}, {"name": "b", "type": "int", "value": 0}]}, {"id": 149, "name": "", "x": 2480, "y": 1072, "width": 16, "height": 16, "visible": true, "properties": [{"name": "kind", "type": "int", "value": 202}, {"name": "a", "type": "int", "value": 74}, {"name": "b", "type": "int", "value": 0}]}, {"id": 150, "name": "", "x": 2720, "y": 1072, "width": 16, "height": 16, "visible": true, "properties": [{"name": "kind", "type": "int", "value": 202}, {"name": "a", "type": "int", "value": 75}, {"name": "b", "type": "int", "value": 0}]}, {"id": 151, "name": "", "x": 2960, "y": 1072, "width": 16, "height": 16, "visible": true, "properties": [{"name": "kind", "type": "int", "value": 201}, {"name": "a", "type": "int", "value": 76}, {"name": "b", "type": "int", "value": 0}]}, {"id": 152, "name": "", "x": 3200, "y": 1072, "width": 16, "height": 16, "visible": true, "properties": [{"name": "kind", "type": "int", "value": 201}, {"name": "a", "type": "int", "value": 77}, {"name": "b", "type": "int", "value": 0}]}, {"id": 153, "name": "", "x": 3440, "y": 1072, "width": 16, "height": 16, "visible": true, "properties": [{"name": "kind", "type": "int", "value": 203}, {"name": "a", "type": "int", "value": 78}, {"name": "b", "type": "int", "value": 0}]}, {"id": 154, "name": "", "x": 320, "y": 1136, "width": 16, "height": 16, "visible": true, "properties": [{"name": "kind", "type": "int", "value": 200}, {"name": "a", "type": "int", "value": 81}, {"name": "b", "type": "int", "value": 0}]}, {"id": 155, "name": "", "x": 560, "y": 1232, "width": 16, "height": 16, "visible": true, "properties": [{"name": "kind", "type": "int", "value": 203}, {"name": "a", "type": "int", "value": 82}, {"name": "b", "type": "int", "value": 0}]}, {"id": 156, "name": "", "x": 1536, "y": 1136, "width": 16, "height": 16, "visible": true, "properties": [{"name": "kind", "type": "int", "value": 200}, {"name": "a", "type": "int", "value": 85}, {"name": "b", "type": "int", "value": 0}]}, {"id": 157, "name": "", "x": 2000, "y": 1232, "width": 16, "height": 16, "visible": true, "properties": [{"name": "kind", "type": "int", "value": 202}, {"name": "a", "type": "int", "value": 87}, {"name": "b", "type": "int", "value": 0}]}, {"id": 158, "name": "", "x": 2304, "y": 1264, "width": 16, "height": 16, "visible": true, "properties": [{"name": "kind", "type": "int", "value": 201}, {"name": "a", "type": "int", "value": 88}, {"name": "b", "type": "int", "value": 0}]}, {"id": 159, "name": "", "x": 2784, "y": 1136, "width": 16, "height": 16, "visible": true, "properties": [{"name": "kind", "type": "int", "value": 200}, {"name": "a", "type": "int", "value": 89}, {"name": "b", "type": "int", "value": 0}]}, {"id": 160, "name": "", "x": 2976, "y": 1136, "width": 16, "height": 16, "visible": true, "properties": [{"name": "kind", "type": "int", "value": 200}, {"name": "a", "type": "int", "value": 90}, {"name": "b", "type": "int", "value": 0}]}, {"id": 161, "name": "", "x": 3216, "y": 1136, "width": 16, "height": 16, "visible": true, "properties": [{"name": "kind", "type": "int", "value": 200}, {"name": "a", "type": "int", "value": 91}, {"name": "b", "type": "int", "value": 0}]}, {"id": 162, "name": "", "x": 416, "y": 128, "width": 16, "height": 16, "visible": true, "properties": [{"name": "kind", "type": "int", "value": 71}, {"name": "a", "type": "int", "value": 0}, {"name": "b", "type": "int", "value": 0}]}, {"id": 163, "name": "", "x": 256, "y": 80, "width": 16, "height": 16, "visible": true, "properties": [{"name": "kind", "type": "int", "value": 71}, {"name": "a", "type": "int", "value": 0}, {"name": "b", "type": "int", "value": 0}]}, {"id": 164, "name": "", "x": 448, "y": 80, "width": 16, "height": 16, "visible": true, "properties": [{"name": "kind", "type": "int", "value": 71}, {"name": "a", "type": "int", "value": 0}, {"name": "b", "type": "int", "value": 0}]}, {"id": 165, "name": "", "x": 448, "y": 48, "width": 16, "height": 16, "visible": true, "properties": [{"name": "kind", "type": "int", "value": 71}, {"name": "a", "type": "int", "value": 0}, {"name": "b", "type": "int", "value": 0}]}, {"id": 166, "name": "", "x": 672, "y": 128, "width": 16, "height": 16, "visible": true, "properties": [{"name": "kind", "type": "int", "value": 71}, {"name": "a", "type": "int", "value": 0}, {"name": "b", "type": "int", "value": 0}]}, {"id": 167, "name": "", "x": 656, "y": 112, "width": 16, "height": 16, "visible": true, "properties": [{"name": "kind", "type": "int", "value": 71}, {"name": "a", "type": "int", "value": 0}, {"name": "b", "type": "int", "value": 0}]}, {"id": 168, "name": "", "x": 528, "y": 128, "width": 16, "height": 16, "visible": true, "properties": [{"name": "kind", "type": "int", "value": 71}, {"name": "a", "type": "int", "value": 0}, {"name": "b", "type": "int", "value": 0}]}, {"id": 169, "name": "", "x": 656, "y": 64, "width": 16, "height": 16, "visible": true, "properties": [{"name": "kind", "type": "int", "value": 71}, {"name": "a", "type": "int", "value": 0}, {"name": "b", "type": "int", "value": 0}]}, {"id": 170, "name": "", "x": 736, "y": 48, "width": 16, "height": 16, "visible": true, "properties": [{"name": "kind", "type": "int", "value": 76}, {"name": "a", "type": "int", "value": 0}, {"name": "b", "type": "int", "value": 0}]}, {"id": 171, "name": "", "x": 992, "y": 80, "width": 16, "height": 16, "visible": true, "properties": [{"name": "kind", "type": "int", "value": 70}, {"name": "a", "type": "int", "value": 0}, {"name": "b", "type": "int", "value": 0}]}, {"id": 172, "name": "", "x": 1104, "y": 128, "width": 16, "height": 16, "visible": true, "properties": [{"name": "kind", "type": "int", "value": 70}, {"name": "a", "type": "int", "value": 0}, {"name": "b", "type": "int", "value": 0}]}, {"id": 173, "name": "", "x": 1088, "y": 112, "width": 16, "height": 16, "visible": true, "properties": [{"name": "kind", "type": "int", "value": 70}, {"name": "a", "type": "int", "value": 0}, {"name": "b", "type": "int", "value": 0}]}, {"id": 174, "name": "", "x": 1152, "y": 96, "width": 16, "height": 16, "visible": true, "properties": [{"name": "kind", "type": "int", "value": 70}, {"name": "a", "type": "int", "value": 0}, {"name": "b", "type": "int", "value": 0}]}, {"id": 175, "name": "", "x": 1168, "y": 32, "width": 16, "height": 16, "visible": true, "properties": [{"name": "kind", "type": "int", "value": 70}, {"name": "a", "type": "int", "value": 0}, {"name": "b", "type": "int", "value": 0}]}, {"id": 176, "name": "", "x": 1136, "y": 112, "width": 16, "height": 16, "visible": true, "properties": [{"name": "kind", "type": "int", "value": 70}, {"name": "a", "type": "int", "value": 0}, {"name": "b", "type": "int", "value": 0}]}, {"id": 177, "name": "", "x": 1328, "y": 48, "width": 16, "height": 16, "visible": true, "properties": [{"name": "kind", "type": "int", "value": 70}, {"name": "a", "type": "int", "value": 0}, {"name": "b", "type": "int", "value": 0}]}, {"id": 178, "name": "", "x": 1216, "y": 112, "width": 16, "height": 16, "visible": true, "properties": [{"name": "kind", "type": "int", "value": 35}, {"name": "a", "type": "int", "value": 0}, {"name": "b", "type": "int", "value": 0}]}, {"id": 179, "name": "", "x": 1312, "y": 64, "width": 16, "height": 16, "visible": true, "properties": [{"name": "kind", "type": "int", "value": 71}, {"name": "a", "type": "int", "value": 0}, {"name": "b", "type": "int", "value": 0}]}, {"id": 180, "name": "", "x": 1424, "y": 64, "width": 16, "height": 16, "visible": true, "properties": [{"name": "kind", "type": "int", "value": 70}, {"name": "a", "type": "int", "value": 0}, {"name": "b", "type": "int", "value": 0}]}, {"id": 181, "name": "", "x": 1312, "y": 128, "width": 16, "height": 16, "visible": true, "properties": [{"name": "kind", "type": "int", "value": 35}, {"name": "a", "type": "int", "value": 0}, {"name": "b", "type": "int", "value": 0}]}, {"id": 182, "name": "", "x": 1248, "y": 48, "width": 16, "height": 16, "visible": true, "properties": [{"name": "kind", "type": "int", "value": 71}, {"name": "a", "type": "int", "value": 0}, {"name": "b", "type": "int", "value": 0}]}, {"id": 183, "name": "", "x": 1536, "y": 96, "width": 16, "height": 16, "visible": true, "properties": [{"name": "kind", "type": "int", "value": 72}, {"name": "a", "type": "int", "value": 0}, {"name": "b", "type": "int", "value": 0}]}, {"id": 184, "name": "", "x": 1584, "y": 64, "width": 16, "height": 16, "visible": true, "properties": [{"name": "kind", "type": "int", "value": 72}, {"name": "a", "type": "int", "value": 0}, {"name": "b", "type": "int", "value": 0}]}, {"id": 185, "name": "", "x": 1536, "y": 64, "width": 16, "height": 16, "visible": true, "properties": [{"name": "kind", "type": "int", "value": 71}, {"name": "a", "type": "int", "value": 0}, {"name": "b", "type": "int", "value": 0}]}, {"id": 186, "name": "", "x": 1552, "y": 128, "width": 16, "height": 16, "visible": true, "properties": [{"name": "kind", "type": "int", "value": 70}, {"name": "a", "type": "int", "value": 0}, {"name": "b", "type": "int", "value": 0}]}, {"id": 187, "name": "", "x": 1648, "y": 80, "width": 16, "height": 16, "visible": true, "properties": [{"name": "kind", "type": "int", "value": 71}, {"name": "a", "type": "int", "value": 0}, {"name": "b", "type": "int", "value": 0}]}, {"id": 188, "name": "", "x": 1552, "y": 32, "width": 16, "height": 16, "visible": true, "properties": [{"name": "kind", "type": "int", "value": 70}, {"name": "a", "type": "int", "value": 0}, {"name": "b", "type": "int", "value": 0}]}, {"id": 189, "name": "", "x": 1728, "y": 80, "width": 16, "height": 16, "visible": true, "properties": [{"name": "kind", "type": "int", "value": 71}, {"name": "a", "type": "int", "value": 0}, {"name": "b", "type": "int", "value": 0}]}, {"id": 190, "name": "", "x": 2064, "y": 96, "width": 16, "height": 16, "visible": true, "properties": [{"name": "kind", "type": "int", "value": 76}, {"name": "a", "type": "int", "value": 0}, {"name": "b", "type": "int", "value": 0}]}, {"id": 191, "name": "", "x": 2592, "y": 112, "width": 16, "height": 16, "visible": true, "properties": [{"name": "kind", "type": "int", "value": 70}, {"name": "a", "type": "int", "value": 0}, {"name": "b", "type": "int", "value": 0}]}, {"id": 192, "name": "", "x": 2736, "y": 112, "width": 16, "height": 16, "visible": true, "properties": [{"name": "kind", "type": "int", "value": 35}, {"name": "a", "type": "int", "value": 0}, {"name": "b", "type": "int", "value": 0}]}, {"id": 193, "name": "", "x": 3056, "y": 112, "width": 16, "height": 16, "visible": true, "properties": [{"name": "kind", "type": "int", "value": 39}, {"name": "a", "type": "int", "value": 0}, {"name": "b", "type": "int", "value": 0}]}, {"id": 194, "name": "", "x": 3040, "y": 48, "width": 16, "height": 16, "visible": true, "properties": [{"name": "kind", "type": "int", "value": 39}, {"name": "a", "type": "int", "value": 0}, {"name": "b", "type": "int", "value": 0}]}, {"id": 195, "name": "", "x": 3040, "y": 32, "width": 16, "height": 16, "visible": true, "properties": [{"name": "kind", "type": "int", "value": 39}, {"name": "a", "type": "int", "value": 0}, {"name": "b", "type": "int", "value": 0}]}, {"id": 196, "name": "", "x": 3088, "y": 80, "width": 16, "height": 16, "visible": true, "properties": [{"name": "kind", "type": "int", "value": 39}, {"name": "a", "type": "int", "value": 0}, {"name": "b", "type": "int", "value": 0}]}, {"id": 197, "name": "", "x": 2992, "y": 64, "width": 16, "height": 16, "visible": true, "properties": [{"name": "kind", "type": "int", "value": 39}, {"name": "a", "type": "int", "value": 0}, {"name": "b", "type": "int", "value": 0}]}, {"id": 198, "name": "", "x": 2992, "y": 80, "width": 16, "height": 16, "visible": true, "properties": [{"name": "kind", "type": "int", "value": 39}, {"name": "a", "type": "int", "value": 0}, {"name": "b", "type": "int", "value": 0}]}, {"id": 199, "name": "", "x": 3344, "y": 112, "width": 16, "height": 16, "visible": true, "properties": [{"name": "kind", "type": "int", "value": 39}, {"name": "a", "type": "int", "value": 0}, {"name": "b", "type": "int", "value": 0}]}, {"id": 200, "name": "", "x": 3232, "y": 48, "width": 16, "height": 16, "visible": true, "properties": [{"name": "kind", "type": "int", "value": 39}, {"name": "a", "type": "int", "value": 0}, {"name": "b", "type": "int", "value": 0}]}, {"id": 201, "name": "", "x": 3136, "y": 96, "width": 16, "height": 16, "visible": true, "properties": [{"name": "kind", "type": "int", "value": 39}, {"name": "a", "type": "int", "value": 0}, {"name": "b", "type": "int", "value": 0}]}, {"id": 202, "name": "", "x": 3296, "y": 128, "width": 16, "height": 16, "visible": true, "properties": [{"name": "kind", "type": "int", "value": 39}, {"name": "a", "type": "int", "value": 0}, {"name": "b", "type": "int", "value": 0}]}, {"id": 203, "name": "", "x": 3232, "y": 32, "width": 16, "height": 16, "visible": true, "properties": [{"name": "kind", "type": "int", "value": 39}, {"name": "a", "type": "int", "value": 0}, {"name": "b", "type": "int", "value": 0}]}, {"id": 204, "name": "", "x": 3152, "y": 48, "width": 16, "height": 16, "visible": true, "properties": [{"name": "kind", "type": "int", "value": 39}, {"name": "a", "type": "int", "value": 0}, {"name": "b", "type": "int", "value": 0}]}, {"id": 205, "name": "", "x": 208, "y": 208, "width": 16, "height": 16, "visible": true, "properties": [{"name": "kind", "type": "int", "value": 70}, {"name": "a", "type": "int", "value": 0}, {"name": "b", "type": "int", "value": 0}]}, {"id": 206, "name": "", "x": 16, "y": 240, "width": 16, "height": 16, "visible": true, "properties": [{"name": "kind", "type": "int", "value": 70}, {"name": "a", "type": "int", "value": 0}, {"name": "b", "type": "int", "value": 0}]}, {"id": 207, "name": "", "x": 80, "y": 272, "width": 16, "height": 16, "visible": true, "properties": [{"name": "kind", "type": "int", "value": 70}, {"name": "a", "type": "int", "value": 0}, {"name": "b", "type": "int", "value": 0}]}, {"id": 208, "name": "", "x": 160, "y": 240, "width": 16, "height": 16, "visible": true, "properties": [{"name": "kind", "type": "int", "value": 70}, {"name": "a", "type": "int", "value": 0}, {"name": "b", "type": "int", "value": 0}]}, {"id": 209, "name": "", "x": 352, "y": 192, "width": 16, "height": 16, "visible": true, "properties": [{"name": "kind", "type": "int", "value": 72}, {"name": "a", "type": "int", "value": 0}, {"name": "b", "type": "int", "value": 0}]}, {"id": 210, "name": "", "x": 432, "y": 256, "width": 16, "height": 16, "visible": true, "properties": [{"name": "kind", "type": "int", "value": 72}, {"name": "a", "type": "int", "value": 0}, {"name": "b", "type": "int", "value": 0}]}, {"id": 211, "name": "", "x": 304, "y": 256, "width": 16, "height": 16, "visible": true, "properties": [{"name": "kind", "type": "int", "value": 71}, {"name": "a", "type": "int", "value": 0}, {"name": "b", "type": "int", "value": 0}]}, {"id": 212, "name": "", "x": 368, "y": 288, "width": 16, "height": 16, "visible": true, "properties": [{"name": "kind", "type": "int", "value": 70}, {"name": "a", "type": "int", "value": 0}, {"name": "b", "type": "int", "value": 0}]}, {"id": 213, "name": "", "x": 256, "y": 288, "width": 16, "height": 16, "visible": true, "properties": [{"name": "kind", "type": "int", "value": 71}, {"name": "a", "type": "int", "value": 0}, {"name": "b", "type": "int", "value": 0}]}, {"id": 214, "name": "", "x": 352, "y": 208, "width": 16, "height": 16, "visible": true, "properties": [{"name": "kind", "type": "int", "value": 70}, {"name": "a", "type": "int", "value": 0}, {"name": "b", "type": "int", "value": 0}]}, {"id": 215, "name": "", "x": 592, "y": 240, "width": 16, "height": 16, "visible": true, "properties": [{"name": "kind", "type": "int", "value": 70}, {"name": "a", "type": "int", "value": 0}, {"name": "b", "type": "int", "value": 0}]}, {"id": 216, "name": "", "x": 592, "y": 256, "width": 16, "height": 16, "visible": true, "properties": [{"name": "kind", "type": "int", "value": 70}, {"name": "a", "type": "int", "value": 0}, {"name": "b", "type": "int", "value": 0}]}, {"id": 217, "name": "", "x": 528, "y": 208, "width": 16, "height": 16, "visible": true, "properties": [{"name": "kind", "type": "int", "value": 70}, {"name": "a", "type": "int", "value": 0}, {"name": "b", "type": "int", "value": 0}]}, {"id": 218, "name": "", "x": 560, "y": 256, "width": 16, "height": 16, "visible": true, "properties": [{"name": "kind", "type": "int", "value": 70}, {"name": "a", "type": "int", "value": 0}, {"name": "b", "type": "int", "value": 0}]}, {"id": 219, "name": "", "x": 576, "y": 256, "width": 16, "height": 16, "visible": true, "properties": [{"name": "kind", "type": "int", "value": 70}, {"name": "a", "type": "int", "value": 0}, {"name": "b", "type": "int", "value": 0}]}, {"id": 220, "name": "", "x": 528, "y": 288, "width": 16, "height": 16, "visible": true, "properties": [{"name": "kind", "type": "int", "value": 70}, {"name": "a", "type": "int", "value": 0}, {"name": "b", "type": "int", "value": 0}]}, {"id": 221, "name": "", "x": 720, "y": 192, "width": 16, "height": 16, "visible": true, "properties": [{"name": "kind", "type": "int", "value": 70}, {"name": "a", "type": "int", "value": 0}, {"name": "b", "type": "int", "value": 0}]}, {"id": 222, "name": "", "x": 864, "y": 256, "width": 16, "height": 16, "visible": true, "properties": [{"name": "kind", "type": "int", "value": 71}, {"name": "a", "type": "int", "value": 0}, {"name": "b", "type": "int", "value": 0}]}, {"id": 223, "name": "", "x": 880, "y": 160, "width": 16, "height": 16, "visible": true, "properties": [{"name": "kind", "type": "int", "value": 70}, {"name": "a", "type": "int", "value": 0}, {"name": "b", "type": "int", "value": 0}]}, {"id": 224, "name": "", "x": 864, "y": 240, "width": 16, "height": 16, "visible": true, "properties": [{"name": "kind", "type": "int", "value": 71}, {"name": "a", "type": "int", "value": 0}, {"name": "b", "type": "int", "value": 0}]}, {"id": 225, "name": "", "x": 1088, "y": 208, "width": 16, "height": 16, "visible": true, "properties": [{"name": "kind", "type": "int", "value": 71}, {"name": "a", "type": "int", "value": 0}, {"name": "b", "type": "int", "value": 0}]}, {"id": 226, "name": "", "x": 1040, "y": 272, "width": 16, "height": 16, "visible": true, "properties": [{"name": "kind", "type": "int", "value": 71}, {"name": "a", "type": "int", "value": 0}, {"name": "b", "type": "int", "value": 0}]}, {"id": 227, "name": "", "x": 1088, "y": 288, "width": 16, "height": 16, "visible": true, "properties": [{"name": "kind", "type": "int", "value": 71}, {"name": "a", "type": "int", "value": 0}, {"name": "b", "type": "int", "value": 0}]}, {"id": 228, "name": "", "x": 992, "y": 208, "width": 16, "height": 16, "visible": true, "properties": [{"name": "kind", "type": "int", "value": 71}, {"name": "a", "type": "int", "value": 0}, {"name": "b", "type": "int", "value": 0}]}, {"id": 229, "name": "", "x": 1376, "y": 208, "width": 16, "height": 16, "visible": true, "properties": [{"name": "kind", "type": "int", "value": 72}, {"name": "a", "type": "int", "value": 0}, {"name": "b", "type": "int", "value": 0}]}, {"id": 230, "name": "", "x": 1344, "y": 272, "width": 16, "height": 16, "visible": true, "properties": [{"name": "kind", "type": "int", "value": 72}, {"name": "a", "type": "int", "value": 0}, {"name": "b", "type": "int", "value": 0}]}, {"id": 231, "name": "", "x": 1392, "y": 288, "width": 16, "height": 16, "visible": true, "properties": [{"name": "kind", "type": "int", "value": 71}, {"name": "a", "type": "int", "value": 0}, {"name": "b", "type": "int", "value": 0}]}, {"id": 232, "name": "", "x": 1408, "y": 192, "width": 16, "height": 16, "visible": true, "properties": [{"name": "kind", "type": "int", "value": 70}, {"name": "a", "type": "int", "value": 0}, {"name": "b", "type": "int", "value": 0}]}, {"id": 233, "name": "", "x": 1408, "y": 272, "width": 16, "height": 16, "visible": true, "properties": [{"name": "kind", "type": "int", "value": 71}, {"name": "a", "type": "int", "value": 0}, {"name": "b", "type": "int", "value": 0}]}, {"id": 234, "name": "", "x": 1360, "y": 240, "width": 16, "height": 16, "visible": true, "properties": [{"name": "kind", "type": "int", "value": 70}, {"name": "a", "type": "int", "value": 0}, {"name": "b", "type": "int", "value": 0}]}, {"id": 235, "name": "", "x": 1584, "y": 288, "width": 16, "height": 16, "visible": true, "properties": [{"name": "kind", "type": "int", "value": 76}, {"name": "a", "type": "int", "value": 0}, {"name": "b", "type": "int", "value": 0}]}, {"id": 236, "name": "", "x": 1872, "y": 272, "width": 16, "height": 16, "visible": true, "properties": [{"name": "kind", "type": "int", "value": 76}, {"name": "a", "type": "int", "value": 0}, {"name": "b", "type": "int", "value": 0}]}, {"id": 237, "name": "", "x": 2080, "y": 256, "width": 16, "height": 16, "visible": true, "properties": [{"name": "kind", "type": "int", "value": 76}, {"name": "a", "type": "int", "value": 0}, {"name": "b", "type": "int", "value": 0}]}, {"id": 238, "name": "", "x": 2288, "y": 256, "width": 16, "height": 16, "visible": true, "properties": [{"name": "kind", "type": "int", "value": 76}, {"name": "a", "type": "int", "value": 0}, {"name": "b", "type": "int", "value": 0}]}, {"id": 239, "name": "", "x": 2592, "y": 240, "width": 16, "height": 16, "visible": true, "properties": [{"name": "kind", "type": "int", "value": 39}, {"name": "a", "type": "int", "value": 0}, {"name": "b", "type": "int", "value": 0}]}, {"id": 240, "name": "", "x": 2432, "y": 240, "width": 16, "height": 16, "visible": true, "properties": [{"name": "kind", "type": "int", "value": 39}, {"name": "a", "type": "int", "value": 0}, {"name": "b", "type": "int", "value": 0}]}, {"id": 241, "name": "", "x": 2608, "y": 192, "width": 16, "height": 16, "visible": true, "properties": [{"name": "kind", "type": "int", "value": 39}, {"name": "a", "type": "int", "value": 0}, {"name": "b", "type": "int", "value": 0}]}, {"id": 242, "name": "", "x": 2608, "y": 240, "width": 16, "height": 16, "visible": true, "properties": [{"name": "kind", "type": "int", "value": 39}, {"name": "a", "type": "int", "value": 0}, {"name": "b", "type": "int", "value": 0}]}, {"id": 243, "name": "", "x": 2592, "y": 272, "width": 16, "height": 16, "visible": true, "properties": [{"name": "kind", "type": "int", "value": 39}, {"name": "a", "type": "int", "value": 0}, {"name": "b", "type": "int", "value": 0}]}, {"id": 244, "name": "", "x": 2544, "y": 288, "width": 16, "height": 16, "visible": true, "properties": [{"name": "kind", "type": "int", "value": 39}, {"name": "a", "type": "int", "value": 0}, {"name": "b", "type": "int", "value": 0}]}, {"id": 245, "name": "", "x": 3136, "y": 192, "width": 16, "height": 16, "visible": true, "properties": [{"name": "kind", "type": "int", "value": 72}, {"name": "a", "type": "int", "value": 0}, {"name": "b", "type": "int", "value": 0}]}, {"id": 246, "name": "", "x": 3120, "y": 224, "width": 16, "height": 16, "visible": true, "properties": [{"name": "kind", "type": "int", "value": 72}, {"name": "a", "type": "int", "value": 0}, {"name": "b", "type": "int", "value": 0}]}, {"id": 247, "name": "", "x": 3232, "y": 288, "width": 16, "height": 16, "visible": true, "properties": [{"name": "kind", "type": "int", "value": 72}, {"name": "a", "type": "int", "value": 0}, {"name": "b", "type": "int", "value": 0}]}, {"id": 248, "name": "", "x": 3328, "y": 224, "width": 16, "height": 16, "visible": true, "properties": [{"name": "kind", "type": "int", "value": 72}, {"name": "a", "type": "int", "value": 0}, {"name": "b", "type": "int", "value": 0}]}, {"id": 249, "name": "", "x": 3296, "y": 240, "width": 16, "height": 16, "visible": true, "properties": [{"name": "kind", "type": "int", "value": 72}, {"name": "a", "type": "int", "value": 0}, {"name": "b", "type": "int", "value": 0}]}, {"id": 250, "name": "", "x": 3152, "y": 256, "width": 16, "height": 16, "visible": true, "properties": [{"name": "kind", "type": "int", "value": 72}, {"name": "a", "type": "int", "value": 0}, {"name": "b", "type": "int", "value": 0}]}, {"id": 251, "name": "", "x": 3520, "y": 208, "width": 16, "height": 16, "visible": true, "properties": [{"name": "kind", "type": "int", "value": 39}, {"name": "a", "type": "int", "value": 0}, {"name": "b", "type": "int", "value": 0}]}, {"id": 252, "name": "", "x": 3376, "y": 224, "width": 16, "height": 16, "visible": true, "properties": [{"name": "kind", "type": "int", "value": 39}, {"name": "a", "type": "int", "value": 0}, {"name": "b", "type": "int", "value": 0}]}, {"id": 253, "name": "", "x": 3360, "y": 240, "width": 16, "height": 16, "visible": true, "properties": [{"name": "kind", "type": "int", "value": 39}, {"name": "a", "type": "int", "value": 0}, {"name": "b", "type": "int", "value": 0}]}, {"id": 254, "name": "", "x": 3504, "y": 224, "width": 16, "height": 16, "visible": true, "properties": [{"name": "kind", "type": "int", "value": 39}, {"name": "a", "type": "int", "value": 0}, {"name": "b", "type": "int", "value": 0}]}, {"id": 255, "name": "", "x": 3408, "y": 224, "width": 16, "height": 16, "visible": true, "properties": [{"name": "kind", "type": "int", "value": 39}, {"name": "a", "type": "int", "value": 0}, {"name": "b", "type": "int", "value": 0}]}, {"id": 256, "name": "", "x": 3392, "y": 224, "width": 16, "height": 16, "visible": true, "properties": [{"name": "kind", "type": "int", "value": 39}, {"name": "a", "type": "int", "value": 0}, {"name": "b", "type": "int", "value": 0}]}, {"id": 257, "name": "", "x": 3808, "y": 240, "width": 16, "height": 16, "visible": true, "properties": [{"name": "kind", "type": "int", "value": 72}, {"name": "a", "type": "int", "value": 0}, {"name": "b", "type": "int", "value": 0}]}, {"id": 258, "name": "", "x": 3808, "y": 208, "width": 16, "height": 16, "visible": true, "properties": [{"name": "kind", "type": "int", "value": 72}, {"name": "a", "type": "int", "value": 0}, {"name": "b", "type": "int", "value": 0}]}, {"id": 259, "name": "", "x": 3696, "y": 256, "width": 16, "height": 16, "visible": true, "properties": [{"name": "kind", "type": "int", "value": 72}, {"name": "a", "type": "int", "value": 0}, {"name": "b", "type": "int", "value": 0}]}, {"id": 260, "name": "", "x": 3712, "y": 192, "width": 16, "height": 16, "visible": true, "properties": [{"name": "kind", "type": "int", "value": 72}, {"name": "a", "type": "int", "value": 0}, {"name": "b", "type": "int", "value": 0}]}, {"id": 261, "name": "", "x": 3728, "y": 208, "width": 16, "height": 16, "visible": true, "properties": [{"name": "kind", "type": "int", "value": 72}, {"name": "a", "type": "int", "value": 0}, {"name": "b", "type": "int", "value": 0}]}, {"id": 262, "name": "", "x": 3664, "y": 208, "width": 16, "height": 16, "visible": true, "properties": [{"name": "kind", "type": "int", "value": 72}, {"name": "a", "type": "int", "value": 0}, {"name": "b", "type": "int", "value": 0}]}, {"id": 263, "name": "", "x": 112, "y": 416, "width": 16, "height": 16, "visible": true, "properties": [{"name": "kind", "type": "int", "value": 73}, {"name": "a", "type": "int", "value": 0}, {"name": "b", "type": "int", "value": 0}]}, {"id": 264, "name": "", "x": 432, "y": 464, "width": 16, "height": 16, "visible": true, "properties": [{"name": "kind", "type": "int", "value": 73}, {"name": "a", "type": "int", "value": 0}, {"name": "b", "type": "int", "value": 0}]}, {"id": 265, "name": "", "x": 560, "y": 352, "width": 16, "height": 16, "visible": true, "properties": [{"name": "kind", "type": "int", "value": 71}, {"name": "a", "type": "int", "value": 0}, {"name": "b", "type": "int", "value": 0}]}, {"id": 266, "name": "", "x": 752, "y": 400, "width": 16, "height": 16, "visible": true, "properties": [{"name": "kind", "type": "int", "value": 71}, {"name": "a", "type": "int", "value": 0}, {"name": "b", "type": "int", "value": 0}]}, {"id": 267, "name": "", "x": 832, "y": 368, "width": 16, "height": 16, "visible": true, "properties": [{"name": "kind", "type": "int", "value": 71}, {"name": "a", "type": "int", "value": 0}, {"name": "b", "type": "int", "value": 0}]}, {"id": 268, "name": "", "x": 912, "y": 400, "width": 16, "height": 16, "visible": true, "properties": [{"name": "kind", "type": "int", "value": 71}, {"name": "a", "type": "int", "value": 0}, {"name": "b", "type": "int", "value": 0}]}, {"id": 269, "name": "", "x": 912, "y": 432, "width": 16, "height": 16, "visible": true, "properties": [{"name": "kind", "type": "int", "value": 71}, {"name": "a", "type": "int", "value": 0}, {"name": "b", "type": "int", "value": 0}]}, {"id": 270, "name": "", "x": 1408, "y": 400, "width": 16, "height": 16, "visible": true, "properties": [{"name": "kind", "type": "int", "value": 72}, {"name": "a", "type": "int", "value": 0}, {"name": "b", "type": "int", "value": 0}]}, {"id": 271, "name": "", "x": 1408, "y": 432, "width": 16, "height": 16, "visible": true, "properties": [{"name": "kind", "type": "int", "value": 72}, {"name": "a", "type": "int", "value": 0}, {"name": "b", "type": "int", "value": 0}]}, {"id": 272, "name": "", "x": 1248, "y": 416, "width": 16, "height": 16, "visible": true, "properties": [{"name": "kind", "type": "int", "value": 72}, {"name": "a", "type": "int", "value": 0}, {"name": "b", "type": "int", "value": 0}]}, {"id": 273, "name": "", "x": 1328, "y": 352, "width": 16, "height": 16, "visible": true, "properties": [{"name": "kind", "type": "int", "value": 72}, {"name": "a", "type": "int", "value": 0}, {"name": "b", "type": "int", "value": 0}]}, {"id": 274, "name": "", "x": 1536, "y": 384, "width": 16, "height": 16, "visible": true, "properties": [{"name": "kind", "type": "int", "value": 72}, {"name": "a", "type": "int", "value": 0}, {"name": "b", "type": "int", "value": 0}]}, {"id": 275, "name": "", "x": 1664, "y": 400, "width": 16, "height": 16, "visible": true, "properties": [{"name": "kind", "type": "int", "value": 72}, {"name": "a", "type": "int", "value": 0}, {"name": "b", "type": "int", "value": 0}]}, {"id": 276, "name": "", "x": 1488, "y": 464, "width": 16, "height": 16, "visible": true, "properties": [{"name": "kind", "type": "int", "value": 72}, {"name": "a", "type": "int", "value": 0}, {"name": "b", "type": "int", "value": 0}]}, {"id": 277, "name": "", "x": 1584, "y": 384, "width": 16, "height": 16, "visible": true, "properties": [{"name": "kind", "type": "int", "value": 72}, {"name": "a", "type": "int", "value": 0}, {"name": "b", "type": "int", "value": 0}]}, {"id": 278, "name": "", "x": 1456, "y": 400, "width": 16, "height": 16, "visible": true, "properties": [{"name": "kind", "type": "int", "value": 72}, {"name": "a", "type": "int", "value": 0}, {"name": "b", "type": "int", "value": 0}]}, {"id": 279, "name": "", "x": 1648, "y": 400, "width": 16, "height": 16, "visible": true, "properties": [{"name": "kind", "type": "int", "value": 72}, {"name": "a", "type": "int", "value": 0}, {"name": "b", "type": "int", "value": 0}]}, {"id": 280, "name": "", "x": 1824, "y": 384, "width": 16, "height": 16, "visible": true, "properties": [{"name": "kind", "type": "int", "value": 72}, {"name": "a", "type": "int", "value": 0}, {"name": "b", "type": "int", "value": 0}]}, {"id": 281, "name": "", "x": 1680, "y": 384, "width": 16, "height": 16, "visible": true, "properties": [{"name": "kind", "type": "int", "value": 72}, {"name": "a", "type": "int", "value": 0}, {"name": "b", "type": "int", "value": 0}]}, {"id": 282, "name": "", "x": 1744, "y": 400, "width": 16, "height": 16, "visible": true, "properties": [{"name": "kind", "type": "int", "value": 72}, {"name": "a", "type": "int", "value": 0}, {"name": "b", "type": "int", "value": 0}]}, {"id": 283, "name": "", "x": 1792, "y": 384, "width": 16, "height": 16, "visible": true, "properties": [{"name": "kind", "type": "int", "value": 72}, {"name": "a", "type": "int", "value": 0}, {"name": "b", "type": "int", "value": 0}]}, {"id": 284, "name": "", "x": 1856, "y": 384, "width": 16, "height": 16, "visible": true, "properties": [{"name": "kind", "type": "int", "value": 72}, {"name": "a", "type": "int", "value": 0}, {"name": "b", "type": "int", "value": 0}]}, {"id": 285, "name": "", "x": 1712, "y": 384, "width": 16, "height": 16, "visible": true, "properties": [{"name": "kind", "type": "int", "value": 72}, {"name": "a", "type": "int", "value": 0}, {"name": "b", "type": "int", "value": 0}]}, {"id": 286, "name": "", "x": 2064, "y": 400, "width": 16, "height": 16, "visible": true, "properties": [{"name": "kind", "type": "int", "value": 72}, {"name": "a", "type": "int", "value": 0}, {"name": "b", "type": "int", "value": 0}]}, {"id": 287, "name": "", "x": 2128, "y": 400, "width": 16, "height": 16, "visible": true, "properties": [{"name": "kind", "type": "int", "value": 72}, {"name": "a", "type": "int", "value": 0}, {"name": "b", "type": "int", "value": 0}]}, {"id": 288, "name": "", "x": 2112, "y": 368, "width": 16, "height": 16, "visible": true, "properties": [{"name": "kind", "type": "int", "value": 72}, {"name": "a", "type": "int", "value": 0}, {"name": "b", "type": "int", "value": 0}]}, {"id": 289, "name": "", "x": 2080, "y": 368, "width": 16, "height": 16, "visible": true, "properties": [{"name": "kind", "type": "int", "value": 72}, {"name": "a", "type": "int", "value": 0}, {"name": "b", "type": "int", "value": 0}]}, {"id": 290, "name": "", "x": 2016, "y": 400, "width": 16, "height": 16, "visible": true, "properties": [{"name": "kind", "type": "int", "value": 72}, {"name": "a", "type": "int", "value": 0}, {"name": "b", "type": "int", "value": 0}]}, {"id": 291, "name": "", "x": 1968, "y": 400, "width": 16, "height": 16, "visible": true, "properties": [{"name": "kind", "type": "int", "value": 72}, {"name": "a", "type": "int", "value": 0}, {"name": "b", "type": "int", "value": 0}]}, {"id": 292, "name": "", "x": 2256, "y": 432, "width": 16, "height": 16, "visible": true, "properties": [{"name": "kind", "type": "int", "value": 35}, {"name": "a", "type": "int", "value": 0}, {"name": "b", "type": "int", "value": 0}]}, {"id": 293, "name": "", "x": 2272, "y": 384, "width": 16, "height": 16, "visible": true, "properties": [{"name": "kind", "type": "int", "value": 35}, {"name": "a", "type": "int", "value": 0}, {"name": "b", "type": "int", "value": 0}]}, {"id": 294, "name": "", "x": 2288, "y": 400, "width": 16, "height": 16, "visible": true, "properties": [{"name": "kind", "type": "int", "value": 35}, {"name": "a", "type": "int", "value": 0}, {"name": "b", "type": "int", "value": 0}]}, {"id": 295, "name": "", "x": 2224, "y": 352, "width": 16, "height": 16, "visible": true, "properties": [{"name": "kind", "type": "int", "value": 35}, {"name": "a", "type": "int", "value": 0}, {"name": "b", "type": "int", "value": 0}]}, {"id": 296, "name": "", "x": 2432, "y": 384, "width": 16, "height": 16, "visible": true, "properties": [{"name": "kind", "type": "int", "value": 35}, {"name": "a", "type": "int", "value": 0}, {"name": "b", "type": "int", "value": 0}]}, {"id": 297, "name": "", "x": 2480, "y": 352, "width": 16, "height": 16, "visible": true, "properties": [{"name": "kind", "type": "int", "value": 35}, {"name": "a", "type": "int", "value": 0}, {"name": "b", "type": "int", "value": 0}]}, {"id": 298, "name": "", "x": 2416, "y": 352, "width": 16, "height": 16, "visible": true, "properties": [{"name": "kind", "type": "int", "value": 35}, {"name": "a", "type": "int", "value": 0}, {"name": "b", "type": "int", "value": 0}]}, {"id": 299, "name": "", "x": 2448, "y": 384, "width": 16, "height": 16, "visible": true, "properties": [{"name": "kind", "type": "int", "value": 35}, {"name": "a", "type": "int", "value": 0}, {"name": "b", "type": "int", "value": 0}]}, {"id": 300, "name": "", "x": 2464, "y": 352, "width": 16, "height": 16, "visible": true, "properties": [{"name": "kind", "type": "int", "value": 35}, {"name": "a", "type": "int", "value": 0}, {"name": "b", "type": "int", "value": 0}]}, {"id": 301, "name": "", "x": 2592, "y": 416, "width": 16, "height": 16, "visible": true, "properties": [{"name": "kind", "type": "int", "value": 35}, {"name": "a", "type": "int", "value": 0}, {"name": "b", "type": "int", "value": 0}]}, {"id": 302, "name": "", "x": 2768, "y": 368, "width": 16, "height": 16, "visible": true, "properties": [{"name": "kind", "type": "int", "value": 35}, {"name": "a", "type": "int", "value": 0}, {"name": "b", "type": "int", "value": 0}]}, {"id": 303, "name": "", "x": 2768, "y": 464, "width": 16, "height": 16, "visible": true, "properties": [{"name": "kind", "type": "int", "value": 72}, {"name": "a", "type": "int", "value": 0}, {"name": "b", "type": "int", "value": 0}]}, {"id": 304, "name": "", "x": 2640, "y": 400, "width": 16, "height": 16, "visible": true, "properties": [{"name": "kind", "type": "int", "value": 35}, {"name": "a", "type": "int", "value": 0}, {"name": "b", "type": "int", "value": 0}]}, {"id": 305, "name": "", "x": 2816, "y": 448, "width": 16, "height": 16, "visible": true, "properties": [{"name": "kind", "type": "int", "value": 72}, {"name": "a", "type": "int", "value": 0}, {"name": "b", "type": "int", "value": 0}]}, {"id": 306, "name": "", "x": 2864, "y": 400, "width": 16, "height": 16, "visible": true, "properties": [{"name": "kind", "type": "int", "value": 35}, {"name": "a", "type": "int", "value": 0}, {"name": "b", "type": "int", "value": 0}]}, {"id": 307, "name": "", "x": 2704, "y": 400, "width": 16, "height": 16, "visible": true, "properties": [{"name": "kind", "type": "int", "value": 72}, {"name": "a", "type": "int", "value": 0}, {"name": "b", "type": "int", "value": 0}]}, {"id": 308, "name": "", "x": 2912, "y": 384, "width": 16, "height": 16, "visible": true, "properties": [{"name": "kind", "type": "int", "value": 39}, {"name": "a", "type": "int", "value": 0}, {"name": "b", "type": "int", "value": 0}]}, {"id": 309, "name": "", "x": 2928, "y": 352, "width": 16, "height": 16, "visible": true, "properties": [{"name": "kind", "type": "int", "value": 39}, {"name": "a", "type": "int", "value": 0}, {"name": "b", "type": "int", "value": 0}]}, {"id": 310, "name": "", "x": 2880, "y": 432, "width": 16, "height": 16, "visible": true, "properties": [{"name": "kind", "type": "int", "value": 39}, {"name": "a", "type": "int", "value": 0}, {"name": "b", "type": "int", "value": 0}]}, {"id": 311, "name": "", "x": 3040, "y": 432, "width": 16, "height": 16, "visible": true, "properties": [{"name": "kind", "type": "int", "value": 39}, {"name": "a", "type": "int", "value": 0}, {"name": "b", "type": "int", "value": 0}]}, {"id": 312, "name": "", "x": 3280, "y": 400, "width": 16, "height": 16, "visible": true, "properties": [{"name": "kind", "type": "int", "value": 33}, {"name": "a", "type": "int", "value": 0}, {"name": "b", "type": "int", "value": 0}]}, {"id": 313, "name": "", "x": 3152, "y": 352, "width": 16, "height": 16, "visible": true, "properties": [{"name": "kind", "type": "int", "value": 33}, {"name": "a", "type": "int", "value": 0}, {"name": "b", "type": "int", "value": 0}]}, {"id": 314, "name": "", "x": 3264, "y": 400, "width": 16, "height": 16, "visible": true, "properties": [{"name": "kind", "type": "int", "value": 33}, {"name": "a", "type": "int", "value": 0}, {"name": "b", "type": "int", "value": 0}]}, {"id": 315, "name": "", "x": 3216, "y": 384, "width": 16, "height": 16, "visible": true, "properties": [{"name": "kind", "type": "int", "value": 33}, {"name": "a", "type": "int", "value": 0}, {"name": "b", "type": "int", "value": 0}]}, {"id": 316, "name": "", "x": 3120, "y": 400, "width": 16, "height": 16, "visible": true, "properties": [{"name": "kind", "type": "int", "value": 33}, {"name": "a", "type": "int", "value": 0}, {"name": "b", "type": "int", "value": 0}]}, {"id": 317, "name": "", "x": 3488, "y": 432, "width": 16, "height": 16, "visible": true, "properties": [{"name": "kind", "type": "int", "value": 33}, {"name": "a", "type": "int", "value": 0}, {"name": "b", "type": "int", "value": 0}]}, {"id": 318, "name": "", "x": 3488, "y": 448, "width": 16, "height": 16, "visible": true, "properties": [{"name": "kind", "type": "int", "value": 33}, {"name": "a", "type": "int", "value": 0}, {"name": "b", "type": "int", "value": 0}]}, {"id": 319, "name": "", "x": 3360, "y": 432, "width": 16, "height": 16, "visible": true, "properties": [{"name": "kind", "type": "int", "value": 33}, {"name": "a", "type": "int", "value": 0}, {"name": "b", "type": "int", "value": 0}]}, {"id": 320, "name": "", "x": 3392, "y": 464, "width": 16, "height": 16, "visible": true, "properties": [{"name": "kind", "type": "int", "value": 33}, {"name": "a", "type": "int", "value": 0}, {"name": "b", "type": "int", "value": 0}]}, {"id": 321, "name": "", "x": 208, "y": 528, "width": 16, "height": 16, "visible": true, "properties": [{"name": "kind", "type": "int", "value": 73}, {"name": "a", "type": "int", "value": 0}, {"name": "b", "type": "int", "value": 0}]}, {"id": 322, "name": "", "x": 368, "y": 576, "width": 16, "height": 16, "visible": true, "properties": [{"name": "kind", "type": "int", "value": 73}, {"name": "a", "type": "int", "value": 0}, {"name": "b", "type": "int", "value": 0}]}, {"id": 323, "name": "", "x": 640, "y": 592, "width": 16, "height": 16, "visible": true, "properties": [{"name": "kind", "type": "int", "value": 72}, {"name": "a", "type": "int", "value": 0}, {"name": "b", "type": "int", "value": 0}]}, {"id": 324, "name": "", "x": 608, "y": 576, "width": 16, "height": 16, "visible": true, "properties": [{"name": "kind", "type": "int", "value": 72}, {"name": "a", "type": "int", "value": 0}, {"name": "b", "type": "int", "value": 0}]}, {"id": 325, "name": "", "x": 640, "y": 528, "width": 16, "height": 16, "visible": true, "properties": [{"name": "kind", "type": "int", "value": 71}, {"name": "a", "type": "int", "value": 0}, {"name": "b", "type": "int", "value": 0}]}, {"id": 326, "name": "", "x": 496, "y": 576, "width": 16, "height": 16, "visible": true, "properties": [{"name": "kind", "type": "int", "value": 70}, {"name": "a", "type": "int", "value": 0}, {"name": "b", "type": "int", "value": 0}]}, {"id": 327, "name": "", "x": 544, "y": 576, "width": 16, "height": 16, "visible": true, "properties": [{"name": "kind", "type": "int", "value": 71}, {"name": "a", "type": "int", "value": 0}, {"name": "b", "type": "int", "value": 0}]}, {"id": 328, "name": "", "x": 512, "y": 576, "width": 16, "height": 16, "visible": true, "properties": [{"name": "kind", "type": "int", "value": 70}, {"name": "a", "type": "int", "value": 0}, {"name": "b", "type": "int", "value": 0}]}, {"id": 329, "name": "", "x": 1152, "y": 544, "width": 16, "height": 16, "visible": true, "properties": [{"name": "kind", "type": "int", "value": 35}, {"name": "a", "type": "int", "value": 0}, {"name": "b", "type": "int", "value": 0}]}, {"id": 330, "name": "", "x": 992, "y": 560, "width": 16, "height": 16, "visible": true, "properties": [{"name": "kind", "type": "int", "value": 35}, {"name": "a", "type": "int", "value": 0}, {"name": "b", "type": "int", "value": 0}]}, {"id": 331, "name": "", "x": 1056, "y": 560, "width": 16, "height": 16, "visible": true, "properties": [{"name": "kind", "type": "int", "value": 35}, {"name": "a", "type": "int", "value": 0}, {"name": "b", "type": "int", "value": 0}]}, {"id": 332, "name": "", "x": 1056, "y": 512, "width": 16, "height": 16, "visible": true, "properties": [{"name": "kind", "type": "int", "value": 35}, {"name": "a", "type": "int", "value": 0}, {"name": "b", "type": "int", "value": 0}]}, {"id": 333, "name": "", "x": 1856, "y": 608, "width": 16, "height": 16, "visible": true, "properties": [{"name": "kind", "type": "int", "value": 33}, {"name": "a", "type": "int", "value": 0}, {"name": "b", "type": "int", "value": 0}]}, {"id": 334, "name": "", "x": 2144, "y": 544, "width": 16, "height": 16, "visible": true, "properties": [{"name": "kind", "type": "int", "value": 33}, {"name": "a", "type": "int", "value": 0}, {"name": "b", "type": "int", "value": 0}]}, {"id": 335, "name": "", "x": 2112, "y": 528, "width": 16, "height": 16, "visible": true, "properties": [{"name": "kind", "type": "int", "value": 33}, {"name": "a", "type": "int", "value": 0}, {"name": "b", "type": "int", "value": 0}]}, {"id": 336, "name": "", "x": 2032, "y": 544, "width": 16, "height": 16, "visible": true, "properties": [{"name": "kind", "type": "int", "value": 33}, {"name": "a", "type": "int", "value": 0}, {"name": "b", "type": "int", "value": 0}]}, {"id": 337, "name": "", "x": 2048, "y": 624, "width": 16, "height": 16, "visible": true, "properties": [{"name": "kind", "type": "int", "value": 33}, {"name": "a", "type": "int", "value": 0}, {"name": "b", "type": "int", "value": 0}]}, {"id": 338, "name": "", "x": 1952, "y": 560, "width": 16, "height": 16, "visible": true, "properties": [{"name": "kind", "type": "int", "value": 33}, {"name": "a", "type": "int", "value": 0}, {"name": "b", "type": "int", "value": 0}]}, {"id": 339, "name": "", "x": 2064, "y": 576, "width": 16, "height": 16, "visible": true, "properties": [{"name": "kind", "type": "int", "value": 33}, {"name": "a", "type": "int", "value": 0}, {"name": "b", "type": "int", "value": 0}]}, {"id": 340, "name": "", "x": 2592, "y": 592, "width": 16, "height": 16, "visible": true, "properties": [{"name": "kind", "type": "int", "value": 35}, {"name": "a", "type": "int", "value": 0}, {"name": "b", "type": "int", "value": 0}]}, {"id": 341, "name": "", "x": 2624, "y": 528, "width": 16, "height": 16, "visible": true, "properties": [{"name": "kind", "type": "int", "value": 72}, {"name": "a", "type": "int", "value": 0}, {"name": "b", "type": "int", "value": 0}]}, {"id": 342, "name": "", "x": 2624, "y": 480, "width": 16, "height": 16, "visible": true, "properties": [{"name": "kind", "type": "int", "value": 35}, {"name": "a", "type": "int", "value": 0}, {"name": "b", "type": "int", "value": 0}]}, {"id": 343, "name": "", "x": 2512, "y": 592, "width": 16, "height": 16, "visible": true, "properties": [{"name": "kind", "type": "int", "value": 72}, {"name": "a", "type": "int", "value": 0}, {"name": "b", "type": "int", "value": 0}]}, {"id": 344, "name": "", "x": 2608, "y": 480, "width": 16, "height": 16, "visible": true, "properties": [{"name": "kind", "type": "int", "value": 35}, {"name": "a", "type": "int", "value": 0}, {"name": "b", "type": "int", "value": 0}]}, {"id": 345, "name": "", "x": 2576, "y": 544, "width": 16, "height": 16, "visible": true, "properties": [{"name": "kind", "type": "int", "value": 72}, {"name": "a", "type": "int", "value": 0}, {"name": "b", "type": "int", "value": 0}]}, {"id": 346, "name": "", "x": 2704, "y": 544, "width": 16, "height": 16, "visible": true, "properties": [{"name": "kind", "type": "int", "value": 35}, {"name": "a", "type": "int", "value": 0}, {"name": "b", "type": "int", "value": 0}]}, {"id": 347, "name": "", "x": 2816, "y": 576, "width": 16, "height": 16, "visible": true, "properties": [{"name": "kind", "type": "int", "value": 35}, {"name": "a", "type": "int", "value": 0}, {"name": "b", "type": "int", "value": 0}]}, {"id": 348, "name": "", "x": 2800, "y": 592, "width": 16, "height": 16, "visible": true, "properties": [{"name": "kind", "type": "int", "value": 35}, {"name": "a", "type": "int", "value": 0}, {"name": "b", "type": "int", "value": 0}]}, {"id": 349, "name": "", "x": 2848, "y": 512, "width": 16, "height": 16, "visible": true, "properties": [{"name": "kind", "type": "int", "value": 35}, {"name": "a", "type": "int", "value": 0}, {"name": "b", "type": "int", "value": 0}]}, {"id": 350, "name": "", "x": 2912, "y": 528, "width": 16, "height": 16, "visible": true, "properties": [{"name": "kind", "type": "int", "value": 33}, {"name": "a", "type": "int", "value": 0}, {"name": "b", "type": "int", "value": 0}]}, {"id": 351, "name": "", "x": 3312, "y": 592, "width": 16, "height": 16, "visible": true, "properties": [{"name": "kind", "type": "int", "value": 34}, {"name": "a", "type": "int", "value": 0}, {"name": "b", "type": "int", "value": 0}]}, {"id": 352, "name": "", "x": 3184, "y": 512, "width": 16, "height": 16, "visible": true, "properties": [{"name": "kind", "type": "int", "value": 34}, {"name": "a", "type": "int", "value": 0}, {"name": "b", "type": "int", "value": 0}]}, {"id": 353, "name": "", "x": 3136, "y": 624, "width": 16, "height": 16, "visible": true, "properties": [{"name": "kind", "type": "int", "value": 34}, {"name": "a", "type": "int", "value": 0}, {"name": "b", "type": "int", "value": 0}]}, {"id": 354, "name": "", "x": 3344, "y": 608, "width": 16, "height": 16, "visible": true, "properties": [{"name": "kind", "type": "int", "value": 34}, {"name": "a", "type": "int", "value": 0}, {"name": "b", "type": "int", "value": 0}]}, {"id": 355, "name": "", "x": 3440, "y": 608, "width": 16, "height": 16, "visible": true, "properties": [{"name": "kind", "type": "int", "value": 33}, {"name": "a", "type": "int", "value": 0}, {"name": "b", "type": "int", "value": 0}]}, {"id": 356, "name": "", "x": 3472, "y": 528, "width": 16, "height": 16, "visible": true, "properties": [{"name": "kind", "type": "int", "value": 33}, {"name": "a", "type": "int", "value": 0}, {"name": "b", "type": "int", "value": 0}]}, {"id": 357, "name": "", "x": 3440, "y": 544, "width": 16, "height": 16, "visible": true, "properties": [{"name": "kind", "type": "int", "value": 33}, {"name": "a", "type": "int", "value": 0}, {"name": "b", "type": "int", "value": 0}]}, {"id": 358, "name": "", "x": 3392, "y": 560, "width": 16, "height": 16, "visible": true, "properties": [{"name": "kind", "type": "int", "value": 33}, {"name": "a", "type": "int", "value": 0}, {"name": "b", "type": "int", "value": 0}]}, {"id": 359, "name": "", "x": 3392, "y": 528, "width": 16, "height": 16, "visible": true, "properties": [{"name": "kind", "type": "int", "value": 33}, {"name": "a", "type": "int", "value": 0}, {"name": "b", "type": "int", "value": 0}]}, {"id": 360, "name": "", "x": 3728, "y": 624, "width": 16, "height": 16, "visible": true, "properties": [{"name": "kind", "type": "int", "value": 33}, {"name": "a", "type": "int", "value": 0}, {"name": "b", "type": "int", "value": 0}]}, {"id": 361, "name": "", "x": 176, "y": 672, "width": 16, "height": 16, "visible": true, "properties": [{"name": "kind", "type": "int", "value": 73}, {"name": "a", "type": "int", "value": 0}, {"name": "b", "type": "int", "value": 0}]}, {"id": 362, "name": "", "x": 416, "y": 736, "width": 16, "height": 16, "visible": true, "properties": [{"name": "kind", "type": "int", "value": 73}, {"name": "a", "type": "int", "value": 0}, {"name": "b", "type": "int", "value": 0}]}, {"id": 363, "name": "", "x": 528, "y": 672, "width": 16, "height": 16, "visible": true, "properties": [{"name": "kind", "type": "int", "value": 34}, {"name": "a", "type": "int", "value": 0}, {"name": "b", "type": "int", "value": 0}]}, {"id": 364, "name": "", "x": 1056, "y": 768, "width": 16, "height": 16, "visible": true, "properties": [{"name": "kind", "type": "int", "value": 33}, {"name": "a", "type": "int", "value": 0}, {"name": "b", "type": "int", "value": 0}]}, {"id": 365, "name": "", "x": 1024, "y": 768, "width": 16, "height": 16, "visible": true, "properties": [{"name": "kind", "type": "int", "value": 33}, {"name": "a", "type": "int", "value": 0}, {"name": "b", "type": "int", "value": 0}]}, {"id": 366, "name": "", "x": 1056, "y": 704, "width": 16, "height": 16, "visible": true, "properties": [{"name": "kind", "type": "int", "value": 33}, {"name": "a", "type": "int", "value": 0}, {"name": "b", "type": "int", "value": 0}]}, {"id": 367, "name": "", "x": 1088, "y": 736, "width": 16, "height": 16, "visible": true, "properties": [{"name": "kind", "type": "int", "value": 33}, {"name": "a", "type": "int", "value": 0}, {"name": "b", "type": "int", "value": 0}]}, {"id": 368, "name": "", "x": 1408, "y": 688, "width": 16, "height": 16, "visible": true, "properties": [{"name": "kind", "type": "int", "value": 72}, {"name": "a", "type": "int", "value": 0}, {"name": "b", "type": "int", "value": 0}]}, {"id": 369, "name": "", "x": 2112, "y": 736, "width": 16, "height": 16, "visible": true, "properties": [{"name": "kind", "type": "int", "value": 35}, {"name": "a", "type": "int", "value": 0}, {"name": "b", "type": "int", "value": 0}]}, {"id": 370, "name": "", "x": 2064, "y": 720, "width": 16, "height": 16, "visible": true, "properties": [{"name": "kind", "type": "int", "value": 35}, {"name": "a", "type": "int", "value": 0}, {"name": "b", "type": "int", "value": 0}]}, {"id": 371, "name": "", "x": 2032, "y": 704, "width": 16, "height": 16, "visible": true, "properties": [{"name": "kind", "type": "int", "value": 35}, {"name": "a", "type": "int", "value": 0}, {"name": "b", "type": "int", "value": 0}]}, {"id": 372, "name": "", "x": 2096, "y": 672, "width": 16, "height": 16, "visible": true, "properties": [{"name": "kind", "type": "int", "value": 35}, {"name": "a", "type": "int", "value": 0}, {"name": "b", "type": "int", "value": 0}]}, {"id": 373, "name": "", "x": 2224, "y": 768, "width": 16, "height": 16, "visible": true, "properties": [{"name": "kind", "type": "int", "value": 33}, {"name": "a", "type": "int", "value": 0}, {"name": "b", "type": "int", "value": 0}]}, {"id": 374, "name": "", "x": 2224, "y": 704, "width": 16, "height": 16, "visible": true, "properties": [{"name": "kind", "type": "int", "value": 33}, {"name": "a", "type": "int", "value": 0}, {"name": "b", "type": "int", "value": 0}]}, {"id": 375, "name": "", "x": 2272, "y": 640, "width": 16, "height": 16, "visible": true, "properties": [{"name": "kind", "type": "int", "value": 33}, {"name": "a", "type": "int", "value": 0}, {"name": "b", "type": "int", "value": 0}]}, {"id": 376, "name": "", "x": 2384, "y": 736, "width": 16, "height": 16, "visible": true, "properties": [{"name": "kind", "type": "int", "value": 33}, {"name": "a", "type": "int", "value": 0}, {"name": "b", "type": "int", "value": 0}]}, {"id": 377, "name": "", "x": 2368, "y": 736, "width": 16, "height": 16, "visible": true, "properties": [{"name": "kind", "type": "int", "value": 33}, {"name": "a", "type": "int", "value": 0}, {"name": "b", "type": "int", "value": 0}]}, {"id": 378, "name": "", "x": 2272, "y": 752, "width": 16, "height": 16, "visible": true, "properties": [{"name": "kind", "type": "int", "value": 33}, {"name": "a", "type": "int", "value": 0}, {"name": "b", "type": "int", "value": 0}]}, {"id": 379, "name": "", "x": 2448, "y": 704, "width": 16, "height": 16, "visible": true, "properties": [{"name": "kind", "type": "int", "value": 39}, {"name": "a", "type": "int", "value": 0}, {"name": "b", "type": "int", "value": 0}]}, {"id": 380, "name": "", "x": 2544, "y": 736, "width": 16, "height": 16, "visible": true, "properties": [{"name": "kind", "type": "int", "value": 39}, {"name": "a", "type": "int", "value": 0}, {"name": "b", "type": "int", "value": 0}]}, {"id": 381, "name": "", "x": 2512, "y": 736, "width": 16, "height": 16, "visible": true, "properties": [{"name": "kind", "type": "int", "value": 39}, {"name": "a", "type": "int", "value": 0}, {"name": "b", "type": "int", "value": 0}]}, {"id": 382, "name": "", "x": 2432, "y": 736, "width": 16, "height": 16, "visible": true, "properties": [{"name": "kind", "type": "int", "value": 39}, {"name": "a", "type": "int", "value": 0}, {"name": "b", "type": "int", "value": 0}]}, {"id": 383, "name": "", "x": 2592, "y": 688, "width": 16, "height": 16, "visible": true, "properties": [{"name": "kind", "type": "int", "value": 39}, {"name": "a", "type": "int", "value": 0}, {"name": "b", "type": "int", "value": 0}]}, {"id": 384, "name": "", "x": 2544, "y": 752, "width": 16, "height": 16, "visible": true, "properties": [{"name": "kind", "type": "int", "value": 39}, {"name": "a", "type": "int", "value": 0}, {"name": "b", "type": "int", "value": 0}]}, {"id": 385, "name": "", "x": 2640, "y": 704, "width": 16, "height": 16, "visible": true, "properties": [{"name": "kind", "type": "int", "value": 34}, {"name": "a", "type": "int", "value": 0}, {"name": "b", "type": "int", "value": 0}]}, {"id": 386, "name": "", "x": 2720, "y": 688, "width": 16, "height": 16, "visible": true, "properties": [{"name": "kind", "type": "int", "value": 34}, {"name": "a", "type": "int", "value": 0}, {"name": "b", "type": "int", "value": 0}]}, {"id": 387, "name": "", "x": 2720, "y": 672, "width": 16, "height": 16, "visible": true, "properties": [{"name": "kind", "type": "int", "value": 34}, {"name": "a", "type": "int", "value": 0}, {"name": "b", "type": "int", "value": 0}]}, {"id": 388, "name": "", "x": 2752, "y": 720, "width": 16, "height": 16, "visible": true, "properties": [{"name": "kind", "type": "int", "value": 34}, {"name": "a", "type": "int", "value": 0}, {"name": "b", "type": "int", "value": 0}]}, {"id": 389, "name": "", "x": 2720, "y": 752, "width": 16, "height": 16, "visible": true, "properties": [{"name": "kind", "type": "int", "value": 34}, {"name": "a", "type": "int", "value": 0}, {"name": "b", "type": "int", "value": 0}]}, {"id": 390, "name": "", "x": 2704, "y": 768, "width": 16, "height": 16, "visible": true, "properties": [{"name": "kind", "type": "int", "value": 34}, {"name": "a", "type": "int", "value": 0}, {"name": "b", "type": "int", "value": 0}]}, {"id": 391, "name": "", "x": 3072, "y": 704, "width": 16, "height": 16, "visible": true, "properties": [{"name": "kind", "type": "int", "value": 33}, {"name": "a", "type": "int", "value": 0}, {"name": "b", "type": "int", "value": 0}]}, {"id": 392, "name": "", "x": 3008, "y": 752, "width": 16, "height": 16, "visible": true, "properties": [{"name": "kind", "type": "int", "value": 33}, {"name": "a", "type": "int", "value": 0}, {"name": "b", "type": "int", "value": 0}]}, {"id": 393, "name": "", "x": 3056, "y": 672, "width": 16, "height": 16, "visible": true, "properties": [{"name": "kind", "type": "int", "value": 33}, {"name": "a", "type": "int", "value": 0}, {"name": "b", "type": "int", "value": 0}]}, {"id": 394, "name": "", "x": 2976, "y": 720, "width": 16, "height": 16, "visible": true, "properties": [{"name": "kind", "type": "int", "value": 33}, {"name": "a", "type": "int", "value": 0}, {"name": "b", "type": "int", "value": 0}]}, {"id": 395, "name": "", "x": 3008, "y": 768, "width": 16, "height": 16, "visible": true, "properties": [{"name": "kind", "type": "int", "value": 33}, {"name": "a", "type": "int", "value": 0}, {"name": "b", "type": "int", "value": 0}]}, {"id": 396, "name": "", "x": 3168, "y": 704, "width": 16, "height": 16, "visible": true, "properties": [{"name": "kind", "type": "int", "value": 34}, {"name": "a", "type": "int", "value": 0}, {"name": "b", "type": "int", "value": 0}]}, {"id": 397, "name": "", "x": 3248, "y": 736, "width": 16, "height": 16, "visible": true, "properties": [{"name": "kind", "type": "int", "value": 34}, {"name": "a", "type": "int", "value": 0}, {"name": "b", "type": "int", "value": 0}]}, {"id": 398, "name": "", "x": 3248, "y": 640, "width": 16, "height": 16, "visible": true, "properties": [{"name": "kind", "type": "int", "value": 34}, {"name": "a", "type": "int", "value": 0}, {"name": "b", "type": "int", "value": 0}]}, {"id": 399, "name": "", "x": 3296, "y": 768, "width": 16, "height": 16, "visible": true, "properties": [{"name": "kind", "type": "int", "value": 34}, {"name": "a", "type": "int", "value": 0}, {"name": "b", "type": "int", "value": 0}]}, {"id": 400, "name": "", "x": 3504, "y": 768, "width": 16, "height": 16, "visible": true, "properties": [{"name": "kind", "type": "int", "value": 34}, {"name": "a", "type": "int", "value": 0}, {"name": "b", "type": "int", "value": 0}]}, {"id": 401, "name": "", "x": 3536, "y": 752, "width": 16, "height": 16, "visible": true, "properties": [{"name": "kind", "type": "int", "value": 34}, {"name": "a", "type": "int", "value": 0}, {"name": "b", "type": "int", "value": 0}]}, {"id": 402, "name": "", "x": 3440, "y": 752, "width": 16, "height": 16, "visible": true, "properties": [{"name": "kind", "type": "int", "value": 34}, {"name": "a", "type": "int", "value": 0}, {"name": "b", "type": "int", "value": 0}]}, {"id": 403, "name": "", "x": 3504, "y": 704, "width": 16, "height": 16, "visible": true, "properties": [{"name": "kind", "type": "int", "value": 34}, {"name": "a", "type": "int", "value": 0}, {"name": "b", "type": "int", "value": 0}]}, {"id": 404, "name": "", "x": 3680, "y": 752, "width": 16, "height": 16, "visible": true, "properties": [{"name": "kind", "type": "int", "value": 33}, {"name": "a", "type": "int", "value": 0}, {"name": "b", "type": "int", "value": 0}]}, {"id": 405, "name": "", "x": 3728, "y": 768, "width": 16, "height": 16, "visible": true, "properties": [{"name": "kind", "type": "int", "value": 33}, {"name": "a", "type": "int", "value": 0}, {"name": "b", "type": "int", "value": 0}]}, {"id": 406, "name": "", "x": 3696, "y": 640, "width": 16, "height": 16, "visible": true, "properties": [{"name": "kind", "type": "int", "value": 33}, {"name": "a", "type": "int", "value": 0}, {"name": "b", "type": "int", "value": 0}]}, {"id": 407, "name": "", "x": 3728, "y": 640, "width": 16, "height": 16, "visible": true, "properties": [{"name": "kind", "type": "int", "value": 33}, {"name": "a", "type": "int", "value": 0}, {"name": "b", "type": "int", "value": 0}]}, {"id": 408, "name": "", "x": 3792, "y": 720, "width": 16, "height": 16, "visible": true, "properties": [{"name": "kind", "type": "int", "value": 33}, {"name": "a", "type": "int", "value": 0}, {"name": "b", "type": "int", "value": 0}]}, {"id": 409, "name": "", "x": 160, "y": 912, "width": 16, "height": 16, "visible": true, "properties": [{"name": "kind", "type": "int", "value": 71}, {"name": "a", "type": "int", "value": 0}, {"name": "b", "type": "int", "value": 0}]}, {"id": 410, "name": "", "x": 128, "y": 944, "width": 16, "height": 16, "visible": true, "properties": [{"name": "kind", "type": "int", "value": 71}, {"name": "a", "type": "int", "value": 0}, {"name": "b", "type": "int", "value": 0}]}, {"id": 411, "name": "", "x": 176, "y": 880, "width": 16, "height": 16, "visible": true, "properties": [{"name": "kind", "type": "int", "value": 71}, {"name": "a", "type": "int", "value": 0}, {"name": "b", "type": "int", "value": 0}]}, {"id": 412, "name": "", "x": 32, "y": 944, "width": 16, "height": 16, "visible": true, "properties": [{"name": "kind", "type": "int", "value": 71}, {"name": "a", "type": "int", "value": 0}, {"name": "b", "type": "int", "value": 0}]}, {"id": 413, "name": "", "x": 208, "y": 928, "width": 16, "height": 16, "visible": true, "properties": [{"name": "kind", "type": "int", "value": 71}, {"name": "a", "type": "int", "value": 0}, {"name": "b", "type": "int", "value": 0}]}, {"id": 414, "name": "", "x": 304, "y": 880, "width": 16, "height": 16, "visible": true, "properties": [{"name": "kind", "type": "int", "value": 34}, {"name": "a", "type": "int", "value": 0}, {"name": "b", "type": "int", "value": 0}]}, {"id": 415, "name": "", "x": 416, "y": 864, "width": 16, "height": 16, "visible": true, "properties": [{"name": "kind", "type": "int", "value": 34}, {"name": "a", "type": "int", "value": 0}, {"name": "b", "type": "int", "value": 0}]}, {"id": 416, "name": "", "x": 336, "y": 928, "width": 16, "height": 16, "visible": true, "properties": [{"name": "kind", "type": "int", "value": 34}, {"name": "a", "type": "int", "value": 0}, {"name": "b", "type": "int", "value": 0}]}, {"id": 417, "name": "", "x": 384, "y": 880, "width": 16, "height": 16, "visible": true, "properties": [{"name": "kind", "type": "int", "value": 34}, {"name": "a", "type": "int", "value": 0}, {"name": "b", "type": "int", "value": 0}]}, {"id": 418, "name": "", "x": 368, "y": 928, "width": 16, "height": 16, "visible": true, "properties": [{"name": "kind", "type": "int", "value": 34}, {"name": "a", "type": "int", "value": 0}, {"name": "b", "type": "int", "value": 0}]}, {"id": 419, "name": "", "x": 576, "y": 928, "width": 16, "height": 16, "visible": true, "properties": [{"name": "kind", "type": "int", "value": 34}, {"name": "a", "type": "int", "value": 0}, {"name": "b", "type": "int", "value": 0}]}, {"id": 420, "name": "", "x": 544, "y": 928, "width": 16, "height": 16, "visible": true, "properties": [{"name": "kind", "type": "int", "value": 34}, {"name": "a", "type": "int", "value": 0}, {"name": "b", "type": "int", "value": 0}]}, {"id": 421, "name": "", "x": 704, "y": 832, "width": 16, "height": 16, "visible": true, "properties": [{"name": "kind", "type": "int", "value": 34}, {"name": "a", "type": "int", "value": 0}, {"name": "b", "type": "int", "value": 0}]}, {"id": 422, "name": "", "x": 512, "y": 832, "width": 16, "height": 16, "visible": true, "properties": [{"name": "kind", "type": "int", "value": 34}, {"name": "a", "type": "int", "value": 0}, {"name": "b", "type": "int", "value": 0}]}, {"id": 423, "name": "", "x": 848, "y": 816, "width": 16, "height": 16, "visible": true, "properties": [{"name": "kind", "type": "int", "value": 34}, {"name": "a", "type": "int", "value": 0}, {"name": "b", "type": "int", "value": 0}]}, {"id": 424, "name": "", "x": 784, "y": 896, "width": 16, "height": 16, "visible": true, "properties": [{"name": "kind", "type": "int", "value": 34}, {"name": "a", "type": "int", "value": 0}, {"name": "b", "type": "int", "value": 0}]}, {"id": 425, "name": "", "x": 832, "y": 832, "width": 16, "height": 16, "visible": true, "properties": [{"name": "kind", "type": "int", "value": 34}, {"name": "a", "type": "int", "value": 0}, {"name": "b", "type": "int", "value": 0}]}, {"id": 426, "name": "", "x": 832, "y": 880, "width": 16, "height": 16, "visible": true, "properties": [{"name": "kind", "type": "int", "value": 34}, {"name": "a", "type": "int", "value": 0}, {"name": "b", "type": "int", "value": 0}]}, {"id": 427, "name": "", "x": 912, "y": 832, "width": 16, "height": 16, "visible": true, "properties": [{"name": "kind", "type": "int", "value": 34}, {"name": "a", "type": "int", "value": 0}, {"name": "b", "type": "int", "value": 0}]}, {"id": 428, "name": "", "x": 1088, "y": 928, "width": 16, "height": 16, "visible": true, "properties": [{"name": "kind", "type": "int", "value": 33}, {"name": "a", "type": "int", "value": 0}, {"name": "b", "type": "int", "value": 0}]}, {"id": 429, "name": "", "x": 1008, "y": 896, "width": 16, "height": 16, "visible": true, "properties": [{"name": "kind", "type": "int", "value": 33}, {"name": "a", "type": "int", "value": 0}, {"name": "b", "type": "int", "value": 0}]}, {"id": 430, "name": "", "x": 1088, "y": 832, "width": 16, "height": 16, "visible": true, "properties": [{"name": "kind", "type": "int", "value": 33}, {"name": "a", "type": "int", "value": 0}, {"name": "b", "type": "int", "value": 0}]}, {"id": 431, "name": "", "x": 1120, "y": 928, "width": 16, "height": 16, "visible": true, "properties": [{"name": "kind", "type": "int", "value": 33}, {"name": "a", "type": "int", "value": 0}, {"name": "b", "type": "int", "value": 0}]}, {"id": 432, "name": "", "x": 1328, "y": 896, "width": 16, "height": 16, "visible": true, "properties": [{"name": "kind", "type": "int", "value": 33}, {"name": "a", "type": "int", "value": 0}, {"name": "b", "type": "int", "value": 0}]}, {"id": 433, "name": "", "x": 1616, "y": 864, "width": 16, "height": 16, "visible": true, "properties": [{"name": "kind", "type": "int", "value": 33}, {"name": "a", "type": "int", "value": 0}, {"name": "b", "type": "int", "value": 0}]}, {"id": 434, "name": "", "x": 1664, "y": 864, "width": 16, "height": 16, "visible": true, "properties": [{"name": "kind", "type": "int", "value": 33}, {"name": "a", "type": "int", "value": 0}, {"name": "b", "type": "int", "value": 0}]}, {"id": 435, "name": "", "x": 1504, "y": 912, "width": 16, "height": 16, "visible": true, "properties": [{"name": "kind", "type": "int", "value": 33}, {"name": "a", "type": "int", "value": 0}, {"name": "b", "type": "int", "value": 0}]}, {"id": 436, "name": "", "x": 1584, "y": 832, "width": 16, "height": 16, "visible": true, "properties": [{"name": "kind", "type": "int", "value": 33}, {"name": "a", "type": "int", "value": 0}, {"name": "b", "type": "int", "value": 0}]}, {"id": 437, "name": "", "x": 1808, "y": 928, "width": 16, "height": 16, "visible": true, "properties": [{"name": "kind", "type": "int", "value": 33}, {"name": "a", "type": "int", "value": 0}, {"name": "b", "type": "int", "value": 0}]}, {"id": 438, "name": "", "x": 1904, "y": 928, "width": 16, "height": 16, "visible": true, "properties": [{"name": "kind", "type": "int", "value": 33}, {"name": "a", "type": "int", "value": 0}, {"name": "b", "type": "int", "value": 0}]}, {"id": 439, "name": "", "x": 1680, "y": 864, "width": 16, "height": 16, "visible": true, "properties": [{"name": "kind", "type": "int", "value": 33}, {"name": "a", "type": "int", "value": 0}, {"name": "b", "type": "int", "value": 0}]}, {"id": 440, "name": "", "x": 1696, "y": 832, "width": 16, "height": 16, "visible": true, "properties": [{"name": "kind", "type": "int", "value": 33}, {"name": "a", "type": "int", "value": 0}, {"name": "b", "type": "int", "value": 0}]}, {"id": 441, "name": "", "x": 2144, "y": 928, "width": 16, "height": 16, "visible": true, "properties": [{"name": "kind", "type": "int", "value": 33}, {"name": "a", "type": "int", "value": 0}, {"name": "b", "type": "int", "value": 0}]}, {"id": 442, "name": "", "x": 2112, "y": 928, "width": 16, "height": 16, "visible": true, "properties": [{"name": "kind", "type": "int", "value": 33}, {"name": "a", "type": "int", "value": 0}, {"name": "b", "type": "int", "value": 0}]}, {"id": 443, "name": "", "x": 2144, "y": 832, "width": 16, "height": 16, "visible": true, "properties": [{"name": "kind", "type": "int", "value": 33}, {"name": "a", "type": "int", "value": 0}, {"name": "b", "type": "int", "value": 0}]}, {"id": 444, "name": "", "x": 1984, "y": 848, "width": 16, "height": 16, "visible": true, "properties": [{"name": "kind", "type": "int", "value": 33}, {"name": "a", "type": "int", "value": 0}, {"name": "b", "type": "int", "value": 0}]}, {"id": 445, "name": "", "x": 2352, "y": 880, "width": 16, "height": 16, "visible": true, "properties": [{"name": "kind", "type": "int", "value": 72}, {"name": "a", "type": "int", "value": 0}, {"name": "b", "type": "int", "value": 0}]}, {"id": 446, "name": "", "x": 2224, "y": 896, "width": 16, "height": 16, "visible": true, "properties": [{"name": "kind", "type": "int", "value": 72}, {"name": "a", "type": "int", "value": 0}, {"name": "b", "type": "int", "value": 0}]}, {"id": 447, "name": "", "x": 2320, "y": 864, "width": 16, "height": 16, "visible": true, "properties": [{"name": "kind", "type": "int", "value": 72}, {"name": "a", "type": "int", "value": 0}, {"name": "b", "type": "int", "value": 0}]}, {"id": 448, "name": "", "x": 2160, "y": 864, "width": 16, "height": 16, "visible": true, "properties": [{"name": "kind", "type": "int", "value": 72}, {"name": "a", "type": "int", "value": 0}, {"name": "b", "type": "int", "value": 0}]}, {"id": 449, "name": "", "x": 2528, "y": 896, "width": 16, "height": 16, "visible": true, "properties": [{"name": "kind", "type": "int", "value": 33}, {"name": "a", "type": "int", "value": 0}, {"name": "b", "type": "int", "value": 0}]}, {"id": 450, "name": "", "x": 2512, "y": 864, "width": 16, "height": 16, "visible": true, "properties": [{"name": "kind", "type": "int", "value": 33}, {"name": "a", "type": "int", "value": 0}, {"name": "b", "type": "int", "value": 0}]}, {"id": 451, "name": "", "x": 2560, "y": 912, "width": 16, "height": 16, "visible": true, "properties": [{"name": "kind", "type": "int", "value": 33}, {"name": "a", "type": "int", "value": 0}, {"name": "b", "type": "int", "value": 0}]}, {"id": 452, "name": "", "x": 2576, "y": 848, "width": 16, "height": 16, "visible": true, "properties": [{"name": "kind", "type": "int", "value": 33}, {"name": "a", "type": "int", "value": 0}, {"name": "b", "type": "int", "value": 0}]}, {"id": 453, "name": "", "x": 2816, "y": 832, "width": 16, "height": 16, "visible": true, "properties": [{"name": "kind", "type": "int", "value": 34}, {"name": "a", "type": "int", "value": 0}, {"name": "b", "type": "int", "value": 0}]}, {"id": 454, "name": "", "x": 2656, "y": 928, "width": 16, "height": 16, "visible": true, "properties": [{"name": "kind", "type": "int", "value": 34}, {"name": "a", "type": "int", "value": 0}, {"name": "b", "type": "int", "value": 0}]}, {"id": 455, "name": "", "x": 2720, "y": 880, "width": 16, "height": 16, "visible": true, "properties": [{"name": "kind", "type": "int", "value": 34}, {"name": "a", "type": "int", "value": 0}, {"name": "b", "type": "int", "value": 0}]}, {"id": 456, "name": "", "x": 2768, "y": 832, "width": 16, "height": 16, "visible": true, "properties": [{"name": "kind", "type": "int", "value": 34}, {"name": "a", "type": "int", "value": 0}, {"name": "b", "type": "int", "value": 0}]}, {"id": 457, "name": "", "x": 2944, "y": 832, "width": 16, "height": 16, "visible": true, "properties": [{"name": "kind", "type": "int", "value": 34}, {"name": "a", "type": "int", "value": 0}, {"name": "b", "type": "int", "value": 0}]}, {"id": 458, "name": "", "x": 3104, "y": 896, "width": 16, "height": 16, "visible": true, "properties": [{"name": "kind", "type": "int", "value": 34}, {"name": "a", "type": "int", "value": 0}, {"name": "b", "type": "int", "value": 0}]}, {"id": 459, "name": "", "x": 2928, "y": 832, "width": 16, "height": 16, "visible": true, "properties": [{"name": "kind", "type": "int", "value": 34}, {"name": "a", "type": "int", "value": 0}, {"name": "b", "type": "int", "value": 0}]}, {"id": 460, "name": "", "x": 2912, "y": 928, "width": 16, "height": 16, "visible": true, "properties": [{"name": "kind", "type": "int", "value": 34}, {"name": "a", "type": "int", "value": 0}, {"name": "b", "type": "int", "value": 0}]}, {"id": 461, "name": "", "x": 3248, "y": 896, "width": 16, "height": 16, "visible": true, "properties": [{"name": "kind", "type": "int", "value": 34}, {"name": "a", "type": "int", "value": 0}, {"name": "b", "type": "int", "value": 0}]}, {"id": 462, "name": "", "x": 3264, "y": 896, "width": 16, "height": 16, "visible": true, "properties": [{"name": "kind", "type": "int", "value": 34}, {"name": "a", "type": "int", "value": 0}, {"name": "b", "type": "int", "value": 0}]}, {"id": 463, "name": "", "x": 3344, "y": 864, "width": 16, "height": 16, "visible": true, "properties": [{"name": "kind", "type": "int", "value": 34}, {"name": "a", "type": "int", "value": 0}, {"name": "b", "type": "int", "value": 0}]}, {"id": 464, "name": "", "x": 3264, "y": 864, "width": 16, "height": 16, "visible": true, "properties": [{"name": "kind", "type": "int", "value": 34}, {"name": "a", "type": "int", "value": 0}, {"name": "b", "type": "int", "value": 0}]}, {"id": 465, "name": "", "x": 3392, "y": 832, "width": 16, "height": 16, "visible": true, "properties": [{"name": "kind", "type": "int", "value": 34}, {"name": "a", "type": "int", "value": 0}, {"name": "b", "type": "int", "value": 0}]}, {"id": 466, "name": "", "x": 3392, "y": 928, "width": 16, "height": 16, "visible": true, "properties": [{"name": "kind", "type": "int", "value": 34}, {"name": "a", "type": "int", "value": 0}, {"name": "b", "type": "int", "value": 0}]}, {"id": 467, "name": "", "x": 3536, "y": 848, "width": 16, "height": 16, "visible": true, "properties": [{"name": "kind", "type": "int", "value": 34}, {"name": "a", "type": "int", "value": 0}, {"name": "b", "type": "int", "value": 0}]}, {"id": 468, "name": "", "x": 3584, "y": 912, "width": 16, "height": 16, "visible": true, "properties": [{"name": "kind", "type": "int", "value": 34}, {"name": "a", "type": "int", "value": 0}, {"name": "b", "type": "int", "value": 0}]}, {"id": 469, "name": "", "x": 3584, "y": 896, "width": 16, "height": 16, "visible": true, "properties": [{"name": "kind", "type": "int", "value": 34}, {"name": "a", "type": "int", "value": 0}, {"name": "b", "type": "int", "value": 0}]}, {"id": 470, "name": "", "x": 3664, "y": 864, "width": 16, "height": 16, "visible": true, "properties": [{"name": "kind", "type": "int", "value": 33}, {"name": "a", "type": "int", "value": 0}, {"name": "b", "type": "int", "value": 0}]}, {"id": 471, "name": "", "x": 3648, "y": 912, "width": 16, "height": 16, "visible": true, "properties": [{"name": "kind", "type": "int", "value": 33}, {"name": "a", "type": "int", "value": 0}, {"name": "b", "type": "int", "value": 0}]}, {"id": 472, "name": "", "x": 3696, "y": 816, "width": 16, "height": 16, "visible": true, "properties": [{"name": "kind", "type": "int", "value": 33}, {"name": "a", "type": "int", "value": 0}, {"name": "b", "type": "int", "value": 0}]}, {"id": 473, "name": "", "x": 3664, "y": 896, "width": 16, "height": 16, "visible": true, "properties": [{"name": "kind", "type": "int", "value": 33}, {"name": "a", "type": "int", "value": 0}, {"name": "b", "type": "int", "value": 0}]}, {"id": 474, "name": "", "x": 3648, "y": 928, "width": 16, "height": 16, "visible": true, "properties": [{"name": "kind", "type": "int", "value": 33}, {"name": "a", "type": "int", "value": 0}, {"name": "b", "type": "int", "value": 0}]}, {"id": 475, "name": "", "x": 160, "y": 1088, "width": 16, "height": 16, "visible": true, "properties": [{"name": "kind", "type": "int", "value": 72}, {"name": "a", "type": "int", "value": 0}, {"name": "b", "type": "int", "value": 0}]}, {"id": 476, "name": "", "x": 96, "y": 976, "width": 16, "height": 16, "visible": true, "properties": [{"name": "kind", "type": "int", "value": 72}, {"name": "a", "type": "int", "value": 0}, {"name": "b", "type": "int", "value": 0}]}, {"id": 477, "name": "", "x": 208, "y": 1008, "width": 16, "height": 16, "visible": true, "properties": [{"name": "kind", "type": "int", "value": 71}, {"name": "a", "type": "int", "value": 0}, {"name": "b", "type": "int", "value": 0}]}, {"id": 478, "name": "", "x": 144, "y": 1040, "width": 16, "height": 16, "visible": true, "properties": [{"name": "kind", "type": "int", "value": 70}, {"name": "a", "type": "int", "value": 0}, {"name": "b", "type": "int", "value": 0}]}, {"id": 479, "name": "", "x": 64, "y": 1072, "width": 16, "height": 16, "visible": true, "properties": [{"name": "kind", "type": "int", "value": 71}, {"name": "a", "type": "int", "value": 0}, {"name": "b", "type": "int", "value": 0}]}, {"id": 480, "name": "", "x": 80, "y": 1024, "width": 16, "height": 16, "visible": true, "properties": [{"name": "kind", "type": "int", "value": 70}, {"name": "a", "type": "int", "value": 0}, {"name": "b", "type": "int", "value": 0}]}, {"id": 481, "name": "", "x": 320, "y": 1056, "width": 16, "height": 16, "visible": true, "properties": [{"name": "kind", "type": "int", "value": 34}, {"name": "a", "type": "int", "value": 0}, {"name": "b", "type": "int", "value": 0}]}, {"id": 482, "name": "", "x": 240, "y": 1056, "width": 16, "height": 16, "visible": true, "properties": [{"name": "kind", "type": "int", "value": 34}, {"name": "a", "type": "int", "value": 0}, {"name": "b", "type": "int", "value": 0}]}, {"id": 483, "name": "", "x": 368, "y": 1024, "width": 16, "height": 16, "visible": true, "properties": [{"name": "kind", "type": "int", "value": 34}, {"name": "a", "type": "int", "value": 0}, {"name": "b", "type": "int", "value": 0}]}, {"id": 484, "name": "", "x": 416, "y": 960, "width": 16, "height": 16, "visible": true, "properties": [{"name": "kind", "type": "int", "value": 34}, {"name": "a", "type": "int", "value": 0}, {"name": "b", "type": "int", "value": 0}]}, {"id": 485, "name": "", "x": 432, "y": 1040, "width": 16, "height": 16, "visible": true, "properties": [{"name": "kind", "type": "int", "value": 34}, {"name": "a", "type": "int", "value": 0}, {"name": "b", "type": "int", "value": 0}]}, {"id": 486, "name": "", "x": 656, "y": 1056, "width": 16, "height": 16, "visible": true, "properties": [{"name": "kind", "type": "int", "value": 34}, {"name": "a", "type": "int", "value": 0}, {"name": "b", "type": "int", "value": 0}]}, {"id": 487, "name": "", "x": 576, "y": 1056, "width": 16, "height": 16, "visible": true, "properties": [{"name": "kind", "type": "int", "value": 34}, {"name": "a", "type": "int", "value": 0}, {"name": "b", "type": "int", "value": 0}]}, {"id": 488, "name": "", "x": 512, "y": 1024, "width": 16, "height": 16, "visible": true, "properties": [{"name": "kind", "type": "int", "value": 34}, {"name": "a", "type": "int", "value": 0}, {"name": "b", "type": "int", "value": 0}]}, {"id": 489, "name": "", "x": 560, "y": 960, "width": 16, "height": 16, "visible": true, "properties": [{"name": "kind", "type": "int", "value": 34}, {"name": "a", "type": "int", "value": 0}, {"name": "b", "type": "int", "value": 0}]}, {"id": 490, "name": "", "x": 640, "y": 1056, "width": 16, "height": 16, "visible": true, "properties": [{"name": "kind", "type": "int", "value": 34}, {"name": "a", "type": "int", "value": 0}, {"name": "b", "type": "int", "value": 0}]}, {"id": 491, "name": "", "x": 784, "y": 992, "width": 16, "height": 16, "visible": true, "properties": [{"name": "kind", "type": "int", "value": 34}, {"name": "a", "type": "int", "value": 0}, {"name": "b", "type": "int", "value": 0}]}, {"id": 492, "name": "", "x": 848, "y": 1088, "width": 16, "height": 16, "visible": true, "properties": [{"name": "kind", "type": "int", "value": 33}, {"name": "a", "type": "int", "value": 0}, {"name": "b", "type": "int", "value": 0}]}, {"id": 493, "name": "", "x": 720, "y": 1056, "width": 16, "height": 16, "visible": true, "properties": [{"name": "kind", "type": "int", "value": 34}, {"name": "a", "type": "int", "value": 0}, {"name": "b", "type": "int", "value": 0}]}, {"id": 494, "name": "", "x": 928, "y": 1008, "width": 16, "height": 16, "visible": true, "properties": [{"name": "kind", "type": "int", "value": 33}, {"name": "a", "type": "int", "value": 0}, {"name": "b", "type": "int", "value": 0}]}, {"id": 495, "name": "", "x": 896, "y": 1072, "width": 16, "height": 16, "visible": true, "properties": [{"name": "kind", "type": "int", "value": 34}, {"name": "a", "type": "int", "value": 0}, {"name": "b", "type": "int", "value": 0}]}, {"id": 496, "name": "", "x": 896, "y": 1040, "width": 16, "height": 16, "visible": true, "properties": [{"name": "kind", "type": "int", "value": 34}, {"name": "a", "type": "int", "value": 0}, {"name": "b", "type": "int", "value": 0}]}, {"id": 497, "name": "", "x": 1040, "y": 1072, "width": 16, "height": 16, "visible": true, "properties": [{"name": "kind", "type": "int", "value": 33}, {"name": "a", "type": "int", "value": 0}, {"name": "b", "type": "int", "value": 0}]}, {"id": 498, "name": "", "x": 1056, "y": 1040, "width": 16, "height": 16, "visible": true, "properties": [{"name": "kind", "type": "int", "value": 33}, {"name": "a", "type": "int", "value": 0}, {"name": "b", "type": "int", "value": 0}]}, {"id": 499, "name": "", "x": 960, "y": 1056, "width": 16, "height": 16, "visible": true, "properties": [{"name": "kind", "type": "int", "value": 33}, {"name": "a", "type": "int", "value": 0}, {"name": "b", "type": "int", "value": 0}]}, {"id": 500, "name": "", "x": 1024, "y": 1088, "width": 16, "height": 16, "visible": true, "properties": [{"name": "kind", "type": "int", "value": 33}, {"name": "a", "type": "int", "value": 0}, {"name": "b", "type": "int", "value": 0}]}, {"id": 501, "name": "", "x": 1104, "y": 1024, "width": 16, "height": 16, "visible": true, "properties": [{"name": "kind", "type": "int", "value": 33}, {"name": "a", "type": "int", "value": 0}, {"name": "b", "type": "int", "value": 0}]}, {"id": 502, "name": "", "x": 1344, "y": 992, "width": 16, "height": 16, "visible": true, "properties": [{"name": "kind", "type": "int", "value": 33}, {"name": "a", "type": "int", "value": 0}, {"name": "b", "type": "int", "value": 0}]}, {"id": 503, "name": "", "x": 1424, "y": 1008, "width": 16, "height": 16, "visible": true, "properties": [{"name": "kind", "type": "int", "value": 33}, {"name": "a", "type": "int", "value": 0}, {"name": "b", "type": "int", "value": 0}]}, {"id": 504, "name": "", "x": 1200, "y": 992, "width": 16, "height": 16, "visible": true, "properties": [{"name": "kind", "type": "int", "value": 33}, {"name": "a", "type": "int", "value": 0}, {"name": "b", "type": "int", "value": 0}]}, {"id": 505, "name": "", "x": 1312, "y": 976, "width": 16, "height": 16, "visible": true, "properties": [{"name": "kind", "type": "int", "value": 33}, {"name": "a", "type": "int", "value": 0}, {"name": "b", "type": "int", "value": 0}]}, {"id": 506, "name": "", "x": 1552, "y": 1088, "width": 16, "height": 16, "visible": true, "properties": [{"name": "kind", "type": "int", "value": 33}, {"name": "a", "type": "int", "value": 0}, {"name": "b", "type": "int", "value": 0}]}, {"id": 507, "name": "", "x": 1440, "y": 1072, "width": 16, "height": 16, "visible": true, "properties": [{"name": "kind", "type": "int", "value": 33}, {"name": "a", "type": "int", "value": 0}, {"name": "b", "type": "int", "value": 0}]}, {"id": 508, "name": "", "x": 1456, "y": 1024, "width": 16, "height": 16, "visible": true, "properties": [{"name": "kind", "type": "int", "value": 33}, {"name": "a", "type": "int", "value": 0}, {"name": "b", "type": "int", "value": 0}]}, {"id": 509, "name": "", "x": 1664, "y": 1024, "width": 16, "height": 16, "visible": true, "properties": [{"name": "kind", "type": "int", "value": 33}, {"name": "a", "type": "int", "value": 0}, {"name": "b", "type": "int", "value": 0}]}, {"id": 510, "name": "", "x": 1760, "y": 992, "width": 16, "height": 16, "visible": true, "properties": [{"name": "kind", "type": "int", "value": 33}, {"name": "a", "type": "int", "value": 0}, {"name": "b", "type": "int", "value": 0}]}, {"id": 511, "name": "", "x": 1760, "y": 1024, "width": 16, "height": 16, "visible": true, "properties": [{"name": "kind", "type": "int", "value": 33}, {"name": "a", "type": "int", "value": 0}, {"name": "b", "type": "int", "value": 0}]}, {"id": 512, "name": "", "x": 1840, "y": 1008, "width": 16, "height": 16, "visible": true, "properties": [{"name": "kind", "type": "int", "value": 33}, {"name": "a", "type": "int", "value": 0}, {"name": "b", "type": "int", "value": 0}]}, {"id": 513, "name": "", "x": 1856, "y": 1008, "width": 16, "height": 16, "visible": true, "properties": [{"name": "kind", "type": "int", "value": 33}, {"name": "a", "type": "int", "value": 0}, {"name": "b", "type": "int", "value": 0}]}, {"id": 514, "name": "", "x": 2080, "y": 1072, "width": 16, "height": 16, "visible": true, "properties": [{"name": "kind", "type": "int", "value": 33}, {"name": "a", "type": "int", "value": 0}, {"name": "b", "type": "int", "value": 0}]}, {"id": 515, "name": "", "x": 1952, "y": 1008, "width": 16, "height": 16, "visible": true, "properties": [{"name": "kind", "type": "int", "value": 33}, {"name": "a", "type": "int", "value": 0}, {"name": "b", "type": "int", "value": 0}]}, {"id": 516, "name": "", "x": 2064, "y": 1024, "width": 16, "height": 16, "visible": true, "properties": [{"name": "kind", "type": "int", "value": 33}, {"name": "a", "type": "int", "value": 0}, {"name": "b", "type": "int", "value": 0}]}, {"id": 517, "name": "", "x": 2000, "y": 1040, "width": 16, "height": 16, "visible": true, "properties": [{"name": "kind", "type": "int", "value": 33}, {"name": "a", "type": "int", "value": 0}, {"name": "b", "type": "int", "value": 0}]}, {"id": 518, "name": "", "x": 2368, "y": 1056, "width": 16, "height": 16, "visible": true, "properties": [{"name": "kind", "type": "int", "value": 33}, {"name": "a", "type": "int", "value": 0}, {"name": "b", "type": "int", "value": 0}]}, {"id": 519, "name": "", "x": 2320, "y": 1072, "width": 16, "height": 16, "visible": true, "properties": [{"name": "kind", "type": "int", "value": 33}, {"name": "a", "type": "int", "value": 0}, {"name": "b", "type": "int", "value": 0}]}, {"id": 520, "name": "", "x": 2224, "y": 1040, "width": 16, "height": 16, "visible": true, "properties": [{"name": "kind", "type": "int", "value": 33}, {"name": "a", "type": "int", "value": 0}, {"name": "b", "type": "int", "value": 0}]}, {"id": 521, "name": "", "x": 2208, "y": 1072, "width": 16, "height": 16, "visible": true, "properties": [{"name": "kind", "type": "int", "value": 33}, {"name": "a", "type": "int", "value": 0}, {"name": "b", "type": "int", "value": 0}]}, {"id": 522, "name": "", "x": 2560, "y": 1056, "width": 16, "height": 16, "visible": true, "properties": [{"name": "kind", "type": "int", "value": 33}, {"name": "a", "type": "int", "value": 0}, {"name": "b", "type": "int", "value": 0}]}, {"id": 523, "name": "", "x": 2464, "y": 1056, "width": 16, "height": 16, "visible": true, "properties": [{"name": "kind", "type": "int", "value": 33}, {"name": "a", "type": "int", "value": 0}, {"name": "b", "type": "int", "value": 0}]}, {"id": 524, "name": "", "x": 2480, "y": 1056, "width": 16, "height": 16, "visible": true, "properties": [{"name": "kind", "type": "int", "value": 33}, {"name": "a", "type": "int", "value": 0}, {"name": "b", "type": "int", "value": 0}]}, {"id": 525, "name": "", "x": 2608, "y": 1088, "width": 16, "height": 16, "visible": true, "properties": [{"name": "kind", "type": "int", "value": 33}, {"name": "a", "type": "int", "value": 0}, {"name": "b", "type": "int", "value": 0}]}, {"id": 526, "name": "", "x": 2832, "y": 1072, "width": 16, "height": 16, "visible": true, "properties": [{"name": "kind", "type": "int", "value": 34}, {"name": "a", "type": "int", "value": 0}, {"name": "b", "type": "int", "value": 0}]}, {"id": 527, "name": "", "x": 2672, "y": 1040, "width": 16, "height": 16, "visible": true, "properties": [{"name": "kind", "type": "int", "value": 33}, {"name": "a", "type": "int", "value": 0}, {"name": "b", "type": "int", "value": 0}]}, {"id": 528, "name": "", "x": 2768, "y": 1072, "width": 16, "height": 16, "visible": true, "properties": [{"name": "kind", "type": "int", "value": 34}, {"name": "a", "type": "int", "value": 0}, {"name": "b", "type": "int", "value": 0}]}, {"id": 529, "name": "", "x": 2704, "y": 1072, "width": 16, "height": 16, "visible": true, "properties": [{"name": "kind", "type": "int", "value": 33}, {"name": "a", "type": "int", "value": 0}, {"name": "b", "type": "int", "value": 0}]}, {"id": 530, "name": "", "x": 2832, "y": 976, "width": 16, "height": 16, "visible": true, "properties": [{"name": "kind", "type": "int", "value": 34}, {"name": "a", "type": "int", "value": 0}, {"name": "b", "type": "int", "value": 0}]}, {"id": 531, "name": "", "x": 2848, "y": 1056, "width": 16, "height": 16, "visible": true, "properties": [{"name": "kind", "type": "int", "value": 34}, {"name": "a", "type": "int", "value": 0}, {"name": "b", "type": "int", "value": 0}]}, {"id": 532, "name": "", "x": 3040, "y": 1008, "width": 16, "height": 16, "visible": true, "properties": [{"name": "kind", "type": "int", "value": 34}, {"name": "a", "type": "int", "value": 0}, {"name": "b", "type": "int", "value": 0}]}, {"id": 533, "name": "", "x": 2928, "y": 1024, "width": 16, "height": 16, "visible": true, "properties": [{"name": "kind", "type": "int", "value": 34}, {"name": "a", "type": "int", "value": 0}, {"name": "b", "type": "int", "value": 0}]}, {"id": 534, "name": "", "x": 3008, "y": 1040, "width": 16, "height": 16, "visible": true, "properties": [{"name": "kind", "type": "int", "value": 34}, {"name": "a", "type": "int", "value": 0}, {"name": "b", "type": "int", "value": 0}]}, {"id": 535, "name": "", "x": 2880, "y": 1040, "width": 16, "height": 16, "visible": true, "properties": [{"name": "kind", "type": "int", "value": 34}, {"name": "a", "type": "int", "value": 0}, {"name": "b", "type": "int", "value": 0}]}, {"id": 536, "name": "", "x": 3248, "y": 992, "width": 16, "height": 16, "visible": true, "properties": [{"name": "kind", "type": "int", "value": 34}, {"name": "a", "type": "int", "value": 0}, {"name": "b", "type": "int", "value": 0}]}, {"id": 537, "name": "", "x": 3168, "y": 1008, "width": 16, "height": 16, "visible": true, "properties": [{"name": "kind", "type": "int", "value": 34}, {"name": "a", "type": "int", "value": 0}, {"name": "b", "type": "int", "value": 0}]}, {"id": 538, "name": "", "x": 3200, "y": 992, "width": 16, "height": 16, "visible": true, "properties": [{"name": "kind", "type": "int", "value": 34}, {"name": "a", "type": "int", "value": 0}, {"name": "b", "type": "int", "value": 0}]}, {"id": 539, "name": "", "x": 3168, "y": 960, "width": 16, "height": 16, "visible": true, "properties": [{"name": "kind", "type": "int", "value": 34}, {"name": "a", "type": "int", "value": 0}, {"name": "b", "type": "int", "value": 0}]}, {"id": 540, "name": "", "x": 3552, "y": 1088, "width": 16, "height": 16, "visible": true, "properties": [{"name": "kind", "type": "int", "value": 34}, {"name": "a", "type": "int", "value": 0}, {"name": "b", "type": "int", "value": 0}]}, {"id": 541, "name": "", "x": 3584, "y": 1088, "width": 16, "height": 16, "visible": true, "properties": [{"name": "kind", "type": "int", "value": 33}, {"name": "a", "type": "int", "value": 0}, {"name": "b", "type": "int", "value": 0}]}, {"id": 542, "name": "", "x": 3408, "y": 1088, "width": 16, "height": 16, "visible": true, "properties": [{"name": "kind", "type": "int", "value": 34}, {"name": "a", "type": "int", "value": 0}, {"name": "b", "type": "int", "value": 0}]}, {"id": 543, "name": "", "x": 3376, "y": 1024, "width": 16, "height": 16, "visible": true, "properties": [{"name": "kind", "type": "int", "value": 33}, {"name": "a", "type": "int", "value": 0}, {"name": "b", "type": "int", "value": 0}]}, {"id": 544, "name": "", "x": 3392, "y": 1088, "width": 16, "height": 16, "visible": true, "properties": [{"name": "kind", "type": "int", "value": 34}, {"name": "a", "type": "int", "value": 0}, {"name": "b", "type": "int", "value": 0}]}, {"id": 545, "name": "", "x": 3520, "y": 992, "width": 16, "height": 16, "visible": true, "properties": [{"name": "kind", "type": "int", "value": 34}, {"name": "a", "type": "int", "value": 0}, {"name": "b", "type": "int", "value": 0}]}, {"id": 546, "name": "", "x": 3728, "y": 1072, "width": 16, "height": 16, "visible": true, "properties": [{"name": "kind", "type": "int", "value": 33}, {"name": "a", "type": "int", "value": 0}, {"name": "b", "type": "int", "value": 0}]}, {"id": 547, "name": "", "x": 3696, "y": 1088, "width": 16, "height": 16, "visible": true, "properties": [{"name": "kind", "type": "int", "value": 33}, {"name": "a", "type": "int", "value": 0}, {"name": "b", "type": "int", "value": 0}]}, {"id": 548, "name": "", "x": 3696, "y": 1104, "width": 16, "height": 16, "visible": true, "properties": [{"name": "kind", "type": "int", "value": 33}, {"name": "a", "type": "int", "value": 0}, {"name": "b", "type": "int", "value": 0}]}, {"id": 549, "name": "", "x": 3712, "y": 992, "width": 16, "height": 16, "visible": true, "properties": [{"name": "kind", "type": "int", "value": 33}, {"name": "a", "type": "int", "value": 0}, {"name": "b", "type": "int", "value": 0}]}, {"id": 550, "name": "", "x": 3680, "y": 1104, "width": 16, "height": 16, "visible": true, "properties": [{"name": "kind", "type": "int", "value": 33}, {"name": "a", "type": "int", "value": 0}, {"name": "b", "type": "int", "value": 0}]}, {"id": 551, "name": "", "x": 160, "y": 1168, "width": 16, "height": 16, "visible": true, "properties": [{"name": "kind", "type": "int", "value": 72}, {"name": "a", "type": "int", "value": 0}, {"name": "b", "type": "int", "value": 0}]}, {"id": 552, "name": "", "x": 192, "y": 1232, "width": 16, "height": 16, "visible": true, "properties": [{"name": "kind", "type": "int", "value": 72}, {"name": "a", "type": "int", "value": 0}, {"name": "b", "type": "int", "value": 0}]}, {"id": 553, "name": "", "x": 96, "y": 1152, "width": 16, "height": 16, "visible": true, "properties": [{"name": "kind", "type": "int", "value": 72}, {"name": "a", "type": "int", "value": 0}, {"name": "b", "type": "int", "value": 0}]}, {"id": 554, "name": "", "x": 64, "y": 1232, "width": 16, "height": 16, "visible": true, "properties": [{"name": "kind", "type": "int", "value": 72}, {"name": "a", "type": "int", "value": 0}, {"name": "b", "type": "int", "value": 0}]}, {"id": 555, "name": "", "x": 352, "y": 1200, "width": 16, "height": 16, "visible": true, "properties": [{"name": "kind", "type": "int", "value": 34}, {"name": "a", "type": "int", "value": 0}, {"name": "b", "type": "int", "value": 0}]}, {"id": 556, "name": "", "x": 432, "y": 1216, "width": 16, "height": 16, "visible": true, "properties": [{"name": "kind", "type": "int", "value": 34}, {"name": "a", "type": "int", "value": 0}, {"name": "b", "type": "int", "value": 0}]}, {"id": 557, "name": "", "x": 416, "y": 1232, "width": 16, "height": 16, "visible": true, "properties": [{"name": "kind", "type": "int", "value": 34}, {"name": "a", "type": "int", "value": 0}, {"name": "b", "type": "int", "value": 0}]}, {"id": 558, "name": "", "x": 272, "y": 1168, "width": 16, "height": 16, "visible": true, "properties": [{"name": "kind", "type": "int", "value": 34}, {"name": "a", "type": "int", "value": 0}, {"name": "b", "type": "int", "value": 0}]}, {"id": 559, "name": "", "x": 304, "y": 1216, "width": 16, "height": 16, "visible": true, "properties": [{"name": "kind", "type": "int", "value": 34}, {"name": "a", "type": "int", "value": 0}, {"name": "b", "type": "int", "value": 0}]}, {"id": 560, "name": "", "x": 640, "y": 1152, "width": 16, "height": 16, "visible": true, "properties": [{"name": "kind", "type": "int", "value": 34}, {"name": "a", "type": "int", "value": 0}, {"name": "b", "type": "int", "value": 0}]}, {"id": 561, "name": "", "x": 528, "y": 1248, "width": 16, "height": 16, "visible": true, "properties": [{"name": "kind", "type": "int", "value": 34}, {"name": "a", "type": "int", "value": 0}, {"name": "b", "type": "int", "value": 0}]}, {"id": 562, "name": "", "x": 480, "y": 1200, "width": 16, "height": 16, "visible": true, "properties": [{"name": "kind", "type": "int", "value": 34}, {"name": "a", "type": "int", "value": 0}, {"name": "b", "type": "int", "value": 0}]}, {"id": 563, "name": "", "x": 512, "y": 1200, "width": 16, "height": 16, "visible": true, "properties": [{"name": "kind", "type": "int", "value": 34}, {"name": "a", "type": "int", "value": 0}, {"name": "b", "type": "int", "value": 0}]}, {"id": 564, "name": "", "x": 848, "y": 1232, "width": 16, "height": 16, "visible": true, "properties": [{"name": "kind", "type": "int", "value": 34}, {"name": "a", "type": "int", "value": 0}, {"name": "b", "type": "int", "value": 0}]}, {"id": 565, "name": "", "x": 880, "y": 1184, "width": 16, "height": 16, "visible": true, "properties": [{"name": "kind", "type": "int", "value": 34}, {"name": "a", "type": "int", "value": 0}, {"name": "b", "type": "int", "value": 0}]}, {"id": 566, "name": "", "x": 816, "y": 1248, "width": 16, "height": 16, "visible": true, "properties": [{"name": "kind", "type": "int", "value": 34}, {"name": "a", "type": "int", "value": 0}, {"name": "b", "type": "int", "value": 0}]}, {"id": 567, "name": "", "x": 752, "y": 1152, "width": 16, "height": 16, "visible": true, "properties": [{"name": "kind", "type": "int", "value": 34}, {"name": "a", "type": "int", "value": 0}, {"name": "b", "type": "int", "value": 0}]}, {"id": 568, "name": "", "x": 992, "y": 1168, "width": 16, "height": 16, "visible": true, "properties": [{"name": "kind", "type": "int", "value": 39}, {"name": "a", "type": "int", "value": 0}, {"name": "b", "type": "int", "value": 0}]}, {"id": 569, "name": "", "x": 1216, "y": 1200, "width": 16, "height": 16, "visible": true, "properties": [{"name": "kind", "type": "int", "value": 35}, {"name": "a", "type": "int", "value": 0}, {"name": "b", "type": "int", "value": 0}]}, {"id": 570, "name": "", "x": 1360, "y": 1168, "width": 16, "height": 16, "visible": true, "properties": [{"name": "kind", "type": "int", "value": 72}, {"name": "a", "type": "int", "value": 0}, {"name": "b", "type": "int", "value": 0}]}, {"id": 571, "name": "", "x": 1360, "y": 1152, "width": 16, "height": 16, "visible": true, "properties": [{"name": "kind", "type": "int", "value": 35}, {"name": "a", "type": "int", "value": 0}, {"name": "b", "type": "int", "value": 0}]}, {"id": 572, "name": "", "x": 1264, "y": 1200, "width": 16, "height": 16, "visible": true, "properties": [{"name": "kind", "type": "int", "value": 72}, {"name": "a", "type": "int", "value": 0}, {"name": "b", "type": "int", "value": 0}]}, {"id": 573, "name": "", "x": 1392, "y": 1152, "width": 16, "height": 16, "visible": true, "properties": [{"name": "kind", "type": "int", "value": 35}, {"name": "a", "type": "int", "value": 0}, {"name": "b", "type": "int", "value": 0}]}, {"id": 574, "name": "", "x": 1408, "y": 1200, "width": 16, "height": 16, "visible": true, "properties": [{"name": "kind", "type": "int", "value": 72}, {"name": "a", "type": "int", "value": 0}, {"name": "b", "type": "int", "value": 0}]}, {"id": 575, "name": "", "x": 1616, "y": 1184, "width": 16, "height": 16, "visible": true, "properties": [{"name": "kind", "type": "int", "value": 39}, {"name": "a", "type": "int", "value": 0}, {"name": "b", "type": "int", "value": 0}]}, {"id": 576, "name": "", "x": 1632, "y": 1232, "width": 16, "height": 16, "visible": true, "properties": [{"name": "kind", "type": "int", "value": 39}, {"name": "a", "type": "int", "value": 0}, {"name": "b", "type": "int", "value": 0}]}, {"id": 577, "name": "", "x": 1568, "y": 1184, "width": 16, "height": 16, "visible": true, "properties": [{"name": "kind", "type": "int", "value": 39}, {"name": "a", "type": "int", "value": 0}, {"name": "b", "type": "int", "value": 0}]}, {"id": 578, "name": "", "x": 1648, "y": 1216, "width": 16, "height": 16, "visible": true, "properties": [{"name": "kind", "type": "int", "value": 39}, {"name": "a", "type": "int", "value": 0}, {"name": "b", "type": "int", "value": 0}]}, {"id": 579, "name": "", "x": 2048, "y": 1200, "width": 16, "height": 16, "visible": true, "properties": [{"name": "kind", "type": "int", "value": 33}, {"name": "a", "type": "int", "value": 0}, {"name": "b", "type": "int", "value": 0}]}, {"id": 580, "name": "", "x": 2032, "y": 1168, "width": 16, "height": 16, "visible": true, "properties": [{"name": "kind", "type": "int", "value": 33}, {"name": "a", "type": "int", "value": 0}, {"name": "b", "type": "int", "value": 0}]}, {"id": 581, "name": "", "x": 2000, "y": 1232, "width": 16, "height": 16, "visible": true, "properties": [{"name": "kind", "type": "int", "value": 33}, {"name": "a", "type": "int", "value": 0}, {"name": "b", "type": "int", "value": 0}]}, {"id": 582, "name": "", "x": 2128, "y": 1216, "width": 16, "height": 16, "visible": true, "properties": [{"name": "kind", "type": "int", "value": 33}, {"name": "a", "type": "int", "value": 0}, {"name": "b", "type": "int", "value": 0}]}, {"id": 583, "name": "", "x": 2256, "y": 1200, "width": 16, "height": 16, "visible": true, "properties": [{"name": "kind", "type": "int", "value": 39}, {"name": "a", "type": "int", "value": 0}, {"name": "b", "type": "int", "value": 0}]}, {"id": 584, "name": "", "x": 2288, "y": 1248, "width": 16, "height": 16, "visible": true, "properties": [{"name": "kind", "type": "int", "value": 39}, {"name": "a", "type": "int", "value": 0}, {"name": "b", "type": "int", "value": 0}]}, {"id": 585, "name": "", "x": 2256, "y": 1152, "width": 16, "height": 16, "visible": true, "properties": [{"name": "kind", "type": "int", "value": 39}, {"name": "a", "type": "int", "value": 0}, {"name": "b", "type": "int", "value": 0}]}, {"id": 586, "name": "", "x": 2336, "y": 1168, "width": 16, "height": 16, "visible": true, "properties": [{"name": "kind", "type": "int", "value": 39}, {"name": "a", "type": "int", "value": 0}, {"name": "b", "type": "int", "value": 0}]}, {"id": 587, "name": "", "x": 2224, "y": 1216, "width": 16, "height": 16, "visible": true, "properties": [{"name": "kind", "type": "int", "value": 39}, {"name": "a", "type": "int", "value": 0}, {"name": "b", "type": "int", "value": 0}]}, {"id": 588, "name": "", "x": 2560, "y": 1200, "width": 16, "height": 16, "visible": true, "properties": [{"name": "kind", "type": "int", "value": 39}, {"name": "a", "type": "int", "value": 0}, {"name": "b", "type": "int", "value": 0}]}, {"id": 589, "name": "", "x": 2528, "y": 1248, "width": 16, "height": 16, "visible": true, "properties": [{"name": "kind", "type": "int", "value": 39}, {"name": "a", "type": "int", "value": 0}, {"name": "b", "type": "int", "value": 0}]}, {"id": 590, "name": "", "x": 2496, "y": 1216, "width": 16, "height": 16, "visible": true, "properties": [{"name": "kind", "type": "int", "value": 39}, {"name": "a", "type": "int", "value": 0}, {"name": "b", "type": "int", "value": 0}]}, {"id": 591, "name": "", "x": 2512, "y": 1152, "width": 16, "height": 16, "visible": true, "properties": [{"name": "kind", "type": "int", "value": 39}, {"name": "a", "type": "int", "value": 0}, {"name": "b", "type": "int", "value": 0}]}, {"id": 592, "name": "", "x": 2784, "y": 1168, "width": 16, "height": 16, "visible": true, "properties": [{"name": "kind", "type": "int", "value": 35}, {"name": "a", "type": "int", "value": 0}, {"name": "b", "type": "int", "value": 0}]}, {"id": 593, "name": "", "x": 2704, "y": 1200, "width": 16, "height": 16, "visible": true, "properties": [{"name": "kind", "type": "int", "value": 35}, {"name": "a", "type": "int", "value": 0}, {"name": "b", "type": "int", "value": 0}]}, {"id": 594, "name": "", "x": 2736, "y": 1200, "width": 16, "height": 16, "visible": true, "properties": [{"name": "kind", "type": "int", "value": 35}, {"name": "a", "type": "int", "value": 0}, {"name": "b", "type": "int", "value": 0}]}, {"id": 595, "name": "", "x": 2832, "y": 1184, "width": 16, "height": 16, "visible": true, "properties": [{"name": "kind", "type": "int", "value": 35}, {"name": "a", "type": "int", "value": 0}, {"name": "b", "type": "int", "value": 0}]}, {"id": 596, "name": "", "x": 2720, "y": 1184, "width": 16, "height": 16, "visible": true, "properties": [{"name": "kind", "type": "int", "value": 35}, {"name": "a", "type": "int", "value": 0}, {"name": "b", "type": "int", "value": 0}]}, {"id": 597, "name": "", "x": 2768, "y": 1168, "width": 16, "height": 16, "visible": true, "properties": [{"name": "kind", "type": "int", "value": 35}, {"name": "a", "type": "int", "value": 0}, {"name": "b", "type": "int", "value": 0}]}, {"id": 598, "name": "", "x": 3056, "y": 1184, "width": 16, "height": 16, "visible": true, "properties": [{"name": "kind", "type": "int", "value": 35}, {"name": "a", "type": "int", "value": 0}, {"name": "b", "type": "int", "value": 0}]}, {"id": 599, "name": "", "x": 3088, "y": 1184, "width": 16, "height": 16, "visible": true, "properties": [{"name": "kind", "type": "int", "value": 35}, {"name": "a", "type": "int", "value": 0}, {"name": "b", "type": "int", "value": 0}]}, {"id": 600, "name": "", "x": 2912, "y": 1200, "width": 16, "height": 16, "visible": true, "properties": [{"name": "kind", "type": "int", "value": 35}, {"name": "a", "type": "int", "value": 0}, {"name": "b", "type": "int", "value": 0}]}, {"id": 601, "name": "", "x": 3008, "y": 1184, "width": 16, "height": 16, "visible": true, "properties": [{"name": "kind", "type": "int", "value": 35}, {"name": "a", "type": "int", "value": 0}, {"name": "b", "type": "int", "value": 0}]}, {"id": 602, "name": "", "x": 2960, "y": 1152, "width": 16, "height": 16, "visible": true, "properties": [{"name": "kind", "type": "int", "value": 35}, {"name": "a", "type": "int", "value": 0}, {"name": "b", "type": "int", "value": 0}]}, {"id": 603, "name": "", "x": 2992, "y": 1184, "width": 16, "height": 16, "visible": true, "properties": [{"name": "kind", "type": "int", "value": 35}, {"name": "a", "type": "int", "value": 0}, {"name": "b", "type": "int", "value": 0}]}, {"id": 604, "name": "", "x": 3232, "y": 1200, "width": 16, "height": 16, "visible": true, "properties": [{"name": "kind", "type": "int", "value": 33}, {"name": "a", "type": "int", "value": 0}, {"name": "b", "type": "int", "value": 0}]}, {"id": 605, "name": "", "x": 3328, "y": 1168, "width": 16, "height": 16, "visible": true, "properties": [{"name": "kind", "type": "int", "value": 33}, {"name": "a", "type": "int", "value": 0}, {"name": "b", "type": "int", "value": 0}]}, {"id": 606, "name": "", "x": 3168, "y": 1184, "width": 16, "height": 16, "visible": true, "properties": [{"name": "kind", "type": "int", "value": 33}, {"name": "a", "type": "int", "value": 0}, {"name": "b", "type": "int", "value": 0}]}, {"id": 607, "name": "", "x": 3344, "y": 1200, "width": 16, "height": 16, "visible": true, "properties": [{"name": "kind", "type": "int", "value": 33}, {"name": "a", "type": "int", "value": 0}, {"name": "b", "type": "int", "value": 0}]}, {"id": 608, "name": "", "x": 3456, "y": 1184, "width": 16, "height": 16, "visible": true, "properties": [{"name": "kind", "type": "int", "value": 33}, {"name": "a", "type": "int", "value": 0}, {"name": "b", "type": "int", "value": 0}]}, {"id": 609, "name": "", "x": 3568, "y": 1200, "width": 16, "height": 16, "visible": true, "properties": [{"name": "kind", "type": "int", "value": 33}, {"name": "a", "type": "int", "value": 0}, {"name": "b", "type": "int", "value": 0}]}, {"id": 610, "name": "", "x": 3440, "y": 1184, "width": 16, "height": 16, "visible": true, "properties": [{"name": "kind", "type": "int", "value": 33}, {"name": "a", "type": "int", "value": 0}, {"name": "b", "type": "int", "value": 0}]}, {"id": 611, "name": "", "x": 3376, "y": 1184, "width": 16, "height": 16, "visible": true, "properties": [{"name": "kind", "type": "int", "value": 33}, {"name": "a", "type": "int", "value": 0}, {"name": "b", "type": "int", "value": 0}]}, {"id": 612, "name": "", "x": 3632, "y": 1184, "width": 16, "height": 16, "visible": true, "properties": [{"name": "kind", "type": "int", "value": 33}, {"name": "a", "type": "int", "value": 0}, {"name": "b", "type": "int", "value": 0}]}, {"id": 613, "name": "", "x": 1792, "y": 1200, "width": 16, "height": 16, "visible": true, "properties": [{"name": "kind", "type": "int", "value": 0}, {"name": "a", "type": "int", "value": 0}, {"name": "b", "type": "int", "value": 0}]}, {"id": 614, "name": "statue_bracelet_E6", "type": "", "x": 1184, "y": 448, "width": 16, "height": 16, "rotation": 0, "visible": true, "properties": [{"name": "kind", "type": "int", "value": 204}, {"name": "a", "type": "int", "value": 0}, {"name": "b", "type": "int", "value": 20}]}]}]}